Zhao-JW/SharedControl4RemotePalpation/Data/csvdata/fan1_feb-28-2023__0/starting_0_4.csv
,skin_data,patient_data,sample_times,keys_pressed,palpation_start_pose,robot_initiative,descent_start_pose,palpation_start_time,palpation_end_time,target_position,human_response,action,recipe_id,timestamp,target_q,target_qd,output_int_register_0,target_qdd,target_current,target_moment,actual_q,actual_qd,actual_current,joint_control_output,actual_TCP_pose,actual_TCP_speed,actual_TCP_force,target_TCP_pose,target_TCP_speed,actual_digital_input_bits,joint_temperatures,actual_execution_time,robot_mode,joint_mode,safety_mode,actual_tool_accelerometer,speed_scaling,target_speed_fraction,actual_momentum,actual_main_voltage,actual_robot_voltage,actual_robot_current,actual_joint_voltage,actual_digital_output_bits,runtime_state
0,"[[36326. 36326. 36197. 36197. 36209. 36209. 37491. 37491.]
 [36326. 36326. 36197. 36197. 36209. 36209. 37491. 37491.]
 [28303. 28303. 35886. 35886. 35768. 35768. 36636. 36636.]
 [28303. 28303. 35886. 35886. 35768. 35768. 36636. 36636.]
 [36991. 36991. 35829. 35829. 36021. 36021. 36829. 36829.]
 [36991. 36991. 35829. 35829. 36021. 36021. 36829. 36829.]
 [37338. 37338. 36342. 36342. 36567. 36567. 37153. 37153.]
 [37338. 37338. 36342. 36342. 36567. 36567. 37153. 37153.]]",,1677600986.7444432,['-X'],"[-0.36849892447009297, -0.05328877321490769, 0.13228343242528773, -0.17758565500303566, -3.112165433946154, -0.05353813727954714]",-1,"[-0.36888, -0.0535, 0.1327874404880196, -0.1776149723693316, -3.1111545019089464, -0.05399520880345856]",1677600986.7284844,1677601106.7284844,-1,starting,"('starting', (-0.36888, -0.0535), 0, 4, -0.01)",1,1214.24,"[-0.1352480093585413, -1.821683708821432, 2.2109951972961426, 4.297053337097168, -1.6006487051593226, -1.59247333208193]","[0.0, 0.0, -0.0, 0.0, 0.0, 0.0]",0,"[0.0, 0.0, 0.0, 0.0, 0.0, 0.0]","[3.617131653259822e-17, -0.5095656913906956, -1.2551607110147136, -0.15946867852829724, -0.0010923037277430828, 0.0]","[4.541520489445886e-16, -6.493006239952399, -15.976067564013178, -1.4901936196484376, -0.010303568387293512, 0.0]","[-0.13523561159242803, -1.821683708821432, 2.2109832763671875, 4.297041416168213, -1.6006248633014124, -1.5925095717059534]","[0.0, 0.0, -0.0, 0.0, 0.0, 0.0]","[-0.11881595849990845, -0.2936771810054779, -1.1612578630447388, -0.1326785832643509, 0.06557676941156387, -0.07167693227529526]","[-0.11657414585351944, -0.2914353609085083, -1.1388397216796875, -0.14182883501052856, 0.07015189528465271, -0.06405173242092133]","[-0.36847932523772553, -0.05327703113410645, 0.13225976462933758, -0.17766054763268804, -3.1122095139504813, -0.05351540880694815]","[0.0, 0.0, 0.0, 0.0, 0.0, 0.0]","[4.303009204816526, -5.2675552508302355, 4.640926034299604, 1.7129587717076973, 0.6524812872792877, -0.6784328618280967]","[-0.3684723088539139, -0.05326814816975063, 0.13225321298595705, -0.17773758287335686, -3.11222980611767, -0.05354951301522788]","[0.0, 0.0, 0.0, 0.0, 0.0, 0.0]",65536,"[33.77998352050781, 33.269981384277344, 31.729991912841797, 38.389984130859375, 40.049983978271484, 43.799983978271484]",0.34692,7,"[253, 253, 253, 253, 253, 253]",1,"[0.39857950806617737, 1.1627732515335083, -8.993512153625488]",0.0,1.0,0.006524871219022505,47.88711929321289,47.88711929321289,0.7161448001861572,"[47.59000015258789, 47.68199920654297, 47.72700119018555, 47.6510009765625, 47.560001373291016, 47.68199920654297]",132,1
1,"[[36328. 36328. 36196. 36196. 36209. 36209. 37493. 37493.]
 [36328. 36328. 36196. 36196. 36209. 36209. 37493. 37493.]
 [28302. 28302. 35885. 35885. 35768. 35768. 36635. 36635.]
 [28302. 28302. 35885. 35885. 35768. 35768. 36635. 36635.]
 [36992. 36992. 35831. 35831. 36022. 36022. 36827. 36827.]
 [36992. 36992. 35831. 35831. 36022. 36022. 36827. 36827.]
 [37343. 37343. 36341. 36341. 36567. 36567. 37151. 37151.]
 [37343. 37343. 36341. 36341. 36567. 36567. 37151. 37151.]]",,1677600986.759403,['-X'],"[-0.36849892447009297, -0.05328877321490769, 0.13228343242528773, -0.17758565500303566, -3.112165433946154, -0.05353813727954714]",-1,"[-0.36888, -0.0535, 0.1327874404880196, -0.1776149723693316, -3.1111545019089464, -0.05399520880345856]",1677600986.7284844,1677601106.7284844,-1,starting,"('starting', (-0.36888, -0.0535), 0, 4, -0.01)",1,1214.2559999999999,"[-0.1351998488055628, -1.8216598669635218, 2.210947036743164, 4.297029495239258, -1.6006367842303675, -1.5924971739398401]","[0.0, 0.0, -0.0, 0.0, 0.0, 0.0]",0,"[0.0, 0.0, 0.0, 0.0, 0.0, 0.0]","[3.636421816538252e-17, -0.5096474251851005, -1.2551732248568328, -0.15947025827287412, -0.0010918662983252485, 0.0]","[4.565740418431549e-16, -6.494047711240699, -15.97622684400452, -1.4902083819535552, -0.01029944216872738, 0.0]","[-0.13523561159242803, -1.821707550679342, 2.2109594345092773, 4.297029495239258, -1.600673023854391, -1.5924971739398401]","[0.0, 0.0, -0.0, 0.0, 0.0, 0.0]","[-0.09639785438776016, -0.27574270963668823, -1.1433234214782715, -0.14182883501052856, 0.06557676941156387, -0.06862685084342957]","[-0.11657414585351944, -0.2914353609085083, -1.1388397216796875, -0.14182883501052856, 0.07015189528465271, -0.06405173242092133]","[-0.3684881664764854, -0.053265015181672724, 0.13228089527073225, -0.17767899695371847, -3.1121511339824215, -0.053596352334063485]","[0.0, 0.0, 0.0, 0.0, 0.0, 0.0]","[4.676592355846201, -4.36887502515251, 5.60855609994488, 1.48187606424038, 0.5547594868451452, -0.64864603009488]","[-0.3684939243462674, -0.053285315059554444, 0.13226931438955877, -0.17762348269886713, -3.112187109719805, -0.05353562156549262]","[0.0, 0.0, 0.0, 0.0, 0.0, 0.0]",65536,"[33.77998352050781, 33.269981384277344, 31.729991912841797, 38.389984130859375, 40.049983978271484, 43.799983978271484]",0.35375999999999996,7,"[253, 253, 253, 253, 253, 253]",1,"[0.3835953176021576, 1.1747605800628662, -9.014490127563477]",0.0,1.0,0.011391863657296086,47.88711929321289,47.88711929321289,0.6445291042327881,"[47.59000015258789, 47.68199920654297, 47.72700119018555, 47.6510009765625, 47.560001373291016, 47.696998596191406]",132,1
2,"[[36327. 36327. 36194. 36194. 36208. 36208. 37489. 37489.]
 [36327. 36327. 36194. 36194. 36208. 36208. 37489. 37489.]
 [28303. 28303. 35884. 35884. 35769. 35769. 36633. 36633.]
 [28303. 28303. 35884. 35884. 35769. 35769. 36633. 36633.]
 [36994. 36994. 35829. 35829. 36021. 36021. 36827. 36827.]
 [36994. 36994. 35829. 35829. 36021. 36021. 36827. 36827.]
 [37343. 37343. 36342. 36342. 36566. 36566. 37153. 37153.]
 [37343. 37343. 36342. 36342. 36566. 36566. 37153. 37153.]]",,1677600986.77641,['-X'],"[-0.36849892447009297, -0.05328877321490769, 0.13228343242528773, -0.17758565500303566, -3.112165433946154, -0.05353813727954714]",-1,"[-0.36888, -0.0535, 0.1327874404880196, -0.1776149723693316, -3.1111545019089464, -0.05399520880345856]",1677600986.7284844,1677601106.7284844,-1,starting,"('starting', (-0.36888, -0.0535), 0, 4, -0.01)",1,1214.272,"[-0.13523561159242803, -1.821707550679342, 2.2109594345092773, 4.297029495239258, -1.600673023854391, -1.5924971739398401]","[0.0, 0.0, -0.0, 0.0, 0.0, 0.0]",0,"[0.0, 0.0, 0.0, 0.0, 0.0, 0.0]","[3.869499221782033e-17, -0.5712870202766618, -1.4073348554843679, -0.17880128256593475, -0.0012256988991071274, 0.0]","[4.3331521752673546e-16, -6.492503812790344, -15.976447322757583, -1.4902191836111474, -0.010311937069897999, 0.0]","[-0.13523561159242803, -1.821695629750387, 2.2109951972961426, 4.297017574310303, -1.6006611029254358, -1.592485253010885]","[0.0, 0.0, -0.0, 0.0, 0.0, 0.0]","[-0.1345086395740509, -0.2959190011024475, -1.1410815715789795, -0.14030379056930542, 0.06710181385278702, -0.06405173242092133]","[-0.11657414585351944, -0.2914353609085083, -1.1388397216796875, -0.14182883501052856, 0.07015189528465271, -0.06405173242092133]","[-0.3684785584439238, -0.05326898970205033, 0.13226116568808396, -0.17769839064835638, -3.1121849806306163, -0.0535738340686156]","[0.0, 0.0, 0.0, 0.0, 0.0, 0.0]","[1.9295579192853831, -6.046457775085794, 9.46113890585836, 1.8185899063370718, -0.23983199772814298, -0.6419409522677797]","[-0.3684881664764854, -0.053265015181672724, 0.13228089527073225, -0.17767899695371847, -3.1121511339824215, -0.053596352334063485]","[0.0, 0.0, 0.0, 0.0, 0.0, 0.0]",65536,"[33.77998352050781, 33.269981384277344, 31.729991912841797, 38.389984130859375, 40.049983978271484, 43.799983978271484]",0.415584,7,"[253, 253, 253, 253, 253, 253]",1,"[0.392585813999176, 1.1387985944747925, -8.9725341796875]",1.0,1.0,0.0,47.88711929321289,47.88711929321289,0.6445291042327881,"[47.59000015258789, 47.66600036621094, 47.72700119018555, 47.696998596191406, 47.560001373291016, 47.696998596191406]",132,2
3,"[[36331. 36331. 36198. 36198. 36210. 36210. 37490. 37490.]
 [36331. 36331. 36198. 36198. 36210. 36210. 37490. 37490.]
 [28304. 28304. 35885. 35885. 35774. 35774. 36633. 36633.]
 [28304. 28304. 35885. 35885. 35774. 35774. 36633. 36633.]
 [36993. 36993. 35831. 35831. 36020. 36020. 36825. 36825.]
 [36993. 36993. 35831. 35831. 36020. 36020. 36825. 36825.]
 [37342. 37342. 36342. 36342. 36564. 36564. 37150. 37150.]
 [37342. 37342. 36342. 36342. 36564. 36564. 37150. 37150.]]",,1677600986.791372,['-X'],"[-0.36849892447009297, -0.05328877321490769, 0.13228343242528773, -0.17758565500303566, -3.112165433946154, -0.05353813727954714]",-1,"[-0.36888, -0.0535, 0.1327874404880196, -0.1776149723693316, -3.1111545019089464, -0.05399520880345856]",1677600986.7284844,1677601106.7284844,-1,starting,"('starting', (-0.36888, -0.0535), 0, 4, -0.01)",1,1214.288,"[-0.1352356311101488, -1.8217074131238133, 2.2109592794916466, 4.29702976476728, -1.60067299052806, -1.592497286585079]","[-3.415288286857177e-06, 2.407001035974176e-05, -2.7125597862333562e-05, 4.71630789094948e-05, 5.831573157396975e-06, -1.9711109483607176e-05]",0,"[-0.0003861969161203139, 0.0027218094026479457, -0.0030673317630818884, 0.005333147336254988, 0.0006594276618418605, -0.002228909847867655]","[-0.00016333291194046352, -0.5696576213341876, -1.409209216981888, -0.17771597757772645, -0.0012095279269665603, -0.000428542934715165]","[-0.0018290386484213583, -6.484741054904672, -15.983360845690466, -1.4891195001898523, -0.010175888936711232, -0.0004721815500396201]","[-0.1352599302874964, -1.821683708821432, 2.210947036743164, 4.297041416168213, -1.600673023854391, -1.5925095717059534]","[0.0, 0.0, -0.0, 0.0, 0.0, 0.0]","[-0.12778319418430328, -0.36541512608528137, -1.2980083227157593, -0.14792899787425995, 0.07167693227529526, -0.06405173242092133]","[-0.13899224996566772, -0.36541512608528137, -1.2598974704742432, -0.15097907185554504, 0.06862685084342957, -0.06710181385278702]","[-0.36849241430471585, -0.05325566773435347, 0.13227691020116722, -0.17769830099455167, -3.112174025324809, -0.05359458507713768]","[0.0, 0.0, 0.0, 0.0, 0.0, 0.0]","[3.4139563468570646, -5.519325811728585, 4.822606529863492, 1.8291439753277772, 0.4581219071255841, -0.6133001685984828]","[-0.3684881723351812, -0.053265014928086454, 0.13228089054226513, -0.1776788599205292, -3.112151394459285, -0.05359627628480168]","[-1.0251785336131812e-06, 4.4359977628293244e-08, -8.274053656367955e-07, -1.1321944929012815e-05, -4.3616672399337466e-05, 1.6372100443920784e-05]",65536,"[33.77998352050781, 33.269981384277344, 31.729991912841797, 38.389984130859375, 40.049983978271484, 43.799983978271484]",0.399829,7,"[253, 253, 253, 253, 253, 253]",1,"[0.44652891159057617, 1.1657700538635254, -9.026476860046387]",1.0,1.0,6.579112841655233e-05,47.88711929321289,47.88711929321289,0.6803395748138428,"[47.57500076293945, 47.66600036621094, 47.696998596191406, 47.696998596191406, 47.54499816894531, 47.696998596191406]",132,2
4,"[[36328. 36328. 36196. 36196. 36214. 36214. 37489. 37489.]
 [36328. 36328. 36196. 36196. 36214. 36214. 37489. 37489.]
 [28304. 28304. 35886. 35886. 35770. 35770. 36632. 36632.]
 [28304. 28304. 35886. 35886. 35770. 35770. 36632. 36632.]
 [36993. 36993. 35830. 35830. 36024. 36024. 36825. 36825.]
 [36993. 36993. 35830. 35830. 36024. 36024. 36825. 36825.]
 [37340. 37340. 36341. 36341. 36566. 36566. 37152. 37152.]
 [37340. 37340. 36341. 36341. 36566. 36566. 37152. 37152.]]",,1677600986.8079085,['-X'],"[-0.36849892447009297, -0.05328877321490769, 0.13228343242528773, -0.17758565500303566, -3.112165433946154, -0.05353813727954714]",-1,"[-0.36888, -0.0535, 0.1327874404880196, -0.1776149723693316, -3.1111545019089464, -0.05399520880345856]",1677600986.7284844,1677601106.7284844,-1,starting,"('starting', (-0.36888, -0.0535), 0, 4, -0.01)",1,1214.3039999999999,"[-0.13523586195337245, -1.8217057868193969, 2.210957447144107, 4.2970329510895215, -1.600672596272391, -1.5924986187727157]","[-3.0319892559612848e-05, 0.0002136050376930174, -0.00024066724093104635, 0.00041850354507921037, 5.1783216411905224e-05, -0.00017497489356386303]",0,"[-0.0030234050917265897, 0.021299959389836625, -0.023998463526394943, 0.04173170243139781, 0.00516367114932108, -0.017447938371190286]","[-0.0028623289042206445, -0.5575449661893276, -1.4233270468742267, -0.16930821350269398, -7.384871093021777e-05, -0.0037442012189885347]","[-0.014315895022321692, -6.431779152937393, -16.030536549653938, -1.4816134860692318, -0.009246539786100289, -0.003696243970112143]","[-0.13518840471376592, -1.821683708821432, 2.2109832763671875, 4.297029495239258, -1.6006611029254358, -1.59247333208193]","[0.0, 0.0, -0.0, 0.0, 0.0, 0.0]","[-0.1345086395740509, -0.4259440004825592, -1.2554138898849487, -0.11895321309566498, 0.06557676941156387, -0.06252668797969818]","[-0.1322668194770813, -0.4012840986251831, -1.2554138898849487, -0.15402916073799133, 0.06862685084342957, -0.06557676941156387]","[-0.36847831273323095, -0.05328608554039462, 0.13226122586818453, -0.17764380590871728, -3.112199023278149, -0.053571456182862694]","[0.0, 0.0, 0.0, 0.0, 0.0, 0.0]","[-0.7661033621952476, -6.214069359459506, 4.619097571000584, 1.9489247032374886, -0.24225411712597783, -0.5960306647895101]","[-0.3684882415247138, -0.05326501196404638, 0.13228083447511055, -0.17767723931071533, -3.112154474202099, -0.0535953767768243]","[-9.08752338601898e-06, 3.8928259009544063e-07, -7.36412998290222e-06, -0.00010050800949827733, -0.0003870828857107869, 0.00014533260909640455]",65536,"[33.77998352050781, 33.269981384277344, 31.729991912841797, 38.389984130859375, 40.049983978271484, 43.799983978271484]",0.46524,7,"[253, 253, 253, 253, 253, 253]",1,"[0.38958898186683655, 1.1867480278015137, -8.927581787109375]",1.0,1.0,0.0007005981449332668,47.88711929321289,47.88711929321289,0.7161448001861572,"[47.57500076293945, 47.66600036621094, 47.696998596191406, 47.696998596191406, 47.54499816894531, 47.696998596191406]",132,2
5,"[[36329. 36329. 36199. 36199. 36208. 36208. 37490. 37490.]
 [36329. 36329. 36199. 36199. 36208. 36208. 37490. 37490.]
 [28304. 28304. 35885. 35885. 35768. 35768. 36633. 36633.]
 [28304. 28304. 35885. 35885. 35768. 35768. 36633. 36633.]
 [36994. 36994. 35829. 35829. 36021. 36021. 36825. 36825.]
 [36994. 36994. 35829. 35829. 36021. 36021. 36825. 36825.]
 [37341. 37341. 36342. 36342. 36569. 36569. 37150. 37150.]
 [37341. 37341. 36342. 36342. 36569. 36569. 37150. 37150.]]",,1677600986.822869,['-X'],"[-0.36849892447009297, -0.05328877321490769, 0.13228343242528773, -0.17758565500303566, -3.112165433946154, -0.05353813727954714]",-1,"[-0.36888, -0.0535, 0.1327874404880196, -0.1776149723693316, -3.1111545019089464, -0.05399520880345856]",1677600986.7284844,1677601106.7284844,-1,starting,"('starting', (-0.36888, -0.0535), 0, 4, -0.01)",1,1214.32,"[-0.13523678170167663, -1.8216993032053503, 2.2109501410922654, 4.297045653452762, -1.600671027048822, -1.5925039268810988]","[-0.0001069289866317304, 0.000753787060599318, -0.0008494061972062313, 0.001476779526485037, 0.0001824327179066162, -0.0006171158104381456]",0,"[-0.009868855210566371, 0.06957109843085812, -0.0783966708226474, 0.13629978345744295, 0.016836782997808445, -0.05695590545314561]","[-0.009760462370277084, -0.5241981530750517, -1.4625350111414077, -0.14556564247419262, 0.0027991454959268593, -0.013088018999277369]","[-0.04674534896899829, -6.294258602375754, -16.15314660654436, -1.4621117124274428, -0.00683800864673494, -0.01206577634645239]","[-0.13523561159242803, -1.8216479460345667, 2.2109951972961426, 4.297029495239258, -1.6006487051593226, -1.5924971739398401]","[0.0, 0.0, -0.0, 0.0, 0.0, 0.0]","[-0.14123407006263733, -0.39007502794265747, -1.2621393203735352, -0.15860427916049957, 0.0564265251159668, -0.07167693227529526]","[-0.14347587525844574, -0.3968004584312439, -1.2823156118392944, -0.15097907185554504, 0.0564265251159668, -0.07167693227529526]","[-0.36847836968186665, -0.05327182007312398, 0.1322428126734016, -0.17768141228424675, -3.1122451313710493, -0.053548507850736414]","[0.0, 0.0, 0.0, 0.0, 0.0, 0.0]","[-1.0226587474969795, -6.313022213569831, 7.291657596826023, 1.7226446858712796, -1.1338733708594775, -0.6210051484875649]","[-0.3684885177474221, -0.053264999721681, 0.13228061150368084, -0.17767078209786413, -3.1121667505024857, -0.053591794691327625]","[-3.2114038696512985e-05, 1.424192403679657e-06, -2.592067649466137e-05, -0.0003543700459256517, -0.0013658079334389428, 0.0005125687684520094]",65536,"[33.77998352050781, 33.269981384277344, 31.729991912841797, 38.389984130859375, 40.049983978271484, 43.799983978271484]",0.472848,7,"[253, 253, 253, 253, 253, 253]",1,"[0.38659214973449707, 1.1268112659454346, -8.9725341796875]",1.0,1.0,0.0026489353125851364,47.88711929321289,47.88711929321289,0.6803395748138428,"[47.57500076293945, 47.66600036621094, 47.696998596191406, 47.696998596191406, 47.54499816894531, 47.696998596191406]",132,2
6,"[[36327. 36327. 36199. 36199. 36213. 36213. 37489. 37489.]
 [36327. 36327. 36199. 36199. 36213. 36213. 37489. 37489.]
 [28302. 28302. 35887. 35887. 35771. 35771. 36633. 36633.]
 [28302. 28302. 35887. 35887. 35771. 35771. 36633. 36633.]
 [36994. 36994. 35830. 35830. 36022. 36022. 36830. 36830.]
 [36994. 36994. 35830. 35830. 36022. 36022. 36830. 36830.]
 [37339. 37339. 36343. 36343. 36567. 36567. 37149. 37149.]
 [37339. 37339. 36343. 36343. 36567. 36567. 37149. 37149.]]",,1677600986.8357213,['-X'],"[-0.36849892447009297, -0.05328877321490769, 0.13228343242528773, -0.17758565500303566, -3.112165433946154, -0.05353813727954714]",-1,"[-0.36888, -0.0535, 0.1327874404880196, -0.1776149723693316, -3.1111545019089464, -0.05399520880345856]",1677600986.7284844,1677601106.7284844,-1,starting,"('starting', (-0.36888, -0.0535), 0, 4, -0.01)",1,1214.336,"[-0.13523921321852406, -1.821682173344862, 2.2109308406455206, 4.297079216046303, -1.6006668684499523, -1.5925179608820947]","[-0.00026281024627109915, 0.0018514374329778728, -0.0020860306792408008, 0.003627537884126658, 0.00044952059812582634, -0.001516867620605873]",0,"[-0.022804066749575247, 0.1606424793472871, -0.1809957848349006, 0.3147499393165626, 0.0390113613830912, -0.13161940246116732]","[-0.023372094414642525, -0.4581814847178521, -1.5406510479849627, -0.09761524034520856, 0.008631539803360054, -0.031956262038851574]","[-0.10797365104921713, -6.034968908954469, -16.384384505205066, -1.4253061676441312, -0.0022614554289538628, -0.027882802675423743]","[-0.13523561159242803, -1.821707550679342, 2.2109594345092773, 4.297053337097168, -1.6006248633014124, -1.5924971739398401]","[0.0, 0.0, -0.0, 0.0, 0.0, 0.0]","[-0.12778319418430328, -0.2981607913970947, -1.405615210533142, -0.1296284943819046, 0.050326358526945114, -0.08387726545333862]","[-0.14795950055122375, -0.2914353609085083, -1.3944061994552612, -0.11590313166379929, 0.0564265251159668, -0.08082718402147293]","[-0.3684844265300337, -0.05327633567367076, 0.13227814849546973, -0.17767874375679246, -3.1121724903008205, -0.05351892456511791]","[0.0, 0.0, 0.0, 0.0, 0.0, 0.0]","[1.8491788295369755, -4.727575103202636, 6.569617174829458, 1.2502385855881675, -0.5908781040503177, -0.5296128068454015]","[-0.3684892465270462, -0.053264969807780914, 0.13228002104615455, -0.17765370878326425, -3.112199189867527, -0.0535823100295895]","[-7.876081580314613e-05, 3.223420396741496e-06, -6.381825995324891e-05, -0.0008719229046855583, -0.0033550627188125184, 0.0012599305500842959]",65536,"[33.77998352050781, 33.269981384277344, 31.729991912841797, 38.389984130859375, 40.049983978271484, 43.799983978271484]",0.418489,7,"[253, 253, 253, 253, 253, 253]",1,"[0.4405352473258972, 1.2167164087295532, -9.00250244140625]",1.0,1.0,0.006747225749820552,47.88711929321289,47.88711929321289,0.7161448001861572,"[47.57500076293945, 47.66600036621094, 47.696998596191406, 47.696998596191406, 47.54499816894531, 47.68199920654297]",132,2
7,"[[36328. 36328. 36200. 36200. 36212. 36212. 37490. 37490.]
 [36328. 36328. 36200. 36200. 36212. 36212. 37490. 37490.]
 [28305. 28305. 35888. 35888. 35772. 35772. 36635. 36635.]
 [28305. 28305. 35888. 35888. 35772. 35772. 36635. 36635.]
 [36993. 36993. 35828. 35828. 36019. 36019. 36831. 36831.]
 [36993. 36993. 35828. 35828. 36019. 36019. 36831. 36831.]
 [37338. 37338. 36340. 36340. 36567. 36567. 37153. 37153.]
 [37338. 37338. 36340. 36340. 36567. 36567. 37153. 37153.]]",,1677600986.8516786,['-X'],"[-0.36849892447009297, -0.05328877321490769, 0.13228343242528773, -0.17758565500303566, -3.112165433946154, -0.05353813727954714]",-1,"[-0.36888, -0.0535, 0.1327874404880196, -0.1776149723693316, -3.1111545019089464, -0.05399520880345856]",1677600986.7284844,1677601106.7284844,-1,starting,"('starting', (-0.36888, -0.0535), 0, 4, -0.01)",1,1214.3519999999999,"[-0.1352421052526136, -1.821661796901786, 2.2109078827871222, 4.297119137522606, -1.6006619256861763, -1.5925346521433852]","[-0.00021727687873580732, 0.0015309442364030501, -0.001725144411480293, 0.0029997461719726373, 0.0003713749354914487, -0.0012540426211514728]",0,"[-0.0043846340121877145, 0.030911377201561303, -0.03489038498746304, 0.06064291547550369, 0.007500770515465443, -0.025315200577025812]","[-0.01320605408995133, -0.5034467392055232, -1.4947879398184898, -0.11661324796330214, 0.006311668137431308, -0.02427699550573859]","[-0.02077189781757731, -6.4059950250751845, -16.055106440877218, -1.4776924488490306, -0.008760687739424155, -0.005362877578677952]","[-0.13522369066347295, -1.821683708821432, 2.210911273956299, 4.297173023223877, -1.6006367842303675, -1.592581574116842]","[0.0, 0.0, -0.0, 0.014381070621311665, 0.0, -0.00953944306820631]","[-0.13675044476985931, -0.27798449993133545, -1.4818367958068848, -0.21045568585395813, 0.07015189528465271, -0.0762520581483841]","[-0.15244311094284058, -0.27574270963668823, -1.4751113653182983, -0.22875617444515228, 0.06252668797969818, -0.07472702115774155]","[-0.3684759741584549, -0.053279138658921504, 0.13227998747862077, -0.17753257005793593, -3.1122780779608203, -0.05352868774184969]","[0.0031339862953778056, -0.0004253282438848378, -0.0014462169243641026, -0.0017428400361245225, -0.014587958378149512, 0.009494090253588931]","[7.641124602015991, -4.479322158969863, 6.223003978007958, 1.3288190044916357, 0.11705757783767501, -0.5064630018360579]","[-0.3684901134690258, -0.053264933433394335, 0.1322793187990667, -0.1776334028855583, -3.112237775454941, -0.053571032803856965]","[-6.515306608033614e-05, 2.7292451078698472e-06, -5.2673150206332393e-05, -0.0007207112649268241, -0.002774243465189347, 0.0010416012539477522]",65536,"[33.77998352050781, 33.269981384277344, 31.729991912841797, 38.389984130859375, 40.049983978271484, 43.799983978271484]",0.669156,7,"[253, 253, 253, 253, 253, 253]",1,"[0.3476332426071167, 1.1417953968048096, -8.978528022766113]",1.0,1.0,0.005706153681852203,47.88711929321289,47.88711929321289,0.5729187726974487,"[47.57500076293945, 47.63600158691406, 47.696998596191406, 47.66600036621094, 47.54499816894531, 47.68199920654297]",132,2
8,"[[36329. 36329. 36196. 36196. 36210. 36210. 37489. 37489.]
 [36329. 36329. 36196. 36196. 36210. 36210. 37489. 37489.]
 [28305. 28305. 35888. 35888. 35771. 35771. 36634. 36634.]
 [28305. 28305. 35888. 35888. 35771. 35771. 36634. 36634.]
 [36994. 36994. 35832. 35832. 36024. 36024. 36828. 36828.]
 [36994. 36994. 35832. 35832. 36024. 36024. 36828. 36828.]
 [37342. 37342. 36343. 36343. 36564. 36564. 37149. 37149.]
 [37342. 37342. 36343. 36343. 36564. 36564. 37149. 37149.]]",,1677600986.8657475,['-X'],"[-0.36849892447009297, -0.05328877321490769, 0.13228343242528773, -0.17758565500303566, -3.112165433946154, -0.05353813727954714]",-1,"[-0.36888, -0.0535, 0.1327874404880196, -0.1776149723693316, -3.1111545019089464, -0.05399520880345856]",1677600986.7284844,1677601106.7284844,-1,starting,"('starting', (-0.36888, -0.0535), 0, 4, -0.01)",1,1214.36,"[-0.13524706030270472, -1.821626882833126, 2.2108685380783193, 4.297187550787362, -1.600653456194192, -1.5925632511482881]","[-0.0006756886487789544, 0.0047610093627161315, -0.0053651875639846545, 0.009329081557506483, 0.0011549307250793023, -0.0038998643049532487]",0,"[-0.05730147125539339, 0.4037581407891352, -0.4550053940630452, 0.7911669231917308, 0.09794447369848171, -0.330727710475222]","[-0.059535849909355405, -0.2826051923451063, -1.7484280188897887, 0.029822585768034413, 0.024046948451712236, -0.08196897915133557]","[-0.2713574031202203, -5.343172302261025, -17.001966079400635, -1.3270476175508203, 0.009900820606630242, -0.07006273632944057]","[-0.13523561159242803, -1.8216598669635218, 2.2109713554382324, 4.297041416168213, -1.6006611029254358, -1.592581574116842]","[0.0, 0.0, -0.0, -0.015052187256515026, 0.0, -0.006471481639891863]","[-0.13899224996566772, -0.2376319169998169, -1.4751113653182983, -0.08082718402147293, 0.05947660654783249, 0.027450740337371826]","[-0.15468493103981018, -0.24659916758537292, -1.468385934829712, -0.07777710258960724, 0.06252668797969818, 0.027450740337371826]","[-0.3684836058134695, -0.05326832810711931, 0.13225701988296262, -0.17754971226331748, -3.1122308680767237, -0.05357187939937207]","[-0.0032801598946627032, 0.00044520481844390584, 0.0015138648779017309, 0.0021833121354160228, 0.014682229469938699, 0.006504579639507699]","[-4.4739973805318165, -0.9156745936981618, 10.668434860529905, 0.19917835992694577, -3.112973990208688, 0.8985328902945618]","[-0.3684915993275248, -0.05326487122970278, 0.13227811836317038, -0.1775986097252112, -3.1123038914227545, -0.05355170579837726]","[-0.0002025975361285871, 8.480288612958568e-06, -0.00016366737401318548, -0.0022416120019425768, -0.008627476421891227, 0.003239146899599108]",65536,"[33.77998352050781, 33.269981384277344, 31.729991912841797, 38.389984130859375, 40.049983978271484, 43.799983978271484]",0.39040800000000003,7,"[253, 253, 253, 253, 253, 253]",1,"[0.4764972925186157, 1.2287037372589111, -9.107391357421875]",1.0,1.0,0.017893302799499338,47.88711929321289,47.88711929321289,0.6803395748138428,"[47.60599899291992, 47.63600158691406, 47.72700119018555, 47.66600036621094, 47.54499816894531, 47.68199920654297]",132,2
9,"[[36328. 36328. 36198. 36198. 36212. 36212. 37488. 37488.]
 [36328. 36328. 36198. 36198. 36212. 36212. 37488. 37488.]
 [28304. 28304. 35886. 35886. 35769. 35769. 36634. 36634.]
 [28304. 28304. 35886. 35886. 35769. 35769. 36634. 36634.]
 [36994. 36994. 35829. 35829. 36023. 36023. 36829. 36829.]
 [36994. 36994. 35829. 35829. 36023. 36023. 36829. 36829.]
 [37341. 37341. 36340. 36340. 36565. 36565. 37145. 37145.]
 [37341. 37341. 36340. 36340. 36565. 36565. 37145. 37145.]]",,1677600986.8807094,['-X'],"[-0.36849892447009297, -0.05328877321490769, 0.13228343242528773, -0.17758565500303566, -3.112165433946154, -0.05353813727954714]",-1,"[-0.36888, -0.0535, 0.1327874404880196, -0.1776149723693316, -3.1111545019089464, -0.05399520880345856]",1677600986.7284844,1677601106.7284844,-1,starting,"('starting', (-0.36888, -0.0535), 0, 4, -0.01)",1,1214.376,"[-0.13525955975856618, -1.821538839585319, 2.2107693149649723, 4.297360094192008, -1.6006320886867682, -1.5926353898675405]","[-0.0012150686482999887, 0.008558443920350055, -0.009645259164668489, 0.0167726528099883, 0.002077148470027024, -0.007012554309769264]",0,"[-0.09309190000158865, 0.6556634773379685, -0.7389334150706898, 1.284986265823553, 0.15914303608829114, -0.5372581394349335]","[-0.10285397412308615, -0.06950910796786726, -2.005528118789677, 0.05745056647477967, 0.043817231681462225, -0.1459336245288222]","[-0.44076582294111566, -4.627455320002729, -17.641852823037873, -1.225181065063921, 0.022533360337749976, -0.11381500301256334]","[-0.1352480093585413, -1.8216117064105433, 2.2108635902404785, 4.297149181365967, -1.6006367842303675, -1.5926297346698206]","[0.0, 0.011146927252411842, -0.006660033483058214, -0.030368026345968246, 0.0, -0.008317052386701107]","[-0.17710302770137787, -0.5559689998626709, -1.2329957485198975, -0.05947660654783249, 0.09150247275829315, -0.08082718402147293]","[-0.18158665299415588, -0.5604526400566101, -1.2128194570541382, -0.03812602907419205, 0.10217776149511337, -0.08540230989456177]","[-0.3685029722344742, -0.053266736098598985, 0.13227871802498725, -0.17749522682502347, -3.1122819064056526, -0.05353005483826619]","[-0.009528686377445653, 0.0012863456347505119, 0.0021513997616484496, 0.0036985697196343327, 0.025344607894154585, 0.008410041281286494]","[-36.14624415700411, -7.244123553780676, 15.795618742632417, 1.605971221918853, -10.660938271673013, 0.18815171086081467]","[-0.36849534266396994, -0.05326471550209077, 0.13227509376881136, -0.17751084340975903, -3.112470631799191, -0.053502933400321445]","[-0.0003637743755978263, 1.5121466963520927e-05, -0.00029387849428563474, -0.004032075956177623, -0.015510267268471978, 0.005824116755849179]",65536,"[33.77998352050781, 33.269981384277344, 31.729991912841797, 38.389984130859375, 40.049983978271484, 43.799983978271484]",0.390949,7,"[253, 253, 253, 253, 253, 253]",1,"[1.4864318370819092, 1.2466847896575928, -9.892563819885254]",1.0,1.0,0.03258379525734365,47.88711929321289,47.88711929321289,0.6445291042327881,"[47.60599899291992, 47.63600158691406, 47.72700119018555, 47.66600036621094, 47.54499816894531, 47.68199920654297]",132,2
10,"[[36328. 36328. 36199. 36199. 36213. 36213. 37491. 37491.]
 [36328. 36328. 36199. 36199. 36213. 36213. 37491. 37491.]
 [28305. 28305. 35883. 35883. 35770. 35770. 36633. 36633.]
 [28305. 28305. 35883. 35883. 35770. 35770. 36633. 36633.]
 [36992. 36992. 35827. 35827. 36022. 36022. 36829. 36829.]
 [36992. 36992. 35827. 35827. 36022. 36022. 36829. 36829.]
 [37341. 37341. 36340. 36340. 36564. 36564. 37156. 37156.]
 [37341. 37341. 36340. 36340. 36564. 36564. 37156. 37156.]]",,1677600986.896664,['-X'],"[-0.36849892447009297, -0.05328877321490769, 0.13228343242528773, -0.17758565500303566, -3.112165433946154, -0.05353813727954714]",-1,"[-0.36888, -0.0535, 0.1327874404880196, -0.1776149723693316, -3.1111545019089464, -0.05399520880345856]",1677600986.7284844,1677601106.7284844,-1,starting,"('starting', (-0.36888, -0.0535), 0, 4, -0.01)",1,1214.392,"[-0.13528022970200837, -1.8213931972305462, 2.2106052206888727, 4.297645432776468, -1.6005967780663024, -1.5927546819804022]","[-0.0019412181729008759, 0.013678466134260676, -0.015411055615885, 0.02679769783657295, 0.003315979763156053, -0.011203313993829749]",0,"[-0.14035081271998726, 0.9890405419004152, -1.1142498261922142, 1.9375049078240132, 0.23970775651424062, -0.8100025654735131]","[-0.160815431632996, 0.07364680358110316, -2.1006153600945745, 0.07623094917545936, 0.07034429070229584, -0.2095531114433804]","[-0.6647157680402472, -3.6812501469019043, -18.48753987401418, -1.0905509118360293, 0.03916390830520372, -0.17159431875059936]","[-0.13523561159242803, -1.8214681784259241, 2.210719585418701, 4.29742431640625, -1.600577179585592, -1.592701260243551]","[0.0, 0.00942119862884283, -0.010763431899249554, 0.006087986286729574, 0.0, -0.004050668329000473]","[-0.215213805437088, -0.6882358193397522, -1.2195448875427246, -0.08540230989456177, 0.1265784204006195, -0.1464039534330368]","[-0.22418105602264404, -0.6725431680679321, -1.1859177350997925, -0.0732019767165184, 0.12047825008630753, -0.14335386455059052]","[-0.3685029273164799, -0.053284712967132025, 0.13226599973649583, -0.1773725804564917, -3.11256153522619, -0.053409304374904314]","[-0.0030106040235384317, 0.00040101691678049464, 0.0010044551290654285, -0.000554305413773097, -0.00484609452403551, 0.004056209500126366]","[-48.29576441113607, -8.691797302042596, 15.888862673185901, 1.95267639182094, -13.768703447708313, 0.053476615414700945]","[-0.3685015327022586, -0.053264452485694405, 0.13227008562903633, -0.17736570006691996, -3.1127463979710615, -0.05342225486715942]","[-0.0005811415289741897, 2.4730765583241857e-05, -0.00047011022946195344, -0.0064433625955904504, -0.02478396993405379, 0.009303788366019083]",65536,"[33.77998352050781, 33.269981384277344, 31.729991912841797, 38.389984130859375, 40.049983978271484, 43.799983978271484]",0.394608,7,"[253, 253, 253, 253, 253, 253]",1,"[1.5193970203399658, 1.4444761276245117, -10.027420997619629]",1.0,1.0,0.052572663585454225,47.88711929321289,47.88711929321289,0.7161448001861572,"[47.60599899291992, 47.63600158691406, 47.72700119018555, 47.66600036621094, 47.54499816894531, 47.68199920654297]",132,2
11,"[[36330. 36330. 36200. 36200. 36210. 36210. 37489. 37489.]
 [36330. 36330. 36200. 36200. 36210. 36210. 37489. 37489.]
 [28304. 28304. 35887. 35887. 35770. 35770. 36634. 36634.]
 [28304. 28304. 35887. 35887. 35770. 35770. 36634. 36634.]
 [36994. 36994. 35827. 35827. 36025. 36025. 36828. 36828.]
 [36994. 36994. 35827. 35827. 36025. 36025. 36828. 36828.]
 [37341. 37341. 36341. 36341. 36566. 36566. 37152. 37152.]
 [37341. 37341. 36341. 36341. 36566. 36566. 37152. 37152.]]",,1677600986.9116251,['-X'],"[-0.36849892447009297, -0.05328877321490769, 0.13228343242528773, -0.17758565500303566, -3.112165433946154, -0.05353813727954714]",-1,"[-0.36888, -0.0535, 0.1327874404880196, -0.1776149723693316, -3.1111545019089464, -0.05399520880345856]",1677600986.7284844,1677601106.7284844,-1,starting,"('starting', (-0.36888, -0.0535), 0, 4, -0.01)",1,1214.408,"[-0.13531219979395104, -1.8211677767503165, 2.2103512199115176, 4.298087024321795, -1.6005421673707136, -1.5929392192275103]","[-0.0029191026832359065, 0.02058406259823787, -0.023194126481306282, 0.040323181750040696, 0.004986350224042959, -0.01684989421868311]",0,"[-0.20028916295989704, 1.4126175131798913, -1.5917887352008904, 2.7671871792703464, 0.34212889453495626, -1.1561802353813573]","[-0.23735282234055521, 0.18453197640257413, -2.201063809777706, 0.10031416030646031, 0.10597743891047111, -0.21986495313211912]","[-0.9490740000565339, -2.480576707004187, -19.563568050399315, -0.9193879217811083, 0.06031018808563755, -0.24493003886622755]","[-0.1353076140033167, -1.8213008085833948, 2.2105274200439453, 4.297759532928467, -1.6005290190326136, -1.592893425618307]","[-0.004231230355799198, 0.008372978307306767, -0.00848802737891674, 0.009395632892847061, 0.01085770782083273, -0.008964200504124165]","[0.026901725679636, -0.6052888631820679, -1.3204264640808105, -0.1098029613494873, -0.0061001647263765335, -0.0183004941791296]","[0.024659916758537292, -0.6164978742599487, -1.2845574617385864, -0.1098029613494873, -0.016775453463196754, -0.019825534895062447]","[-0.36851255856612963, -0.0532683411267749, 0.13226112138781887, -0.17719522040507427, -3.1128840840754433, -0.05330625838188947]","[-0.001966497356671025, -0.0006484918161712302, -8.555065109069678e-05, -0.0118214885849011, -0.008046621147513412, 0.0049977365643878585]","[-46.90981877569807, 6.134434690820139, 16.87920000424858, -2.9670258773915963, -13.794491861704786, 1.441553942150677]","[-0.36851111893420274, -0.05326404293837587, 0.13226236317792953, -0.17714114321159588, -3.113173114031883, -0.053297310957063714]","[-0.0008749681260973426, 3.736782555326436e-05, -0.000704208263023291, -0.009700000651936469, -0.037288095992511705, 0.013991607632702772]",65536,"[33.77998352050781, 33.269981384277344, 31.729991912841797, 38.389984130859375, 40.049983978271484, 43.799983978271484]",0.407304,7,"[253, 253, 253, 253, 253, 253]",1,"[2.0588278770446777, 1.4864318370819092, -10.734674453735352]",1.0,1.0,0.07969823231647226,47.88711929321289,47.88711929321289,0.7161448001861572,"[47.60599899291992, 47.63600158691406, 47.72700119018555, 47.66600036621094, 47.54499816894531, 47.68199920654297]",132,2
12,"[[36327. 36327. 36199. 36199. 36213. 36213. 37490. 37490.]
 [36327. 36327. 36199. 36199. 36213. 36213. 37490. 37490.]
 [28304. 28304. 35886. 35886. 35769. 35769. 36635. 36635.]
 [28304. 28304. 35886. 35886. 35769. 35769. 36635. 36635.]
 [36991. 36991. 35830. 35830. 36024. 36024. 36825. 36825.]
 [36991. 36991. 35830. 35830. 36024. 36024. 36825. 36825.]
 [37340. 37340. 36344. 36344. 36565. 36565. 37153. 37153.]
 [37340. 37340. 36344. 36344. 36565. 36565. 37153. 37153.]]",,1677600986.9285371,['-X'],"[-0.36849892447009297, -0.05328877321490769, 0.13228343242528773, -0.17758565500303566, -3.112165433946154, -0.05353813727954714]",-1,"[-0.36888, -0.0535, 0.1327874404880196, -0.1776149723693316, -3.1111545019089464, -0.05399520880345856]",1677600986.7284844,1677601106.7284844,-1,starting,"('starting', (-0.36888, -0.0535), 0, 4, -0.01)",1,1214.424,"[-0.13535939842699385, -1.8208349163624131, 2.2099761886090104, 4.298739018733732, -1.6004614467262197, -1.5932116989524125]","[-0.00420297084180143, 0.029641193096886224, -0.033396095912796096, 0.05805932747349905, 0.007189177305622668, -0.024264342899941244]",0,"[-0.27375239841941745, 1.9307054852266856, -2.175207737497591, 3.7816112990947293, 0.4684604944034461, -1.5804876034575093]","[-0.3356299809409218, 0.32047495583069463, -2.324268477264597, 0.13008571397810506, 0.15278638471370562, -0.23263204956250955]","[-1.2972636611358017, -1.0137046333659514, -20.877666164890258, -0.7100496777111046, 0.08640218790689397, -0.33481707980828235]","[-0.13529569307436162, -1.8210132757769983, 2.2102279663085938, 4.298213958740234, -1.60046893755068, -1.5930488745318812]","[-0.0023521038237959146, 0.00942119862884283, -0.012565859593451023, 0.012942963279783726, -0.004122573416680098, 0.0049614692106842995]","[-0.20624656975269318, -0.6254651546478271, -1.468385934829712, -0.10675287991762161, -0.14335386455059052, -0.03202586621046066]","[-0.215213805437088, -0.638916015625, -1.4616605043411255, -0.11132800579071045, -0.14792899787425995, -0.02897578291594982]","[-0.36853644218593595, -0.053283117325951306, 0.13225090221591443, -0.17694819892840205, -3.1133400343796924, -0.05316828002301603]","[-0.0021759330049154887, 0.002062705265703138, 0.00118034479365264, 0.0026518360357241496, -0.010089155733702091, -0.007418824148627318]","[-52.276545078701446, 0.6709121701579921, 14.812410503595286, -3.4620559082920277, -14.787565967375906, 1.4082284177243216]","[-0.36852525784246337, -0.053263461240669434, 0.1322509835985004, -0.1768094988609611, -3.1138030985392047, -0.05311237684394377]","[-0.0012579481544898758, 5.1435376651443404e-05, -0.0010117896793362224, -0.013993410340389412, -0.0536866185454355, 0.020145233107697984]",65536,"[33.77998352050781, 33.269981384277344, 31.729991912841797, 38.389984130859375, 40.049983978271484, 43.799983978271484]",0.392304,7,"[253, 253, 253, 253, 253, 253]",1,"[2.29258131980896, 1.3395867347717285, -10.917482376098633]",1.0,1.0,0.11543444688905186,47.88711929321289,47.88711929321289,0.6803395748138428,"[47.60599899291992, 47.63600158691406, 47.72700119018555, 47.66600036621094, 47.54499816894531, 47.68199920654297]",132,2
13,"[[36330. 36330. 36198. 36198. 36212. 36212. 37490. 37490.]
 [36330. 36330. 36198. 36198. 36212. 36212. 37490. 37490.]
 [28304. 28304. 35887. 35887. 35768. 35768. 36634. 36634.]
 [28304. 28304. 35887. 35887. 35768. 35768. 36634. 36634.]
 [36994. 36994. 35829. 35829. 36022. 36022. 36829. 36829.]
 [36994. 36994. 35829. 35829. 36022. 36022. 36829. 36829.]
 [37340. 37340. 36341. 36341. 36568. 36568. 37155. 37155.]
 [37340. 37340. 36341. 36341. 36568. 36568. 37155. 37155.]]",,1677600986.9414992,['-X'],"[-0.36849892447009297, -0.05328877321490769, 0.13228343242528773, -0.17758565500303566, -3.112165433946154, -0.05353813727954714]",-1,"[-0.36888, -0.0535, 0.1327874404880196, -0.1776149723693316, -3.1111545019089464, -0.05399520880345856]",1677600986.7284844,1677601106.7284844,-1,starting,"('starting', (-0.36888, -0.0535), 0, 4, -0.01)",1,1214.44,"[-0.1354265661879559, -1.8203610351360604, 2.2094423289570138, 4.299667057894591, -1.6003466346514257, -1.5935994739386938]","[-0.005845392204421476, 0.04124270072917734, -0.04646206174881069, 0.08076668286567922, 0.009990723463448236, -0.033746875306779126]",0,"[-0.36103759558542353, 2.5477779887929586, -2.8700799709981872, 4.988973313938963, 0.6168835374810875, -2.084372638486511]","[-0.4586388931337543, 0.48278734704487186, -2.471674690145662, 0.16594647852986597, 0.21206646730732331, -0.2479703217799991]","[-1.7116198982337614, 0.7308525630069704, -22.442298893197698, -0.46088746991733776, 0.1170492662223393, -0.44156218531776703]","[-0.13545161882509404, -1.8206184546100062, 2.2098798751831055, 4.299027919769287, -1.6004450956927698, -1.5932648817645472]","[-0.010277671739459038, 0.017960358411073685, -0.00942119862884283, 0.020181436091661453, -0.03401122987270355, -0.01164866704493761]","[-0.07173793762922287, -0.6232233047485352, -1.723952293395996, -0.045751236379146576, 0.23790642619132996, -0.12505337595939636]","[-0.06725431978702545, -0.6411578059196472, -1.692566990852356, -0.050326358526945114, 0.24858170747756958, -0.13115353882312775]","[-0.36851211127657285, -0.05323572859931518, 0.13218905543679985, -0.1768835329048781, -3.114209639474968, -0.05304584503059463]","[0.0006723528470547126, 0.011247049064858641, -0.003841506149206962, 0.030029344438337893, -0.033463035991861255, 0.0005234679500711395]","[-54.5156606858046, 7.068825906549842, 9.110128008152858, -1.7445825517003397, -14.89325122284312, 0.6493609390311669]","[-0.3685453556027427, -0.053262621707779144, 0.13223484001759755, -0.17633740568866052, -3.114699707826253, -0.052848618402520475]","[-0.0017470245115029004, 7.30835079640055e-05, -0.0014017415008170592, -0.01949059663375279, -0.07467981514825524, 0.02801008540781172]",65536,"[33.77998352050781, 33.269981384277344, 31.729991912841797, 38.389984130859375, 40.049983978271484, 43.799983978271484]",0.389832,7,"[253, 253, 253, 253, 253, 253]",1,"[2.7960500717163086, 2.0917930603027344, -11.44192886352539]",1.0,1.0,0.16137029899630864,47.88711929321289,47.88711929321289,0.6803395748138428,"[47.57500076293945, 47.71200180053711, 47.68199920654297, 47.696998596191406, 47.513999938964844, 47.68199920654297]",132,2
14,"[[36330. 36330. 36199. 36199. 36209. 36209. 37489. 37489.]
 [36330. 36330. 36199. 36199. 36209. 36209. 37489. 37489.]
 [28305. 28305. 35883. 35883. 35772. 35772. 36632. 36632.]
 [28305. 28305. 35883. 35883. 35772. 35772. 36632. 36632.]
 [36991. 36991. 35830. 35830. 36023. 36023. 36825. 36825.]
 [36991. 36991. 35830. 35830. 36023. 36023. 36825. 36825.]
 [37339. 37339. 36344. 36344. 36568. 36568. 37150. 37150.]
 [37339. 37339. 36344. 36344. 36568. 36568. 37150. 37150.]]",,1677600986.960485,['-X'],"[-0.36849892447009297, -0.05328877321490769, 0.13228343242528773, -0.17758565500303566, -3.112165433946154, -0.05353813727954714]",-1,"[-0.36888, -0.0535, 0.1327874404880196, -0.1776149723693316, -3.1111545019089464, -0.05399520880345856]",1677600986.7284844,1677601106.7284844,-1,starting,"('starting', (-0.36888, -0.0535), 0, 4, -0.01)",1,1214.456,"[-0.13548821348743623, -1.8199258258559352, 2.208952219555858, 4.300518962737019, -1.6002413106591025, -1.5939554012822317]","[-0.0038448682732780378, 0.02714400948245723, -0.030560229491732205, 0.05312121686956731, 0.006561319148216582, -0.022195965971805797]",0,"[0.04489533599723479, -0.31681399283078415, 0.3587561806205376, -0.6231789527551052, -0.07860822222005115, 0.25990782951706937]","[-0.18203853212844562, -0.24886539429233032, -1.819209979407102, 0.019905072038793273, 0.1269178691169637, -0.1848939089115014]","[0.21279510777426397, -7.462553526311985, -15.167641226800441, -1.6175457874471038, -0.02639463706268306, 0.05505995764082157]","[-0.13546353975404912, -1.8199837843524378, 2.2091965675354004, 4.3002729415893555, -1.6003006140338343, -1.5936721006976526]","[-0.008372978307306767, 0.023393208160996437, -0.024594826623797417, 0.033244241029024124, -0.021595574915409088, -0.008988169021904469]","[0.03138534724712372, -0.8160190582275391, -1.7530958652496338, -0.04117611050605774, 0.27755749225616455, -0.17232964932918549]","[0.0022418105509132147, -0.8496462106704712, -1.7060178518295288, -0.02592569962143898, 0.2882327735424042, -0.1662294864654541]","[-0.36852249767958584, -0.05326295016177472, 0.13215268842761357, -0.1763054626620719, -3.1154384691274877, -0.05269972667950795]","[-0.002532549052478195, 0.00819984807411274, -0.0001552736409459455, 0.017213093026579203, -0.03497937754676895, 8.653725227701636e-05]","[-20.383666359429615, 4.161165667105168, -4.626777623922365, 0.5088164917146792, -4.793810069601458, -0.060484345196646666]","[-0.36856378150376645, -0.05326184095311237, 0.13222003732710505, -0.17590395968284103, -3.115522767832486, -0.05260591467093663]","[-0.0011473602708747708, 5.019989862013455e-05, -0.0009236182944495416, -0.01283215375269444, -0.049130069722625146, 0.01841758631842273]",65536,"[33.77998352050781, 33.269981384277344, 31.729991912841797, 38.389984130859375, 40.049983978271484, 43.799983978271484]",0.5967960000000001,7,"[253, 253, 253, 253, 253, 253]",1,"[3.173651695251465, 1.4894286394119263, -11.828520774841309]",1.0,1.0,0.1066055379105348,47.88711929321289,47.88711929321289,0.6803395748138428,"[47.57500076293945, 47.71200180053711, 47.68199920654297, 47.696998596191406, 47.513999938964844, 47.68199920654297]",132,2
15,"[[36330. 36330. 36196. 36196. 36211. 36211. 37488. 37488.]
 [36330. 36330. 36196. 36196. 36211. 36211. 37488. 37488.]
 [28304. 28304. 35885. 35885. 35771. 35771. 36634. 36634.]
 [28304. 28304. 35885. 35885. 35771. 35771. 36634. 36634.]
 [36991. 36991. 35828. 35828. 36020. 36020. 36826. 36826.]
 [36991. 36991. 35828. 35828. 36020. 36020. 36826. 36826.]
 [37340. 37340. 36339. 36339. 36565. 36565. 37151. 37151.]
 [37340. 37340. 36339. 36339. 36565. 36565. 37151. 37151.]]",,1677600986.976408,['-X'],"[-0.36849892447009297, -0.05328877321490769, 0.13228343242528773, -0.17758565500303566, -3.112165433946154, -0.05353813727954714]",-1,"[-0.36888, -0.0535, 0.1327874404880196, -0.1776149723693316, -3.1111545019089464, -0.05399520880345856]",1677600986.7284844,1677601106.7284844,-1,starting,"('starting', (-0.36888, -0.0535), 0, 4, -0.01)",1,1214.472,"[-0.13566123968604415, -1.8187042672217064, 2.207577338920384, 4.302908930763552, -1.5999464415958515, -1.5949541130442775]","[-0.014426858886349312, 0.1018533497640577, -0.11463351385129085, 0.1992693078822392, 0.02458241151871671, -0.08327086409057503]",0,"[-0.7934230993924966, 5.6016015272910895, -6.3037273974304515, 10.958025518664614, 1.351226081282837, -4.579322632814941]","[-0.8630928883126072, 1.2912871968168278, -3.202832919207836, 0.3449803345099091, 0.23366926539821037, -0.3246576111553626]","[-3.764217631684055, 9.395270891682785, -30.166560944804765, 0.7708263646329727, 0.26859056885641247, -0.9701027885729281]","[-0.13551122346986944, -1.8193848768817347, 2.2085728645324707, 4.301840782165527, -1.6002047697650355, -1.5942595640765589]","[-0.021987058222293854, 0.08698949217796326, -0.07539515942335129, 0.15596270561218262, 0.0607839897274971, -0.06699182093143463]","[-0.5940797924995422, 0.17710302770137787, -2.8493411540985107, -0.06862685084342957, 0.535289466381073, -0.08387726545333862]","[-0.6187397241592407, 0.22193925082683563, -2.8986611366271973, -0.053376439958810806, 0.5520648956298828, -0.09150247275829315]","[-0.36843938960066985, -0.05327901308735023, 0.13206990466779372, -0.1755154739839505, -3.1170319089220437, -0.052394078382905704]","[-0.00024342380222622812, -0.005736053685241108, -0.012215351732152848, -0.08179711541323999, -0.1601013021470642, 0.04605190853271583]","[-43.4692124866457, 7.5680218148534735, 4.96082711450953, 0.5659613499712972, -14.290417140856716, 1.7267372165021109]","[-0.368615216999552, -0.05325951274071586, 0.13217860027622744, -0.17468717762882174, -3.117831778279825, -0.051922459373401425]","[-0.004274030438047159, 0.00019341762792071863, -0.003434894538928005, -0.04832441627214551, -0.18427844503712637, 0.06904267048375982]",65536,"[33.77998352050781, 33.269981384277344, 31.729991912841797, 38.389984130859375, 40.049983978271484, 43.799983978271484]",0.37408800000000003,7,"[253, 253, 253, 253, 253, 253]",1,"[-0.7072538733482361, 0.5634056329727173, -7.836732387542725]",1.0,1.0,0.4012928416535618,47.88711929321289,47.82634735107422,0.8235656023025513,"[47.57500076293945, 47.71200180053711, 47.68199920654297, 47.696998596191406, 47.513999938964844, 47.66600036621094]",132,2
16,"[[36326. 36326. 36199. 36199. 36211. 36211. 37489. 37489.]
 [36326. 36326. 36199. 36199. 36211. 36211. 37489. 37489.]
 [28306. 28306. 35886. 35886. 35770. 35770. 36635. 36635.]
 [28306. 28306. 35886. 35886. 35770. 35770. 36635. 36635.]
 [36994. 36994. 35829. 35829. 36022. 36022. 36826. 36826.]
 [36994. 36994. 35829. 35829. 36022. 36022. 36826. 36826.]
 [37339. 37339. 36339. 36339. 36564. 36564. 37152. 37152.]
 [37339. 37339. 36339. 36339. 36564. 36564. 37152. 37152.]]",,1677600986.9883769,['-X'],"[-0.36849892447009297, -0.05328877321490769, 0.13228343242528773, -0.17758565500303566, -3.112165433946154, -0.05353813727954714]",-1,"[-0.36888, -0.0535, 0.1327874404880196, -0.1776149723693316, -3.1111545019089464, -0.05399520880345856]",1677600986.7284844,1677601106.7284844,-1,starting,"('starting', (-0.36888, -0.0535), 0, 4, -0.01)",1,1214.488,"[-0.1358532193523061, -1.8173485131855944, 2.2060519468591817, 4.305560536256745, -1.599618936772364, -1.5960623698252494]","[-0.01515757204017823, 0.1070495267880268, -0.12043497280337731, 0.20935325357917284, 0.025865143989327297, -0.08750446266475553]",0,"[-0.6769409342373243, 4.782349608099345, -5.378469366561562, 9.34941129089301, 1.1566464582633396, -3.9086085681084466]","[-0.8144725322618318, 1.0852985070158576, -3.0232141741078093, 0.30793843542632515, 0.22921337345511603, -0.30854234088190124]","[-3.213653520051497, 7.009267505103545, -28.07779352816278, 0.4398628157374793, 0.22858025061314302, -0.8280159262399966]","[-0.13577491441835576, -1.8178051153766077, 2.20637845993042, 4.304510116577148, -1.5998690764056605, -1.5954344908343714]","[-0.00942119862884283, 0.03353026509284973, -0.06740567088127136, 0.0626055970788002, 0.005632585845887661, -0.01967809721827507]","[-0.22193925082683563, -0.5963215827941895, -1.132114291191101, 0.12810346484184265, 0.17842981219291687, -0.27450740337371826]","[-0.21745562553405762, -0.6658177375793457, -1.0715854167938232, 0.07015189528465271, 0.18147990107536316, -0.2668822109699249]","[-0.3687508372041695, -0.053218110643379474, 0.13225140698528015, -0.17415744425636676, -3.119168564411239, -0.051667952731836615]","[-0.013088727167800138, 0.003888110389479237, 0.012898901008388051, -0.009199578380104684, -0.028366406276975367, 0.01031327339593849]","[-103.54305448641382, 3.662294917914719, 28.687224724946955, -2.0738582088592685, -27.233975995624313, -0.5787620915097353]","[-0.36867191024446416, -0.053257043308920775, 0.13213305408039877, -0.1733357610177256, -3.120392688967069, -0.05115762836413663]","[-0.004460028550888251, 0.00019166132352914128, -0.0035741085776486467, -0.05106278773157069, -0.19357238806653126, 0.07249744921904865]",65536,"[33.77998352050781, 33.269981384277344, 31.729991912841797, 38.389984130859375, 40.049983978271484, 43.799983978271484]",0.387276,7,"[253, 253, 253, 253, 253, 253]",1,"[6.841782093048096, 1.9449480772018433, -13.473785400390625]",1.0,1.0,0.42287602234852595,47.88711929321289,47.82634735107422,0.8235656023025513,"[47.57500076293945, 47.71200180053711, 47.68199920654297, 47.696998596191406, 47.513999938964844, 47.66600036621094]",132,2
17,"[[36327. 36327. 36197. 36197. 36210. 36210. 37490. 37490.]
 [36327. 36327. 36197. 36197. 36210. 36210. 37490. 37490.]
 [28305. 28305. 35886. 35886. 35769. 35769. 36637. 36637.]
 [28305. 28305. 35886. 35886. 35769. 35769. 36637. 36637.]
 [36993. 36993. 35829. 35829. 36023. 36023. 36829. 36829.]
 [36993. 36993. 35829. 35829. 36023. 36023. 36829. 36829.]
 [37342. 37342. 36345. 36345. 36564. 36564. 37151. 37151.]
 [37342. 37342. 36345. 36345. 36564. 36564. 37151. 37151.]]",,1677600987.0024226,['-X'],"[-0.36849892447009297, -0.05328877321490769, 0.13228343242528773, -0.17758565500303566, -3.112165433946154, -0.05353813727954714]",-1,"[-0.36888, -0.0535, 0.1327874404880196, -0.1776149723693316, -3.1111545019089464, -0.05399520880345856]",1677600986.7284844,1677601106.7284844,-1,starting,"('starting', (-0.36888, -0.0535), 0, 4, -0.01)",1,1214.4959999999999,"[-0.13593994560221034, -1.8167367091489872, 2.205363873911411, 4.306757033122743, -1.5994708848296213, -1.596562916517101]","[-0.011227951996636079, 0.07920677259641741, -0.08908087270244819, 0.1549036121159016, 0.019167439015812374, -0.06480291992727494]",0,"[0.49120250544276883, -3.480344273951174, 3.91926251261614, -6.806205182908906, -0.8372131216893655, 2.8376928421850742]","[-0.31614409235334096, -1.0145954043084826, -1.1561848155477734, -0.10589677502327444, 0.17877682311591936, -0.1296378542973374]","[2.3339604549189947, -16.614403084971432, -7.15006106904486, -2.889310745681608, -0.18258050357445693, 0.6011486763545595]","[-0.1359790007220667, -1.816918675099508, 2.2054553031921387, 4.3061137199401855, -1.599581543599264, -1.5961173216449183]","[-0.03323625028133392, 0.15238821506500244, -0.16837996244430542, 0.27105921506881714, 0.04458132013678551, -0.11627095192670822]","[-0.54475998878479, 1.0626182556152344, -2.2328433990478516, 0.29433295130729675, -0.0015250411815941334, -0.26383212208747864]","[-0.5514854192733765, 1.1634997129440308, -2.3225157260894775, 0.3050082325935364, -0.0030500823631882668, -0.2653571665287018]","[-0.3687955119259145, -0.05320349515080121, 0.13219977156701646, -0.17345804356333122, -3.120773147800016, -0.05105890119683192]","[-0.011975037736804335, 0.0035172835901574233, -0.003896630462323026, -0.07731267502009327, -0.2505296972864743, 0.08344486741600332]","[96.67904745277082, 5.252087047608466, -9.09185835674346, -2.2008797061622083, 26.172643050144142, -0.33631071989924044]","[-0.36869728204338614, -0.053255978368316324, 0.1321125823057862, -0.17272500549169212, -3.1215480986884203, -0.050810010219973355]","[-0.0032791815921303594, 0.0001372893333996604, -0.002642049790873146, -0.03789782074258489, -0.1432320224483669, 0.05366695936427257]",65536,"[33.77998352050781, 33.269981384277344, 31.729991912841797, 38.389984130859375, 40.049983978271484, 43.799983978271484]",0.62082,7,"[253, 253, 253, 253, 253, 253]",1,"[-5.280429363250732, -0.725234866142273, -1.5134034156799316]",1.0,1.0,0.3132606464106701,47.82634735107422,47.82634735107422,1.0026021003723145,"[47.57500076293945, 47.71200180053711, 47.68199920654297, 47.696998596191406, 47.513999938964844, 47.66600036621094]",132,2
18,"[[36327. 36327. 36198. 36198. 36211. 36211. 37489. 37489.]
 [36327. 36327. 36198. 36198. 36211. 36211. 37489. 37489.]
 [28301. 28301. 35886. 35886. 35771. 35771. 36634. 36634.]
 [28301. 28301. 35886. 35886. 35771. 35771. 36634. 36634.]
 [36993. 36993. 35832. 35832. 36022. 36022. 36825. 36825.]
 [36993. 36993. 35832. 35832. 36022. 36022. 36825. 36825.]
 [37341. 37341. 36340. 36340. 36564. 36564. 37151. 37151.]
 [37341. 37341. 36340. 36340. 36564. 36564. 37151. 37151.]]",,1677600987.0223408,['-X'],"[-0.36849892447009297, -0.05328877321490769, 0.13228343242528773, -0.17758565500303566, -3.112165433946154, -0.05353813727954714]",-1,"[-0.36888, -0.0535, 0.1327874404880196, -0.1776149723693316, -3.1111545019089464, -0.05399520880345856]",1677600986.7284844,1677601106.7284844,-1,starting,"('starting', (-0.36888, -0.0535), 0, 4, -0.01)",1,1214.52,"[-0.13625959684802424, -1.814462258443835, 2.2028055178347685, 4.311196205512725, -1.5989253432618202, -1.5984113762953989]","[-0.014228051700789373, 0.10146692299954953, -0.114114223467779, 0.1979025226686826, 0.02427777824475137, -0.08231655723403561]",0,"[0.37994216067307235, -2.677054728669645, 3.015642998553291, -5.244030668442107, -0.6493455500939824, 2.192797924832228]","[-0.3660306931110009, -0.8033761557709675, -1.3542982832524941, -0.05569934347445004, 0.18459717305892534, -0.15068254293066735]","[1.800336765939969, -14.406596846853756, -9.185936328192934, -2.5656249493408394, -0.14365923793553373, 0.4645314497854119]","[-0.13629037538637334, -1.8147762457477015, 2.2033567428588867, 4.310649871826172, -1.5991137663470667, -1.5980237166034144]","[-0.02580922655761242, 0.17152462899684906, -0.1826459765434265, 0.32532379031181335, 0.03743872046470642, -0.13753096759319305]","[-0.2869517505168915, 0.49095651507377625, -3.4927408695220947, 0.010675288736820221, -0.03355090692639351, -0.14487890899181366]","[-0.28246814012527466, 0.54475998878479, -3.5801713466644287, 0.016775453463196754, -0.035075947642326355, -0.12352833896875381]","[-0.3686929492847073, -0.05321164130346022, 0.1319517960096703, -0.1711132301829657, -3.1254916458601665, -0.04984108764883859]","[-0.005431281869857692, 0.0015270234859051858, -0.009300115319376785, -0.07871519683873586, -0.310619765424288, 0.11173310017067284]","[100.24166171820018, 19.788982365695322, -37.07243593852901, -5.623517647754177, 26.635534339008, 0.9691525181752697]","[-0.3687926534000798, -0.0532517600830065, 0.13203867926274568, -0.1704671142011034, -3.1258308383376727, -0.04951497401001652]","[-0.004248201471022443, 0.00018995785806061232, -0.0032523151237146093, -0.04860322723959423, -0.18286498898426304, 0.06810921597169929]",65536,"[33.77998352050781, 33.269981384277344, 31.729991912841797, 38.389984130859375, 40.049983978271484, 43.799983978271484]",0.683028,7,"[253, 253, 253, 253, 253, 253]",1,"[-1.822077751159668, -0.30567750334739685, -7.198405742645264]",1.0,1.0,0.4023712564445438,47.88711929321289,47.82634735107422,1.1100281476974487,"[47.560001373291016, 47.66600036621094, 47.696998596191406, 47.66600036621094, 47.529998779296875, 47.66600036621094]",132,2
19,"[[36328. 36328. 36197. 36197. 36210. 36210. 37491. 37491.]
 [36328. 36328. 36197. 36197. 36210. 36210. 37491. 37491.]
 [28303. 28303. 35885. 35885. 35769. 35769. 36633. 36633.]
 [28303. 28303. 35885. 35885. 35769. 35769. 36633. 36633.]
 [36992. 36992. 35828. 35828. 36024. 36024. 36827. 36827.]
 [36992. 36992. 35828. 35828. 36024. 36024. 36827. 36827.]
 [37344. 37344. 36342. 36342. 36565. 36565. 37149. 37149.]
 [37344. 37344. 36342. 36342. 36565. 36565. 37149. 37149.]]",,1677600987.033463,['-X'],"[-0.36849892447009297, -0.05328877321490769, 0.13228343242528773, -0.17758565500303566, -3.112165433946154, -0.05353813727954714]",-1,"[-0.36888, -0.0535, 0.1327874404880196, -0.1776149723693316, -3.1111545019089464, -0.05399520880345856]",1677600986.7284844,1677601106.7284844,-1,starting,"('starting', (-0.36888, -0.0535), 0, 4, -0.01)",1,1214.528,"[-0.1364359828959607, -1.813201990206034, 2.2013885229812367, 4.313652592770393, -1.598624446053896, -1.5994322519778397]","[-0.0227372639918423, 0.16245645252908975, -0.1826594928382591, 0.31664366993380827, 0.03878753070898712, -0.13159725593965216]",0,"[-1.063651536381616, 7.623691191192527, -8.568158671310014, 14.842643408140708, 1.8137190580294689, -6.160087338202069]","[-0.9878461449648241, 1.8293910906915594, -3.700964213565292, 0.47235389500297953, 0.24836759486427465, -0.37772652428988357]","[-5.091640356693096, 14.984917580165682, -35.23231729901215, 1.5728455349267143, 0.3642991553370059, -1.3049785708086645]","[-0.1363742987262171, -1.8138898054706019, 2.202037811279297, 4.312253952026367, -1.5990060011493128, -1.5988147894488733]","[-0.005023787263780832, 0.07429580390453339, -0.09644904732704163, 0.15915051102638245, 0.01176850963383913, -0.07144995033740997]","[-0.5223418474197388, -0.6882358193397522, -1.6477307081222534, -0.0366009883582592, 0.11132800579071045, -0.35685962438583374]","[-0.5021655559539795, -0.7084121108055115, -1.6006526947021484, -0.05185139924287796, 0.1128530502319336, -0.35990971326828003]","[-0.3688701128909314, -0.05318208509105217, 0.1320846643816881, -0.17004511289675073, -3.1267289939444534, -0.049547234172258175]","[-0.004235781546377466, -0.00031133712788233007, 0.0022177081085969176, -0.02980488869292768, -0.13640398640275972, 0.06632687989830206]","[-135.57159001612183, -6.417327849326315, 30.445163751732427, -1.091564544596694, -37.45855878938478, -1.0018595120535154]","[-0.36884543436494227, -0.053249368278088016, 0.13199855422780804, -0.16921862521133194, -3.128199210827258, -0.048792282418751345]","[-0.00678086325455213, 0.00030592835318192074, -0.00513762472685247, -0.07806064663382828, -0.29252571123684445, 0.1088083548302155]",65536,"[33.77998352050781, 33.269981384277344, 31.729991912841797, 38.389984130859375, 40.049983978271484, 43.799983978271484]",0.49224,7,"[253, 253, 253, 253, 253, 253]",1,"[6.368281364440918, 2.0618247985839844, -15.158008575439453]",1.0,1.0,0.6447092284374019,47.88711929321289,47.88711929321289,0.6087239384651184,"[47.560001373291016, 47.66600036621094, 47.696998596191406, 47.66600036621094, 47.529998779296875, 47.66600036621094]",132,2
20,"[[36328. 36328. 36196. 36196. 36211. 36211. 37488. 37488.]
 [36328. 36328. 36196. 36196. 36211. 36211. 37488. 37488.]
 [28304. 28304. 35888. 35888. 35769. 35769. 36636. 36636.]
 [28304. 28304. 35888. 35888. 35769. 35769. 36636. 36636.]
 [36992. 36992. 35829. 35829. 36019. 36019. 36827. 36827.]
 [36992. 36992. 35829. 35829. 36019. 36019. 36827. 36827.]
 [37339. 37339. 36338. 36338. 36562. 36562. 37152. 37152.]
 [37339. 37339. 36338. 36338. 36562. 36562. 37152. 37152.]]",,1677600987.0525317,['-X'],"[-0.36849892447009297, -0.05328877321490769, 0.13228343242528773, -0.17758565500303566, -3.112165433946154, -0.05353813727954714]",-1,"[-0.36888, -0.0535, 0.1327874404880196, -0.1776149723693316, -3.1111545019089464, -0.05399520880345856]",1677600986.7284844,1677601106.7284844,-1,starting,"('starting', (-0.36888, -0.0535), 0, 4, -0.01)",1,1214.552,"[-0.13707271554688383, -1.8086477133883614, 2.1962714674925117, 4.322521848875439, -1.5975386126214666, -1.6031180513996546]","[-0.02225939946215744, 0.15939977927772106, -0.17898261585129768, 0.31017014182207575, 0.037947882054038796, -0.1288750734633791]",0,"[0.46315113266556923, -3.2709056469195468, 3.684043296600041, -6.4027997453007455, -0.7911230776541526, 2.674248025237965]","[-0.336523666920922, -0.9276359937234647, -1.2714779585558353, -0.053891251621334665, 0.18437541487109083, -0.1503852473297054]","[2.1980021695039986, -16.321297659092075, -7.684341286732694, -2.798786202600906, -0.17242085367165663, 0.5665238452579316]","[-0.13707000414003545, -1.8087905089007776, 2.196005344390869, 4.321913242340088, -1.597903076802389, -1.6030457655536097]","[-0.01654142700135708, 0.1306951642036438, -0.17325034737586975, 0.25603097677230835, 0.02588592655956745, -0.12322180718183517]","[-0.49095651507377625, -1.0200238227844238, -0.30936986207962036, -0.04117611050605774, 0.2897578179836273, -0.4148111939430237]","[-0.47078022360801697, -1.150048851966858, -0.2129720002412796, -0.050326358526945114, 0.282132625579834, -0.43768683075904846]","[-0.3692478518779005, -0.05313054346027683, 0.13209083089054763, -0.16478113093934635, -3.1357437299495663, -0.04683011486385244]","[-0.01445417376781125, 0.002045317946688124, 0.007999731412267551, -0.05501796379357412, -0.2115855165735277, 0.10642211283509663]","[-29.607695402862596, -16.842655826592427, 22.332125589284527, 4.303053483891549, -8.68798624015808, -2.7070467435192134]","[-0.369033470514357, -0.05324090051033545, 0.13185713367948568, -0.1647027043055358, -3.1367435429970625, -0.04613857258903768]","[-0.00651213456647374, 0.0002926521737548732, -0.0048540641245606924, -0.07767092797746544, -0.28642110413321764, 0.10626122841032543]",65536,"[33.77998352050781, 33.269981384277344, 31.729991912841797, 38.389984130859375, 40.049983978271484, 43.799983978271484]",0.632713,7,"[253, 253, 253, 253, 253, 253]",1,"[11.253128051757812, 1.5014159679412842, -18.15484619140625]",1.0,1.0,0.6337178499339788,47.88711929321289,47.88711929321289,0.537108302116394,"[47.560001373291016, 47.66600036621094, 47.696998596191406, 47.66600036621094, 47.529998779296875, 47.60599899291992]",132,2
21,"[[36330. 36330. 36197. 36197. 36209. 36209. 37491. 37491.]
 [36330. 36330. 36197. 36197. 36209. 36209. 37491. 37491.]
 [28303. 28303. 35887. 35887. 35770. 35770. 36634. 36634.]
 [28303. 28303. 35887. 35887. 35770. 35770. 36634. 36634.]
 [36992. 36992. 35830. 35830. 36024. 36024. 36826. 36826.]
 [36992. 36992. 35830. 35830. 36024. 36024. 36826. 36826.]
 [37343. 37343. 36344. 36344. 36565. 36565. 37152. 37152.]
 [37343. 37343. 36344. 36344. 36565. 36565. 37152. 37152.]]",,1677600987.0643904,['-X'],"[-0.36849892447009297, -0.05328877321490769, 0.13228343242528773, -0.17758565500303566, -3.112165433946154, -0.05353813727954714]",-1,"[-0.36888, -0.0535, 0.1327874404880196, -0.1776149723693316, -3.1111545019089464, -0.05399520880345856]",1677600986.7284844,1677601106.7284844,-1,starting,"('starting', (-0.36888, -0.0535), 0, 4, -0.01)",1,1214.56,"[-0.1373302270066219, -1.8068000135961872, 2.1941976746791596, 4.326114174625503, -1.5970997297531264, -1.6046095438349255]","[-0.03308306948031825, 0.23737809830017628, -0.26642477115992824, 0.46151407205682643, 0.05638425739093364, -0.19161534758694967]",0,"[-1.3529587522701012, 9.747289877806903, -10.93026941357882, 18.917991279343834, 2.3045469171118556, -7.842534265446322]","[-1.12171901064161, 2.403452216905319, -4.229304888269359, 0.6121043434250648, 0.26455128599102434, -0.43662528186880256]","[-6.503562123462992, 20.85640871733743, -40.485009239966374, 2.415000288143931, 0.4657805894052608, -1.661395138632433]","[-0.13724977174867803, -1.8070901075946253, 2.194279193878174, 4.324103832244873, -1.5975669066058558, -1.6040046850787562]","[-0.024109065532684326, 0.15989193320274353, -0.17991037666797638, 0.2896108031272888, 0.0415373258292675, -0.12389292567968369]","[-0.2690172791481018, -0.2914353609085083, -0.6277069449424744, 0.564265251159668, 0.24553163349628448, -0.34770938754081726]","[-0.271259069442749, -0.28022632002830505, -0.6120142936706543, 0.5734154582023621, 0.24095650017261505, -0.355334609746933]","[-0.36949119151153315, -0.053108794394343115, 0.1320616253889863, 0.16352242089924313, 3.1360232837714968, 0.04601716552892673]","[-0.011598849081261686, 0.0008678722546336116, -0.0027020647491148653, -0.07852215823912811, -0.26495818332782484, 0.09944695195173629]","[-182.5276926503237, 1.3194406014251217, 53.55297916072488, -1.5744972333460425, -46.00742795275714, -0.5248219168939082]","[-0.3691088669018834, -0.053237469702300415, 0.13180132949182885, 0.16254500022725682, 3.1339058031798337, 0.04495456750213526]","[-0.009638825865173582, 0.000435755591477222, -0.0070947416355243926, -0.11623893500121976, -0.4260723387522825, 0.15781839506507178]",65536,"[33.77998352050781, 33.269981384277344, 31.729991912841797, 38.389984130859375, 40.049983978271484, 43.799983978271484]",0.38673599999999997,7,"[253, 253, 253, 253, 253, 253]",1,"[-6.826797962188721, -0.9470009207725525, 0.8990514874458313]",1.0,1.0,0.9441600866051586,47.88711929321289,47.88711929321289,0.7519552707672119,"[47.560001373291016, 47.66600036621094, 47.696998596191406, 47.66600036621094, 47.529998779296875, 47.60599899291992]",132,2
22,"[[36327. 36327. 36200. 36200. 36210. 36210. 37487. 37487.]
 [36327. 36327. 36200. 36200. 36210. 36210. 37487. 37487.]
 [28305. 28305. 35886. 35886. 35771. 35771. 36633. 36633.]
 [28305. 28305. 35886. 35886. 35771. 35771. 36633. 36633.]
 [36990. 36990. 35827. 35827. 36023. 36023. 36825. 36825.]
 [36990. 36990. 35827. 35827. 36023. 36023. 36825. 36825.]
 [37339. 37339. 36340. 36340. 36561. 36561. 37150. 37150.]
 [37339. 37339. 36340. 36340. 36561. 36561. 37150. 37150.]]",,1677600987.0813446,['-X'],"[-0.36849892447009297, -0.05328877321490769, 0.13228343242528773, -0.17758565500303566, -3.112165433946154, -0.05353813727954714]",-1,"[-0.36888, -0.0535, 0.1327874404880196, -0.1776149723693316, -3.1111545019089464, -0.05399520880345856]",1677600986.7284844,1677601106.7284844,-1,starting,"('starting', (-0.36888, -0.0535), 0, 4, -0.01)",1,1214.576,"[-0.13786399928446968, -1.802931278672733, 2.1898600382740945, 4.3336109478628275, -1.5961897751181988, -1.60770809170422]","[-0.0400764935685822, 0.2912806330084064, -0.32649181405775346, 0.5639250657745387, 0.06832575982130186, -0.23278941923004443]",0,"[-1.4569925902213012, 10.762650981061483, -12.043894936445955, 20.7271675915405, 2.485046126453771, -8.494201362632285]","[-1.1803910730665441, 2.689503625098158, -4.494175384184757, 0.6748403098287361, 0.27179330875693597, -0.4642633143591111]","[-7.101265261059027, 23.63605878388935, -42.9441540805282, 2.787905593219816, 0.503146497010949, -1.7994470119971013]","[-0.1377647558795374, -1.8034032026873987, 2.191317558288574, 4.3323869705200195, -1.596823517476217, -1.6070135275470179]","[-0.020964404568076134, 0.16325390338897705, -0.1759987324476242, 0.33189114928245544, 0.0367196649312973, -0.14776550233364105]","[-0.3519642651081085, -2.654303789138794, -3.10042405128479, -0.33093392848968506, 0.3355090618133545, -0.36448484659194946]","[-0.3407551944255829, -2.7036235332489014, -2.999542474746704, -0.34770938754081726, 0.33398401737213135, -0.3660098910331726]","[-0.3689573524080495, -0.05316579510747129, 0.13131054591432417, 0.15897743230641906, 3.127320553888711, 0.04349029004438442]","[-0.00047394437934664184, -0.000736163561743533, -0.009291764549151222, -0.0820867139506798, -0.31506465309895226, 0.12600736782788208]","[-212.57586319024557, -4.045626412779505, -11.172783591600599, 0.3888498414106709, -55.827848534170215, -0.5922822477132832]","[-0.3692676368120708, -0.05323002075482512, 0.13168857077203505, 0.15803772391408474, 3.127189018324259, 0.04245957110155004]","[-0.011902517982486474, 0.0005589893366584599, -0.008293291543711173, -0.14336415836453512, -0.5204257904456128, 0.19136337266016626]",65536,"[33.77998352050781, 33.269981384277344, 31.729991912841797, 38.389984130859375, 40.049983978271484, 43.799983978271484]",0.390612,7,"[253, 253, 253, 253, 253, 253]",1,"[13.246025085449219, 0.26671862602233887, -26.30025291442871]",1.0,1.0,1.158855201384094,47.88711929321289,47.82634735107422,0.6087239384651184,"[47.60599899291992, 47.66600036621094, 47.66600036621094, 47.66600036621094, 47.529998779296875, 47.60599899291992]",132,2
23,"[[36327. 36327. 36199. 36199. 36211. 36211. 37490. 37490.]
 [36327. 36327. 36199. 36199. 36211. 36211. 37490. 37490.]
 [28305. 28305. 35884. 35884. 35773. 35773. 36632. 36632.]
 [28305. 28305. 35884. 35884. 35773. 35773. 36632. 36632.]
 [36993. 36993. 35831. 35831. 36022. 36022. 36827. 36827.]
 [36993. 36993. 35831. 35831. 36022. 36022. 36827. 36827.]
 [37341. 37341. 36340. 36340. 36564. 36564. 37150. 37150.]
 [37341. 37341. 36340. 36340. 36564. 36564. 37150. 37150.]]",,1677600987.0943127,['-X'],"[-0.36849892447009297, -0.05328877321490769, 0.13228343242528773, -0.17758565500303566, -3.112165433946154, -0.05353813727954714]",-1,"[-0.36888, -0.0535, 0.1327874404880196, -0.1776149723693316, -3.1111545019089464, -0.05399520880345856]",1677600986.7284844,1677601106.7284844,-1,starting,"('starting', (-0.36888, -0.0535), 0, 4, -0.01)",1,1214.5919999999999,"[-0.13850518692481373, -1.7982255778669627, 2.1845913083340847, 4.342691668312915, -1.595095633064978, -1.6114408792314165]","[-0.047281067952206275, 0.3479946529005652, -0.3895053553793354, 0.670891921372208, 0.08070359395436368, -0.2754385848680077]",0,"[-1.548520177351218, 11.613995422598048, -12.972013301816208, 22.25106036599945, 2.6478796239692777, -9.060865378144374]","[-1.2318953179435221, 2.935224310155393, -4.724258719830214, 0.7254787172788797, 0.27871257686790374, -0.49021814064282176]","[-7.616603313354622, 25.931187306060153, -44.96950484352547, 3.1030754866716497, 0.5369090320369565, -1.9194914783321348]","[-0.13825637498964483, -1.7991645971881312, 2.1856331825256348, 4.340514183044434, -1.5955527464496058, -1.610657040272848]","[-0.016030099242925644, 0.22131508588790894, -0.25563791394233704, 0.4169791340827942, 0.052155349403619766, -0.1853959709405899]","[-0.4775056540966034, -1.0805526971817017, 0.4057677090167999, 0.14030379056930542, 0.16775453090667725, -0.3660098910331726]","[-0.4461202919483185, -1.1634997129440308, 0.5245836973190308, 0.12352833896875381, 0.16775453090667725, -0.3660098910331726]","[-0.3694938919082159, -0.05320288563967469, 0.13162302714210955, 0.1536059617381037, 3.121022908851058, 0.04045355495485264]","[-0.013459246870619432, -0.004232996352053587, -0.0015645885081997997, -0.10794357853415583, -0.3764107599771474, 0.16802771935037528]","[-264.96406532206504, -14.337771587099837, 88.64250493699899, -0.3189576690923407, -72.5461188669393, -0.6726699080269165]","[-0.3694614152370047, -0.053220794611463916, 0.13155843463131933, 0.15263896135943877, 3.1190425898334295, 0.039411174975106864]","[-0.014244715968991217, 0.0006742222460452713, -0.009348395442503897, -0.17268241328016043, -0.6188253395662907, 0.2258531802621333]",65536,"[33.77998352050781, 33.269981384277344, 31.729991912841797, 38.389984130859375, 40.049983978271484, 43.799983978271484]",0.401377,7,"[253, 253, 253, 253, 253, 253]",1,"[4.603143692016602, 3.8059847354888916, -10.503918647766113]",1.0,1.0,1.3845558724625533,47.88711929321289,47.88711929321289,0.3938823342323303,"[47.60599899291992, 47.62099838256836, 47.66600036621094, 47.60599899291992, 47.48400115966797, 47.60599899291992]",132,2
24,"[[36329. 36329. 36197. 36197. 36213. 36213. 37489. 37489.]
 [36329. 36329. 36197. 36197. 36213. 36213. 37489. 37489.]
 [28305. 28305. 35888. 35888. 35771. 35771. 36632. 36632.]
 [28305. 28305. 35888. 35888. 35771. 35771. 36632. 36632.]
 [36991. 36991. 35828. 35828. 36023. 36023. 36829. 36829.]
 [36991. 36991. 35828. 35828. 36023. 36023. 36829. 36829.]
 [37341. 37341. 36342. 36342. 36568. 36568. 37151. 37151.]
 [37341. 37341. 36342. 36342. 36568. 36568. 37151. 37151.]]",,1677600987.1093566,['-X'],"[-0.36849892447009297, -0.05328877321490769, 0.13228343242528773, -0.17758565500303566, -3.112165433946154, -0.05353813727954714]",-1,"[-0.36888, -0.0535, 0.1327874404880196, -0.1776149723693316, -3.1111545019089464, -0.05399520880345856]",1677600986.7284844,1677601106.7284844,-1,starting,"('starting', (-0.36888, -0.0535), 0, 4, -0.01)",1,1214.608,"[-0.13914013947904813, -1.793558372628083, 2.1793837427271257, 4.351668987058164, -1.5940106467911876, -1.6151380733442195]","[-0.0393531073610858, 0.28991565917147005, -0.3232339821954092, 0.5570000948195656, 0.06736057200571331, -0.22928645785142185]",0,"[0.32204548040490244, -2.204272034835274, 2.521389716922437, -4.402323618233645, -0.5214771585482971, 1.8397783695011798]","[-0.41151568005485456, -0.6072492091738179, -1.613531785476138, 0.05505573927872995, 0.19803363022392767, -0.19822649604729534]","[1.502624606479609, -13.818586452261863, -10.272299988470063, -2.3707694613533405, -0.11549625234028765, 0.38974631615159566]","[-0.13897544542421514, -1.7936576048480433, 2.1799612045288086, 4.351419448852539, -1.594342056904928, -1.6149843374835413]","[-0.03410550579428673, 0.2796574831008911, -0.29378288984298706, 0.5221047401428223, 0.06059224531054497, -0.2232421487569809]","[-0.44387850165367126, -2.5310041904449463, -1.7194687128067017, -0.3385591506958008, 0.326358824968338, -0.23028121888637543]","[-0.44387850165367126, -2.5825657844543457, -1.6028945446014404, -0.3690599799156189, 0.32483378052711487, -0.21503080427646637]","[-0.36946822448100125, -0.05322261894142896, 0.13122950298484248, 0.14729171092566834, 3.1107110315231594, 0.036834103042324026]","[-0.007532473536574786, -0.000447466998181366, -0.01420636690647875, -0.13699491877904205, -0.4996141343339922, 0.18681545931937177]","[-62.08911162598339, -11.553895405978395, -17.98385090444282, 3.5729286280227237, -16.195325376992805, -0.5579179269398842]","[-0.3696489119040261, -0.05321245179135924, 0.13143109254351215, 0.14733199930492025, 3.1109694454540717, 0.036348968268448544]","[-0.01155929838695462, 0.00048671521965480317, -0.007738525963078764, -0.14608454838050927, -0.5142662032692283, 0.18741373912613304]",65536,"[33.77998352050781, 33.269981384277344, 31.729991912841797, 38.389984130859375, 40.049983978271484, 43.799983978271484]",0.63966,7,"[253, 253, 253, 253, 253, 253]",1,"[11.100289344787598, 3.9048802852630615, -21.2026309967041]",1.0,1.0,1.1533208314837773,47.88711929321289,47.88711929321289,0.32226669788360596,"[47.60599899291992, 47.62099838256836, 47.66600036621094, 47.60599899291992, 47.48400115966797, 47.60599899291992]",132,2
25,"[[36329. 36329. 36196. 36196. 36210. 36210. 37489. 37489.]
 [36329. 36329. 36196. 36196. 36210. 36210. 37489. 37489.]
 [28301. 28301. 35886. 35886. 35770. 35770. 36633. 36633.]
 [28301. 28301. 35886. 35886. 35770. 35770. 36633. 36633.]
 [36994. 36994. 35828. 35828. 36022. 36022. 36833. 36833.]
 [36994. 36994. 35828. 35828. 36022. 36022. 36833. 36833.]
 [37339. 37339. 36345. 36345. 36565. 36565. 37149. 37149.]
 [37339. 37339. 36345. 36345. 36565. 36565. 37149. 37149.]]",,1677600987.1253476,['-X'],"[-0.36849892447009297, -0.05328877321490769, 0.13228343242528773, -0.17758565500303566, -3.112165433946154, -0.05353813727954714]",-1,"[-0.36888, -0.0535, 0.1327874404880196, -0.1776149723693316, -3.1111545019089464, -0.05399520880345856]",1677600986.7284844,1677601106.7284844,-1,starting,"('starting', (-0.36888, -0.0535), 0, 4, -0.01)",1,1214.624,"[-0.13995132873491123, -1.7875474025415405, 2.1726997029557626, 4.363176403341165, -1.592615748816785, -1.6198717575897916]","[-0.04993639558361281, 0.370387814219996, -0.4114294871659667, 0.708294351427956, 0.08594613716918131, -0.29146658119735724]",0,"[0.48227089935432704, -3.4847459672891765, 3.982965025383256, -6.865510055874477, -0.8100614782105171, 2.7984311992639426]","[-0.34714021570548265, -0.8853421820606034, -1.3951042155139197, 0.01377067309340402, 0.19536223932276275, -0.19030332729674587]","[2.313798080134964, -17.6852435347097, -6.969054613921914, -2.8660254063169126, -0.17469028512433185, 0.5928313263148809]","[-0.1397784391986292, -1.7886417547809046, 2.1740012168884277, 4.36240816116333, -1.593010727559225, -1.6193717161761683]","[-0.07035858929157257, 0.5047436356544495, -0.5299009084701538, 0.9372143745422363, 0.11699000746011734, -0.38114631175994873]","[-0.8294699192047119, 2.728283405303955, -3.826770544052124, -0.07472702115774155, 0.19368022680282593, -0.1265784204006195]","[-0.8227444887161255, 2.8829684257507324, -4.003873825073242, -0.045751236379146576, 0.19520527124404907, -0.14030379056930542]","[-0.36951101874178377, -0.05322951548822404, 0.13114745587463697, 0.1411233439561039, 3.101093469105472, 0.03307355386450402]","[-0.014748105705653916, 0.0008291332675649727, -0.024329699014069936, -0.2579264007089605, -0.8942226407140894, 0.30515589869777476]","[187.31499565887424, 14.114942687366625, -8.328615210181402, -3.058389046694903, 42.16410905538826, 1.300872108380198]","[-0.3698873828629241, -0.05320373051843197, 0.1312722696967828, 0.14059137286991574, 3.1005962193730308, 0.03235578655252018]","[-0.014491677066451847, 0.0005003148854005512, -0.009544613107324162, -0.18979890051559384, -0.6542316380853571, 0.23730599220107063]",65536,"[33.77998352050781, 33.269981384277344, 31.729991912841797, 38.389984130859375, 40.049983978271484, 43.799983978271484]",0.6351,7,"[253, 253, 253, 253, 253, 253]",1,"[-9.101398468017578, -0.584383487701416, 1.1747605800628662]",1.0,1.0,1.4727249505414384,47.76557922363281,47.76557922363281,2.3274729251861572,"[47.60599899291992, 47.62099838256836, 47.66600036621094, 47.60599899291992, 47.48400115966797, 47.66600036621094]",132,2
26,"[[36326. 36326. 36198. 36198. 36210. 36210. 37489. 37489.]
 [36326. 36326. 36198. 36198. 36210. 36210. 37489. 37489.]
 [28302. 28302. 35885. 35885. 35768. 35768. 36631. 36631.]
 [28302. 28302. 35885. 35885. 35768. 35768. 36631. 36631.]
 [36988. 36988. 35827. 35827. 36024. 36024. 36828. 36828.]
 [36988. 36988. 35827. 35827. 36024. 36024. 36828. 36828.]
 [37340. 37340. 36339. 36339. 36562. 36562. 37149. 37149.]
 [37340. 37340. 36339. 36339. 36562. 36562. 37149. 37149.]]",,1677600987.140821,['-X'],"[-0.36849892447009297, -0.05328877321490769, 0.13228343242528773, -0.17758565500303566, -3.112165433946154, -0.05353813727954714]",-1,"[-0.36888, -0.0535, 0.1327874404880196, -0.1776149723693316, -3.1111545019089464, -0.05399520880345856]",1677600986.7284844,1677601106.7284844,-1,starting,"('starting', (-0.36888, -0.0535), 0, 4, -0.01)",1,1214.6399999999999,"[-0.14092104814788087, -1.78033292114808, 2.1647110064317516, 4.376926841559996, -1.5909422002409261, -1.6255357025872854]","[-0.05979631901733355, 0.44520747519882137, -0.4926664577409315, 0.8479369441117447, 0.10325777599960494, -0.3493206743765768]",0,"[0.5359601414217843, -3.903118736199855, 4.40150430919519, -7.5907043795735705, -0.9097430479556318, 3.1149741303767295]","[-0.3312208660223267, -0.9559637188672858, -1.380385711026841, 0.013648532844389655, 0.19703895733495935, -0.1978991235675608]","[2.5767837166289733, -19.147400806115666, -6.022032282324471, -3.006567214924311, -0.19484220462423424, 0.6598890998762077]","[-0.1406768004046839, -1.782201115285055, 2.1659436225891113, 4.3751325607299805, -1.591224495564596, -1.624897305165426]","[-0.08017606288194656, 0.5204285383224487, -0.6574513912200928, 1.053437352180481, 0.1324496567249298, -0.43651342391967773]","[-1.18367600440979, 5.138229846954346, -4.62933874130249, 0.14335386455059052, 0.29128286242485046, -0.20435552299022675]","[-1.1993685960769653, 5.214451313018799, -4.878179550170898, 0.1662294864654541, 0.2928079068660736, -0.15402916073799133]","[-0.3700125810118408, -0.05324077470185351, 0.13135843836203276, 0.13335355892302778, 3.0905253996498234, 0.028340701148927037]","[-0.03694823114961698, 0.004030705570935088, 0.01830774468684029, -0.2814265434306552, -0.8957609725004382, 0.34833296077221676]","[290.82759280034, 15.417526420025924, -1.482774188094325, -2.175078173234023, 67.0975569945179, 0.9238655744406052]","[-0.3701655655538055, -0.05319533737976951, 0.13108757865369594, 0.13261082993652681, 3.088164262878203, 0.027483453658869256]","[-0.01688660504540702, 0.00047603741206735903, -0.010957163466355498, -0.23292996720171513, -0.7833975163066693, 0.2829408393457002]",65536,"[33.77998352050781, 33.269981384277344, 31.729991912841797, 38.389984130859375, 40.049983978271484, 43.799983978271484]",0.639853,7,"[253, 253, 253, 253, 253, 253]",1,"[-1.1927416324615479, -2.376492738723755, -3.4044084548950195]",1.0,1.0,1.7692392539170918,47.64403533935547,47.64403533935547,2.792966604232788,"[47.60599899291992, 47.62099838256836, 47.66600036621094, 47.60599899291992, 47.48400115966797, 47.66600036621094]",132,2
27,"[[36326. 36326. 36196. 36196. 36209. 36209. 37491. 37491.]
 [36326. 36326. 36196. 36196. 36209. 36209. 37491. 37491.]
 [28302. 28302. 35886. 35886. 35769. 35769. 36635. 36635.]
 [28302. 28302. 35886. 35886. 35769. 35769. 36635. 36635.]
 [36993. 36993. 35828. 35828. 36024. 36024. 36827. 36827.]
 [36993. 36993. 35828. 35828. 36024. 36024. 36827. 36827.]
 [37343. 37343. 36341. 36341. 36565. 36565. 37152. 37152.]
 [37343. 37343. 36341. 36341. 36565. 36565. 37152. 37152.]]",,1677600987.155704,['-X'],"[-0.36849892447009297, -0.05328877321490769, 0.13228343242528773, -0.17758565500303566, -3.112165433946154, -0.05353813727954714]",-1,"[-0.36888, -0.0535, 0.1327874404880196, -0.1776149723693316, -3.1111545019089464, -0.05399520880345856]",1677600986.7284844,1677601106.7284844,-1,starting,"('starting', (-0.36888, -0.0535), 0, 4, -0.01)",1,1214.656,"[-0.14203796734943452, -1.7719739539485486, 2.1554781012824726, 4.392803300713597, -1.5890077741960384, -1.6320692706183415]","[-0.06915186872632363, 0.5192786900049704, -0.573465461412025, 0.9853445466108036, 0.11994597116318381, -0.40488678330361433]",0,"[0.531458208579274, -3.5399170543573555, 3.9361014526003157, -6.958134222891945, -0.8754976144263251, 3.0153924473859464]","[-0.3510925953424064, -0.8405476942481168, -1.5147657220253037, 0.046456761957824874, 0.2018920334906699, -0.21573568959366285]","[2.4351791351074707, -18.428682857395078, -7.054725353793094, -2.870417790199224, -0.18708835707867966, 0.6387933011945671]","[-0.1416838804828089, -1.7738092581378382, 2.1567821502685547, 4.391006946563721, -1.5893538633929651, -1.6313350836383265]","[-0.0851103663444519, 0.6477361917495728, -0.7083667516708374, 1.200028419494629, 0.15078552067279816, -0.48957958817481995]","[-1.6611815690994263, 4.445510387420654, -4.297550678253174, 0.1098029613494873, 0.23333130776882172, -0.17537973821163177]","[-1.6566979885101318, 4.537424564361572, -4.506039142608643, 0.16012932360172272, 0.23485633730888367, -0.1860550194978714]","[-0.3702954178491168, -0.05326332125617054, 0.1311153296433326, 0.12421341769661767, 3.0760351133070536, 0.022701834177889717]","[-0.02809716300494618, 0.0004014213700034406, -0.015298765946346451, -0.3416829215172644, -1.1125400224752073, 0.3927363041743249]","[248.53554647863479, -5.474474412085855, 0.5748457242419815, 1.7620326750930557, 57.13088571554819, 1.1839323717622672]","[-0.37047949566621885, -0.0531877579204251, 0.13088941661882128, 0.12351777362954543, 3.073779868072751, 0.021737748782997203]","[-0.019276009505705287, 0.00041756569638413943, -0.011561939767490972, -0.2775150795427338, -0.9093622574175174, 0.32597215213484737]",65536,"[33.77998352050781, 33.269981384277344, 31.720993041992188, 38.389984130859375, 40.049983978271484, 43.799983978271484]",0.634536,7,"[253, 253, 253, 253, 253, 253]",1,"[-5.894781112670898, 3.901883602142334, 0.3566237688064575]",1.0,1.0,2.0624671200160463,47.64403533935547,47.70480728149414,3.043618679046631,"[47.31700134277344, 47.62099838256836, 47.393001556396484, 47.60599899291992, 47.513999938964844, 47.66600036621094]",132,2
28,"[[36329. 36329. 36197. 36197. 36210. 36210. 37492. 37492.]
 [36329. 36329. 36197. 36197. 36210. 36210. 37492. 37492.]
 [28304. 28304. 35888. 35888. 35769. 35769. 36632. 36632.]
 [28304. 28304. 35888. 35888. 35769. 35769. 36632. 36632.]
 [36994. 36994. 35824. 35824. 36025. 36025. 36826. 36826.]
 [36994. 36994. 35824. 35824. 36025. 36025. 36826. 36826.]
 [37343. 37343. 36341. 36341. 36563. 36563. 37153. 37153.]
 [37343. 37343. 36341. 36341. 36563. 36563. 37153. 37153.]]",,1677600987.1697128,['-X'],"[-0.36849892447009297, -0.05328877321490769, 0.13228343242528773, -0.17758565500303566, -3.112165433946154, -0.05353813727954714]",-1,"[-0.36888, -0.0535, 0.1327874404880196, -0.1776149723693316, -3.1111545019089464, -0.05399520880345856]",1677600986.7284844,1677601106.7284844,-1,starting,"('starting', (-0.36888, -0.0535), 0, 4, -0.01)",1,1214.664,"[-0.14267866164701104, -1.7671179175597835, 2.1501180051498423, 4.4019937504705355, -1.5878918572806349, -1.6358301504746038]","[-0.08172121142559004, 0.6193923965261252, -0.6836857312029183, 1.1722512445075022, 0.14233634125048436, -0.47970406329859294]",0,"[-1.5711678374083007, 12.514213315144351, -13.777533723861659, 23.36333723708732, 2.7987962609125683, -9.352159999372326]","[-1.2968492250785009, 3.2626592653532276, -5.031229868168962, 0.8154827880303291, 0.2971441004941933, -0.5538741994729015]","[-8.046066273538298, 27.641448137434114, -46.34231260493527, 3.3522814292174026, 0.5698216980342575, -1.9812005447177508]","[-0.14233142534364873, -1.7690084616290491, 2.151937484741211, 4.399410724639893, -1.5882986227618616, -1.6347625891314905]","[-0.06691991537809372, 0.5112374424934387, -0.5270630121231079, 0.9197413325309753, 0.1137542650103569, -0.3847176134586334]","[-0.8653388619422913, -1.8001738786697388, -1.5625419616699219, -0.3294088840484619, 0.2196059226989746, -0.31415846943855286]","[-0.8406789302825928, -1.8629446029663086, -1.4571768045425415, -0.34465929865837097, 0.21808089315891266, -0.3050082325935364]","[-0.370461084681566, -0.05324610275911062, 0.13086486245785506, 0.11955449460757447, 3.067999239126385, 0.019502869127840498]","[-0.015917317063768897, 0.0005395079014368655, -0.023348224472739893, -0.2686422121333791, -0.8823726172455205, 0.307745890552807]","[-255.6465633405432, -17.94736478904868, 49.704298716402555, 0.5949732577181173, -72.73099764076522, 1.5455177967677267]","[-0.37066169330395177, -0.053184379834987874, 0.130785928232771, 0.11833447476958724, 3.065445193513076, 0.018363921566645274]","[-0.022987490627862782, 0.0004037642523192994, -0.012706592372174278, -0.3343351161236954, -1.080730634913873, 0.3848943178743959]",65536,"[33.77998352050781, 33.269981384277344, 31.720993041992188, 38.389984130859375, 40.049983978271484, 43.799983978271484]",0.430716,7,"[253, 253, 253, 253, 253, 253]",1,"[12.086249351501465, 4.986739158630371, -19.839069366455078]",1.0,1.0,2.4590322188068963,47.82634735107422,47.82634735107422,0.35807186365127563,"[47.31700134277344, 47.62099838256836, 47.393001556396484, 47.60599899291992, 47.513999938964844, 47.66600036621094]",132,2
29,"[[36328. 36328. 36196. 36196. 36209. 36209. 37489. 37489.]
 [36328. 36328. 36196. 36196. 36209. 36209. 37489. 37489.]
 [28303. 28303. 35886. 35886. 35766. 35766. 36627. 36627.]
 [28303. 28303. 35886. 35886. 35766. 35766. 36627. 36627.]
 [36989. 36989. 35830. 35830. 36022. 36022. 36826. 36826.]
 [36989. 36989. 35830. 35830. 36022. 36022. 36826. 36826.]
 [37342. 37342. 36339. 36339. 36565. 36565. 37151. 37151.]
 [37342. 37342. 36339. 36339. 36565. 36565. 37151. 37151.]]",,1677600987.1866572,['-X'],"[-0.36849892447009297, -0.05328877321490769, 0.13228343242528773, -0.17758565500303566, -3.112165433946154, -0.05353813727954714]",-1,"[-0.36888, -0.0535, 0.1327874404880196, -0.1776149723693316, -3.1111545019089464, -0.05399520880345856]",1677600986.7284844,1677601106.7284844,-1,starting,"('starting', (-0.36888, -0.0535), 0, 4, -0.01)",1,1214.6799999999998,"[-0.14397185549372793, -1.7571933848063317, 2.1391879627687107, 4.420686647890734, -1.5856264390441623, -1.6434465577894066]","[-0.08523095875696016, 0.6572573991159025, -0.7232223610851042, 1.235662094874981, 0.1496420683048643, -0.5026280394133343]",0,"[-1.1015858343009464, 9.243525506296285, -10.02367806609898, 16.83900152815615, 2.0133571313290415, -6.650645559547891]","[-1.101191239965332, 2.427382137142175, -4.306252965416105, 0.6639368386746703, 0.27973415320431483, -0.49064454007979147]","[-5.824285007284182, 17.936378912086433, -37.885379794978235, 2.0258648827911667, 0.4088249750682944, -1.4089004685746718]","[-0.14381724992860967, -1.758904282246725, 2.1407618522644043, 4.418063640594482, -1.585996452962057, -1.642242733632223]","[-0.0711255744099617, 0.5966801643371582, -0.611789882183075, 1.0501776933670044, 0.1324736326932907, -0.4309527575969696]","[-0.0784633681178093, -2.5041024684906006, -0.46853840351104736, -0.15402916073799133, 0.315683513879776, -0.3355090618133545]","[-0.06052888557314873, -2.546696901321411, -0.33627158403396606, -0.15707923471927643, 0.282132625579834, -0.33093392848968506]","[-0.37095271996354245, -0.05316278002676598, 0.13071642647009785, 0.1096580018134032, 3.0511069613422888, 0.01250854909902687]","[-0.021334367526645324, -0.0013961766988351474, -0.025169175674403625, -0.3177589193681932, -1.0074852648362425, 0.3453232997197005]","[-260.1359555998375, -0.19394486877856076, 51.69753342877841, -1.8899201405469797, -71.19445304489709, 0.9166592080940255]","[-0.3710319893593539, -0.05317979148482327, 0.1305945256835409, 0.10795406322340563, 3.0484612116196397, 0.01138670174705233]","[-0.024261361281903905, 0.0002229554481537767, -0.011717013607140407, -0.3619197092465811, -1.138175671343729, 0.4003096572145528]",65536,"[33.77998352050781, 33.269981384277344, 31.720993041992188, 38.389984130859375, 40.049983978271484, 43.799983978271484]",0.393229,7,"[253, 253, 253, 253, 253, 253]",1,"[4.354405879974365, 0.0839114710688591, -13.806434631347656]",1.0,1.0,2.6570057651804646,47.88711929321289,47.9478874206543,0.17903539538383484,"[47.31700134277344, 47.31700134277344, 47.393001556396484, 47.34700012207031, 47.513999938964844, 47.66600036621094]",132,2
30,"[[36333. 36333. 36196. 36196. 36209. 36209. 37487. 37487.]
 [36333. 36333. 36196. 36196. 36209. 36209. 37487. 37487.]
 [28299. 28299. 35883. 35883. 35766. 35766. 36634. 36634.]
 [28299. 28299. 35883. 35883. 35766. 35766. 36634. 36634.]
 [36991. 36991. 35826. 35826. 36022. 36022. 36827. 36827.]
 [36991. 36991. 35826. 35826. 36022. 36022. 36827. 36827.]
 [37340. 37340. 36343. 36343. 36563. 36563. 37150. 37150.]
 [37340. 37340. 36343. 36343. 36563. 36563. 37150. 37150.]]",,1677600987.2028265,['-X'],"[-0.36849892447009297, -0.05328877321490769, 0.13228343242528773, -0.17758565500303566, -3.112165433946154, -0.05353813727954714]",-1,"[-0.36888, -0.0535, 0.1327874404880196, -0.1776149723693316, -3.1111545019089464, -0.05399520880345856]",1677600986.7284844,1677601106.7284844,-1,starting,"('starting', (-0.36888, -0.0535), 0, 4, -0.01)",1,1214.696,"[-0.14527155569844652, -1.7470626328474994, 2.1280732221552476, 4.43963829041855, -1.5833363806180918, -1.6511317628409223]","[-0.08440072519930031, 0.6607582267001074, -0.7240729644256396, 1.2335934414616265, 0.14893019486429457, -0.49961415492439504]",0,"[-0.7923656011187639, 6.896557318272614, -7.3504190210337965, 12.278945868287927, 1.4503858087224764, -4.822209801158328]","[-0.9636097660279253, 1.8053467910000405, -3.7786961094223637, 0.5528499946074377, 0.26585104320556846, -0.4432735155323007]","[-4.290899539555382, 10.847498409743292, -31.891531745064587, 1.1020785408131832, 0.2934406136704023, -1.0215570184256217]","[-0.14509994188417608, -1.748237435017721, 2.1293816566467285, 4.4372429847717285, -1.58356219926943, -1.6501663366900843]","[-0.06299547851085663, 0.5752555727958679, -0.6083639860153198, 1.0537489652633667, 0.1318264752626419, -0.4343562722206116]","[-0.46405479311943054, -2.5041024684906006, -0.703928530216217, 0.06862685084342957, 0.3721100389957428, -0.3233087360858917]","[-0.4461202919483185, -2.566873073577881, -0.6030470132827759, 0.04117611050605774, 0.35685962438583374, -0.32025864720344543]","[-0.3714017781768909, -0.05318854413644792, 0.13044662091039455, 0.0989187545819699, 3.0333734707700675, 0.004983907578650734]","[-0.017044076944418455, -0.004784440590812184, -0.017379736842306173, -0.3241345737131381, -0.9907370935380557, 0.3536822902356366]","[-222.81878643135087, -11.407842416807863, 32.10693427285143, 1.997107319374102, -58.32989581734893, 1.3423088398643235]","[-0.3714063212607243, -0.053177379790685216, 0.13042308265047112, 0.09764035702719046, 3.0311914406152276, 0.004158918390879632]","[-0.024140041511121747, 0.00010014549703846189, -0.010305153303165346, -0.37090357245066397, -1.1359755047856088, 0.3946835238977079]",65536,"[33.77998352050781, 33.269981384277344, 31.720993041992188, 38.389984130859375, 40.049983978271484, 43.799983978271484]",0.39063600000000004,7,"[253, 253, 253, 253, 253, 253]",1,"[4.531219482421875, 2.2656097412109375, -13.830409049987793]",1.0,1.0,2.6652817736555408,47.88711929321289,47.82634735107422,-0.07161670178174973,"[47.31700134277344, 47.31700134277344, 47.393001556396484, 47.34700012207031, 47.513999938964844, 47.36199951171875]",132,2
31,"[[36327. 36327. 36194. 36194. 36209. 36209. 37486. 37486.]
 [36327. 36327. 36194. 36194. 36209. 36209. 37486. 37486.]
 [28306. 28306. 35885. 35885. 35767. 35767. 36631. 36631.]
 [28306. 28306. 35885. 35885. 35767. 35767. 36631. 36631.]
 [36991. 36991. 35829. 35829. 36022. 36022. 36830. 36830.]
 [36991. 36991. 35829. 35829. 36022. 36022. 36830. 36830.]
 [37337. 37337. 36340. 36340. 36563. 36563. 37148. 37148.]
 [37337. 37337. 36340. 36340. 36563. 36563. 37148. 37148.]]",,1677600987.215847,['-X'],"[-0.36849892447009297, -0.05328877321490769, 0.13228343242528773, -0.17758565500303566, -3.112165433946154, -0.05353813727954714]",-1,"[-0.36888, -0.0535, 0.1327874404880196, -0.1776149723693316, -3.1111545019089464, -0.05399520880345856]",1677600986.7284844,1677601106.7284844,-1,starting,"('starting', (-0.36888, -0.0535), 0, 4, -0.01)",1,1214.712,"[-0.14652673192436438, -1.7370318984998976, 2.1171185874805722, 4.458235780881068, -1.5811168118618584, -1.6586070336096128]","[-0.0806603594677227, 0.650175653043279, -0.7090640861894473, 1.2019990914876884, 0.14276367613659466, -0.48161202145762094]",0,"[-0.5529613369486819, 5.813689079537748, -6.099854755528475, 9.913984395071656, 1.0101572180047023, -3.601899603598288]","[-0.8765250410333708, 1.4919494566774925, -3.524784456625319, 0.4914809021686189, 0.25369577438342783, -0.40689576672344924]","[-3.348464285478433, 7.345194009812002, -29.095154769513883, 0.6221653561517317, 0.20343689710065013, -0.7630414211419095]","[-0.14638215700258428, -1.7376068274127405, 2.118326187133789, 4.456639289855957, -1.581296745930807, -1.6578505674945276]","[-0.06642136722803116, 0.554329514503479, -0.599083423614502, 1.0516397953033447, 0.12353339791297913, -0.421772837638855]","[-0.5626944303512573, -2.087125539779663, -0.9863966703414917, -0.050326358526945114, 0.2424815446138382, -0.4056609570980072]","[-0.5514854192733765, -2.196974277496338, -0.860855221748352, -0.06252668797969818, 0.2424815446138382, -0.40413591265678406]","[-0.3716573521316522, -0.05320409009801779, 0.1300687930206443, 0.08869275398587084, 3.0150940898732586, -0.002519921999298598]","[-0.012278224410696393, -0.002343406559542292, -0.011680854787428554, -0.3213462807946275, -0.9758508103532217, 0.3353561244346245]","[-184.70982520190148, -14.517789864197441, 30.22821343275486, 1.683160788884102, -49.87218946208282, 0.49134785048660845]","[-0.3717788670070091, -0.05317486140040527, 0.13027544104838265, 0.08775365257707994, 3.0141853841476016, -0.003045595636121843]","[-0.024060995697245714, 0.0001642585597612481, -0.008741986029049189, -0.36822760028732465, -1.1072919375737216, 0.377763108186128]",65536,"[33.77998352050781, 33.269981384277344, 31.720993041992188, 38.389984130859375, 40.049983978271484, 43.799983978271484]",0.483204,7,"[253, 253, 253, 253, 253, 253]",1,"[2.5772809982299805, 3.446364164352417, -13.44081974029541]",1.0,1.0,2.6151625177429896,47.82634735107422,47.76557922363281,0.035809412598609924,"[47.31700134277344, 47.31700134277344, 47.393001556396484, 47.34700012207031, 47.513999938964844, 47.36199951171875]",132,2
32,"[[36327. 36327. 36197. 36197. 36210. 36210. 37487. 37487.]
 [36327. 36327. 36197. 36197. 36210. 36210. 37487. 37487.]
 [28305. 28305. 35885. 35885. 35768. 35768. 36631. 36631.]
 [28305. 28305. 35885. 35885. 35768. 35768. 36631. 36631.]
 [36993. 36993. 35827. 35827. 36023. 36023. 36828. 36828.]
 [36993. 36993. 35827. 35827. 36023. 36023. 36828. 36828.]
 [37338. 37338. 36337. 36337. 36561. 36561. 37147. 37147.]
