Zhao-JW/SharedControl4RemotePalpation/Data/csvdata/yun1_mar-02-2023__0/starting_0_0.csv
,skin_data,patient_data,sample_times,keys_pressed,palpation_start_pose,robot_initiative,descent_start_pose,palpation_start_time,palpation_end_time,target_position,human_response,action,recipe_id,timestamp,target_q,target_qd,output_int_register_0,target_qdd,target_current,target_moment,actual_q,actual_qd,actual_current,joint_control_output,actual_TCP_pose,actual_TCP_speed,actual_TCP_force,target_TCP_pose,target_TCP_speed,actual_digital_input_bits,joint_temperatures,actual_execution_time,robot_mode,joint_mode,safety_mode,actual_tool_accelerometer,speed_scaling,target_speed_fraction,actual_momentum,actual_main_voltage,actual_robot_voltage,actual_robot_current,actual_joint_voltage,actual_digital_output_bits,runtime_state
0,"[[36212. 36212. 36093. 36093. 36100. 36100. 37355. 37355.]
 [36212. 36212. 36093. 36093. 36100. 36100. 37355. 37355.]
 [28448. 28448. 35787. 35787. 35673. 35673. 36504. 36504.]
 [28448. 28448. 35787. 35787. 35673. 35673. 36504. 36504.]
 [36859. 36859. 35731. 35731. 35930. 35930. 36703. 36703.]
 [36859. 36859. 35731. 35731. 35930. 35930. 36703. 36703.]
 [37163. 37163. 36235. 36235. 36450. 36450. 36997. 36997.]
 [37163. 37163. 36235. 36235. 36450. 36450. 36997. 36997.]]",,1677763160.184591,['-X'],"[-0.3684689486035409, -0.05326457775956901, 0.1323655669627615, -0.1773916724238951, -3.1112195425942093, -0.054012741507142976]",-1,"[-0.36888, -0.0535, 0.13291015787889915, -0.17768931939222413, -3.11014200167075, -0.054409667424935776]",1677763160.1686323,1677763280.1686323,-1,starting,"('starting', (-0.36888, -0.0535), 0, 0, -0.005)",1,163395.28,"[-0.13510448137392217, -1.8223303000079554, 2.2114272117614746, 4.29583215713501, -1.6008647123919886, -1.5925453344928187]","[0.0, 0.0, -0.0, 0.0, 0.0, 0.0]",0,"[0.0, 0.0, 0.0, 0.0, 0.0, 0.0]","[-1.9456560805944486e-17, -0.5078226958894876, -1.2552953174003192, -0.15951559803712087, -0.0011001628447437762, 0.0]","[-2.4428850820155505e-16, -6.470796580124898, -15.977780875059414, -1.4906320703418983, -0.010377702483354595, 0.0]","[-0.1350920836078089, -1.8222821394549769, 2.2114510536193848, 4.295820236206055, -1.6008527914630335, -1.5925453344928187]","[0.0, 0.0, -0.0, 0.0, 0.0, 0.0]","[-0.11209052801132202, -0.2847099304199219, -1.192643165588379, -0.1860550194978714, 0.05795156583189964, -0.06252668797969818]","[-0.12105777114629745, -0.27350088953971863, -1.18367600440979, -0.15860427916049957, 0.061001647263765335, -0.06557676941156387]","[-0.36853427376707715, -0.053269843688008814, 0.13238171635555834, -0.17734124388125566, -3.1108854240290773, -0.05401075847892094]","[0.0, 0.0, 0.0, 0.0, 0.0, 0.0]","[5.8190101979297655, -4.5979843327250585, 5.497205678111145, 1.4077070355506598, 0.4151307273283543, -0.597130398446967]","[-0.36853862865081216, -0.0532620834233693, 0.13240889735053388, -0.17735903245732684, -3.1108251350385197, -0.054035821917535004]","[0.0, 0.0, 0.0, 0.0, 0.0, 0.0]",65536,"[35.319984436035156, 35.18998336791992, 34.049983978271484, 41.08998107910156, 42.73998260498047, 46.199981689453125]",0.33939600000000003,7,"[253, 253, 253, 253, 253, 253]",1,"[0.3686111271381378, 1.1897448301315308, -8.843669891357422]",0.0,1.0,0.0217014732836629,47.82634735107422,47.82634735107422,0.7877604365348816,"[47.54499816894531, 47.62099838256836, 47.6510009765625, 47.63600158691406, 47.48400115966797, 47.63600158691406]",132,1
1,"[[36213. 36213. 36093. 36093. 36098. 36098. 37360. 37360.]
 [36213. 36213. 36093. 36093. 36098. 36098. 37360. 37360.]
 [28449. 28449. 35791. 35791. 35675. 35675. 36504. 36504.]
 [28449. 28449. 35791. 35791. 35675. 35675. 36504. 36504.]
 [36857. 36857. 35730. 35730. 35935. 35935. 36703. 36703.]
 [36857. 36857. 35730. 35730. 35935. 35935. 36703. 36703.]
 [37160. 37160. 36235. 36235. 36448. 36448. 36999. 36999.]
 [37160. 37160. 36235. 36235. 36448. 36448. 36999. 36999.]]",,1677763160.2021868,['-X'],"[-0.3684689486035409, -0.05326457775956901, 0.1323655669627615, -0.1773916724238951, -3.1112195425942093, -0.054012741507142976]",-1,"[-0.36888, -0.0535, 0.13291015787889915, -0.17768931939222413, -3.11014200167075, -0.054409667424935776]",1677763160.1686323,1677763280.1686323,-1,starting,"('starting', (-0.36888, -0.0535), 0, 0, -0.005)",1,163395.296,"[-0.13505584398378545, -1.822294060383932, 2.2114148139953613, 4.295844078063965, -1.6008408705340784, -1.5925334135638636]","[0.0, 0.0, -0.0, 0.0, 0.0, 0.0]",0,"[0.0, 0.0, 0.0, 0.0, 0.0, 0.0]","[-2.7284503207137704e-17, -0.5079159459009147, -1.2552833364811657, -0.1595144338985612, -0.0010992918441171267, 0.0]","[-3.425729064848806e-16, -6.471984793767028, -15.977628378273788, -1.4906211917676855, -0.010369486440239372, 0.0]","[-0.13505584398378545, -1.822294060383932, 2.2114272117614746, 4.295868396759033, -1.6008527914630335, -1.5925691763507288]","[0.0, 0.0, -0.0, 0.0, 0.0, 0.0]","[-0.11657414585351944, -0.27574270963668823, -1.1859177350997925, -0.17385469377040863, 0.050326358526945114, -0.06862685084342957]","[-0.12105777114629745, -0.27350088953971863, -1.18367600440979, -0.15860427916049957, 0.061001647263765335, -0.06557676941156387]","[-0.3685300566506857, -0.05328351130311087, 0.13239218323331364, -0.1772483418919055, -3.1109029102388486, -0.054009163592433816]","[0.0, 0.0, 0.0, 0.0, 0.0, 0.0]","[5.839232887024066, -4.88855114660436, 5.441965100436307, 1.416202097573444, 0.5479315939293385, -0.6490562343438719]","[-0.36854024327681917, -0.0532848108765022, 0.13240029986359744, -0.1773023722946348, -3.1108618746131884, -0.053993799564432725]","[0.0, 0.0, 0.0, 0.0, 0.0, 0.0]",65536,"[35.319984436035156, 35.18998336791992, 34.049983978271484, 41.08998107910156, 42.73998260498047, 46.199981689453125]",0.418344,7,"[253, 253, 253, 253, 253, 253]",1,"[0.40157634019851685, 1.1358016729354858, -8.84666633605957]",0.0,1.0,0.017249097912646918,47.82634735107422,47.82634735107422,0.7877604365348816,"[47.54499816894531, 47.62099838256836, 47.6510009765625, 47.63600158691406, 47.48400115966797, 47.63600158691406]",132,1
2,"[[36209. 36209. 36092. 36092. 36100. 36100. 37359. 37359.]
 [36209. 36209. 36092. 36092. 36100. 36100. 37359. 37359.]
 [28446. 28446. 35790. 35790. 35676. 35676. 36506. 36506.]
 [28446. 28446. 35790. 35790. 35676. 35676. 36506. 36506.]
 [36857. 36857. 35732. 35732. 35935. 35935. 36703. 36703.]
 [36857. 36857. 35732. 35732. 35935. 35935. 36703. 36703.]
 [37158. 37158. 36235. 36235. 36448. 36448. 36998. 36998.]
 [37158. 37158. 36235. 36235. 36448. 36448. 36998. 36998.]]",,1677763160.2145126,['-X'],"[-0.3684689486035409, -0.05326457775956901, 0.1323655669627615, -0.1773916724238951, -3.1112195425942093, -0.054012741507142976]",-1,"[-0.36888, -0.0535, 0.13291015787889915, -0.17768931939222413, -3.11014200167075, -0.054409667424935776]",1677763160.1686323,1677763280.1686323,-1,starting,"('starting', (-0.36888, -0.0535), 0, 0, -0.005)",1,163395.312,"[-0.13505584398378545, -1.822294060383932, 2.2114272117614746, 4.295868396759033, -1.6008527914630335, -1.5925691763507288]","[0.0, 0.0, -0.0, 0.0, 0.0, 0.0]",0,"[0.0, 0.0, 0.0, 0.0, 0.0, 0.0]","[2.049043691138729e-18, -0.5694740511325924, -1.4074314202803029, -0.17884817526135674, -0.0012330294751707516, 0.0]","[2.29456516685553e-17, -6.471899968028318, -15.977543552535078, -1.4906100107533593, -0.010373609997163627, 0.0]","[-0.13506824174989873, -1.8222702185260218, 2.2114391326904297, 4.295820236206055, -1.6008408705340784, -1.5925334135638636]","[0.0, 0.0, -0.0, 0.0, 0.0, 0.0]","[-0.12554138898849487, -0.27350088953971863, -1.197126865386963, -0.17385469377040863, 0.0564265251159668, -0.06557676941156387]","[-0.12105777114629745, -0.27350088953971863, -1.18367600440979, -0.15860427916049957, 0.061001647263765335, -0.06557676941156387]","[-0.3685382300533935, -0.05328060719368783, 0.13238289162824549, -0.17732233595758187, -3.110885275316256, -0.05399152059770414]","[0.0, 0.0, 0.0, 0.0, 0.0, 0.0]","[4.374843066538173, -5.38858895370672, 9.319005256349312, 1.5303562571981486, 0.012896860301753924, -0.6427497164642612]","[-0.3685300566506857, -0.05328351130311087, 0.13239218323331364, -0.1772483418919055, -3.1109029102388486, -0.054009163592433816]","[0.0, 0.0, 0.0, 0.0, 0.0, 0.0]",65536,"[35.319984436035156, 35.18998336791992, 34.049983978271484, 41.08998107910156, 42.73998260498047, 46.199981689453125]",0.395845,7,"[253, 253, 253, 253, 253, 253]",1,"[0.38659214973449707, 1.1987353563308716, -8.855657577514648]",1.0,1.0,0.0,47.82634735107422,47.82634735107422,0.8235656023025513,"[47.529998779296875, 47.62099838256836, 47.6510009765625, 47.63600158691406, 47.48400115966797, 47.63600158691406]",132,2
3,"[[36211. 36211. 36092. 36092. 36099. 36099. 37352. 37352.]
 [36211. 36211. 36092. 36092. 36099. 36099. 37352. 37352.]
 [28450. 28450. 35793. 35793. 35674. 35674. 36507. 36507.]
 [28450. 28450. 35793. 35793. 35674. 35674. 36507. 36507.]
 [36857. 36857. 35729. 35729. 35932. 35932. 36704. 36704.]
 [36857. 36857. 35729. 35729. 35932. 35932. 36704. 36704.]
 [37161. 37161. 36233. 36233. 36448. 36448. 37000. 37000.]
 [37161. 37161. 36233. 36233. 36448. 36448. 37000. 37000.]]",,1677763160.2305455,['-X'],"[-0.3684689486035409, -0.05326457775956901, 0.1323655669627615, -0.1773916724238951, -3.1112195425942093, -0.054012741507142976]",-1,"[-0.36888, -0.0535, 0.13291015787889915, -0.17768931939222413, -3.11014200167075, -0.054409667424935776]",1677763160.1686323,1677763280.1686323,-1,starting,"('starting', (-0.36888, -0.0535), 0, 0, -0.005)",1,163395.32799999998,"[-0.13505585588781166, -1.8222939766411725, 2.2114271173611186, 4.295868560942836, -1.6008527711468012, -1.5925692446083115]","[-1.9861523052582394e-06, 1.3972923373743851e-05, -1.575091272040447e-05, 2.739418871232878e-05, 3.3896469707933764e-06, -1.1388669053660732e-05]",0,"[-0.00020729355253471242, 0.0014584747546532435, -0.0016440050750277208, 0.002859227892584348, 0.0003537647589117526, -0.0011886457057056722]","[-8.758818424541529e-05, -0.5685576296506594, -1.4084940196701643, -0.1782224983130366, -0.0012243540233407694, -0.0002455731024217023]","[-0.0009808321680342697, -6.467740801222027, -15.981249384847606, -1.4900203721327268, -0.010300622484986798, -0.0002518076593833453]","[-0.1350801626788538, -1.8223064581500452, 2.21146297454834, 4.295856475830078, -1.6008766333209437, -1.5925453344928187]","[0.0, 0.0, -0.0, 0.0, 0.0, 0.0]","[-0.11881595849990845, -0.3474806249141693, -1.3002501726150513, -0.17232964932918549, 0.05947660654783249, -0.07167693227529526]","[-0.12105777114629745, -0.33178797364234924, -1.3002501726150513, -0.163179412484169, 0.05947660654783249, -0.07167693227529526]","[-0.3685196292128869, -0.05327076881983617, 0.13238140985154476, -0.17732422708375856, -3.1109112780489756, -0.05404503604986271]","[0.0, 0.0, 0.0, 0.0, 0.0, 0.0]","[4.2877932493289075, -5.287788642019919, 5.675445486178629, 1.6121978242661978, 0.35916014996562157, -0.686363775535605]","[-0.3685300602218733, -0.053283511146280785, 0.1323921803335202, -0.1772482589788879, -3.110903068856379, -0.05400911737114863]","[-5.959176761613974e-07, 2.6186046464803095e-08, -4.839016882338086e-07, -6.560744411741222e-06, -2.5333857909612118e-05, 9.4508019475964e-06]",65536,"[35.319984436035156, 35.18998336791992, 34.049983978271484, 41.08998107910156, 42.73998260498047, 46.199981689453125]",0.6255599999999999,7,"[253, 253, 253, 253, 253, 253]",1,"[0.4645099341869354, 1.1627732515335083, -8.966540336608887]",1.0,1.0,3.8200132992900865e-05,47.82634735107422,47.82634735107422,0.7519552707672119,"[47.529998779296875, 47.60599899291992, 47.6510009765625, 47.63600158691406, 47.499000549316406, 47.63600158691406]",132,2
4,"[[36216. 36216. 36092. 36092. 36101. 36101. 37357. 37357.]
 [36216. 36216. 36092. 36092. 36101. 36101. 37357. 37357.]
 [28447. 28447. 35793. 35793. 35677. 35677. 36507. 36507.]
 [28447. 28447. 35793. 35793. 35677. 35677. 36507. 36507.]
 [36860. 36860. 35728. 35728. 35934. 35934. 36705. 36705.]
 [36860. 36860. 35728. 35728. 35934. 35934. 36705. 36705.]
 [37159. 37159. 36233. 36233. 36450. 36450. 36998. 36998.]
 [37159. 37159. 36233. 36233. 36450. 36450. 36998. 36998.]]",,1677763160.2469115,['-X'],"[-0.3684689486035409, -0.05326457775956901, 0.1323655669627615, -0.1773916724238951, -3.1112195425942093, -0.054012741507142976]",-1,"[-0.36888, -0.0535, 0.13291015787889915, -0.17768931939222413, -3.11014200167075, -0.054409667424935776]",1677763160.1686323,1677763280.1686323,-1,starting,"('starting', (-0.36888, -0.0535), 0, 0, -0.005)",1,163395.34399999998,"[-0.1350560222828605, -1.8222928065192718, 2.2114257983064096, 4.295870855275142, -1.6008524873495569, -1.592570198578251]","[-1.4333622044966609e-05, 0.00010076172449112963, -0.00011358959358129668, 0.0001975902484448846, 2.4434356255380167e-05, -8.216676855532919e-05]",0,"[-0.0002362888360947744, 0.001652572573655942, -0.0018636718954251604, 0.003245557809292907, 0.0003997661019216999, -0.0013520414292099601]","[-0.0008492436597046933, -0.5650936088475798, -1.4131105307078518, -0.17476505831217426, -0.0007384636423802424, -0.0015864336199013316]","[-0.0011147497114248222, -6.467229935858834, -15.981744706266731, -1.4899400096687514, -0.010291060211242625, -0.0002864220903204735]","[-0.13506824174989873, -1.8222582975970667, 2.2114272117614746, 4.295844078063965, -1.6008647123919886, -1.5925453344928187]","[0.0, 0.0, -0.0, 0.0, 0.0, 0.0]","[-0.12778319418430328, -0.3721405565738678, -1.2867993116378784, -0.13572867214679718, 0.0564265251159668, -0.08387726545333862]","[-0.12105777114629745, -0.3452388346195221, -1.3002501726150513, -0.14487890899181366, 0.05947660654783249, -0.08235222101211548]","[-0.36853718418121395, -0.05327540527865322, 0.13238192232557605, -0.17730517664810683, -3.1109115422095535, -0.054026299698584156]","[0.0, 0.0, 0.0, 0.0, 0.0, 0.0]","[2.5020799287033175, -6.110597950544095, 4.773864227511833, 1.820912222845481, 0.3672742329598917, -0.7915518455098464]","[-0.3685301100796145, -0.05328350892096766, 0.1323921398011117, -0.17724710021536816, -3.1109052854177883, -0.05400847163172022]","[-4.290133849981421e-06, 1.9390163595196803e-07, -3.490970009867556e-06, -4.73063843263273e-05, -0.00018272863649376568, 6.818089966343972e-05]",65536,"[35.319984436035156, 35.18998336791992, 34.049983978271484, 41.08998107910156, 42.73998260498047, 46.199981689453125]",0.615816,7,"[253, 253, 253, 253, 253, 253]",1,"[0.3686111271381378, 1.18075430393219, -8.77474308013916]",1.0,1.0,0.00033057867149394464,47.82634735107422,47.82634735107422,0.6803395748138428,"[47.529998779296875, 47.60599899291992, 47.6510009765625, 47.63600158691406, 47.499000549316406, 47.63600158691406]",132,2
5,"[[36214. 36214. 36093. 36093. 36102. 36102. 37355. 37355.]
 [36214. 36214. 36093. 36093. 36102. 36102. 37355. 37355.]
 [28447. 28447. 35792. 35792. 35678. 35678. 36504. 36504.]
 [28447. 28447. 35792. 35792. 35678. 35678. 36504. 36504.]
 [36857. 36857. 35729. 35729. 35933. 35933. 36704. 36704.]
 [36857. 36857. 35729. 35729. 35933. 35933. 36704. 36704.]
 [37158. 37158. 36235. 36235. 36447. 36447. 36997. 36997.]
 [37158. 37158. 36235. 36235. 36447. 36447. 36997. 36997.]]",,1677763160.259704,['-X'],"[-0.3684689486035409, -0.05326457775956901, 0.1323655669627615, -0.1773916724238951, -3.1112195425942093, -0.054012741507142976]",-1,"[-0.36888, -0.0535, 0.13291015787889915, -0.17768931939222413, -3.11014200167075, -0.054409667424935776]",1677763160.1686323,1677763280.1686323,-1,starting,"('starting', (-0.36888, -0.0535), 0, 0, -0.005)",1,163395.35199999998,"[-0.13505642922876504, -1.8222899459425381, 2.2114225735400925, 4.295876464853809, -1.6008517936872195, -1.5925725313315624]","[-6.10418856425016e-05, 0.0004290865100261176, -0.0004837149476046677, 0.0008414367999735871, 0.00010404935066049393, -0.00034991299653152545]",0,"[-0.005838532949691873, 0.041040598191873494, -0.046265669252921374, 0.08048081894108781, 0.009951874300639221, -0.03346827849702453]","[-0.005658570779502659, -0.5422756788629921, -1.4392285352238692, -0.1598095074341302, 0.001075277478988276, -0.007466703027604284]","[-0.02761311980891878, -6.354927186643579, -16.081833375771566, -1.4740119000009133, -0.008320315835768203, -0.007090059579126173]","[-0.13506824174989873, -1.8223064581500452, 2.2114148139953613, 4.295820236206055, -1.6008647123919886, -1.5926054159747522]","[0.0, 0.0, -0.0, 0.0, 0.0, 0.0]","[-0.12105777114629745, -0.3183371126651764, -1.3092173337936401, -0.15707923471927643, 0.07015189528465271, -0.08235222101211548]","[-0.11657414585351944, -0.3160952925682068, -1.3002501726150513, -0.14182883501052856, 0.07015189528465271, -0.08540230989456177]","[-0.3685448454779528, -0.05327434922245396, 0.132407316470494, -0.17720910320930927, -3.1108336077352905, -0.054036368574855075]","[0.0, 0.0, 0.0, 0.0, 0.0, 0.0]","[3.8658075681659843, -5.346308246243456, 6.3513968183745115, 1.684543100515558, 0.15955946455075393, -0.7273982289539729]","[-0.368530231859764, -0.05328350340654177, 0.13239204069275298, -0.17724426674753066, -3.110910704828101, -0.054006893144059355]","[-1.8266877850890644e-05, 8.271414031841632e-07, -1.4866043554478154e-05, -0.00020145160304456216, -0.0007781479120712756, 0.0002903513927720688]",65536,"[35.319984436035156, 35.18998336791992, 34.049983978271484, 41.08998107910156, 42.73998260498047, 46.199981689453125]",0.45082900000000004,7,"[253, 253, 253, 253, 253, 253]",1,"[0.4195573627948761, 1.18075430393219, -8.867644309997559]",1.0,1.0,0.0014664058670873549,47.82634735107422,47.76557922363281,0.6087239384651184,"[47.529998779296875, 47.60599899291992, 47.6510009765625, 47.63600158691406, 47.499000549316406, 47.63600158691406]",132,2
6,"[[36213. 36213. 36091. 36091. 36101. 36101. 37356. 37356.]
 [36213. 36213. 36091. 36091. 36101. 36101. 37356. 37356.]
 [28447. 28447. 35791. 35791. 35677. 35677. 36503. 36503.]
 [28447. 28447. 35791. 35791. 35677. 35677. 36503. 36503.]
 [36858. 36858. 35732. 35732. 35931. 35931. 36704. 36704.]
 [36858. 36858. 35732. 35732. 35931. 35931. 36704. 36704.]
 [37159. 37159. 36232. 36232. 36448. 36448. 37000. 37000.]
 [37159. 37159. 36232. 36232. 36448. 36448. 37000. 37000.]]",,1677763160.2768211,['-X'],"[-0.3684689486035409, -0.05326457775956901, 0.1323655669627615, -0.1773916724238951, -3.1112195425942093, -0.054012741507142976]",-1,"[-0.36888, -0.0535, 0.13291015787889915, -0.17768931939222413, -3.11014200167075, -0.054409667424935776]",1677763160.1686323,1677763280.1686323,-1,starting,"('starting', (-0.36888, -0.0535), 0, 0, -0.005)",1,163395.368,"[-0.13505798783587153, -1.8222789817707925, 2.211410214304852, 4.295897960540749, -1.6008491352449887, -1.592581467784001]","[-0.00017407123804285627, 0.001224545530747121, -0.001380352236279647, 0.0024007541789723284, 0.0002969102331815154, -0.0009980633989843688]",0,"[-0.015559011347029732, 0.10945758922966042, -0.12338416730190219, 0.2145920488968808, 0.026539575520030195, -0.08921089228045542]","[-0.01567864157002921, -0.493777782049557, -1.496468289428493, -0.12488862652712578, 0.005308392037642972, -0.021136279761512507]","[-0.07361565922466921, -6.160082631485541, -16.255669977382425, -1.446351314567934, -0.004897430267154317, -0.01889880716247981]","[-0.13505584398378545, -1.822294060383932, 2.2114391326904297, 4.2957963943481445, -1.6008284727679651, -1.592581574116842]","[0.0, 0.0, -0.0, 0.0, 0.0, 0.0]","[-0.12329958379268646, -0.3228207230567932, -1.3921643495559692, -0.11437808722257614, 0.05947660654783249, -0.10217776149511337]","[-0.11657414585351944, -0.3183371126651764, -1.4011316299438477, -0.12200329452753067, 0.06557676941156387, -0.09607759118080139]","[-0.3685421157609226, -0.05328733284196158, 0.1323937405295995, -0.17722632892351023, -3.110843010574046, -0.053977983477276656]","[0.0, 0.0, 0.0, 0.0, 0.0, 0.0]","[2.583325018159252, -5.419322733172017, 4.73167526715561, 1.6042017627093763, 0.12930533103831537, -0.7836632495649307]","[-0.3685306993278296, -0.05328348253342133, 0.1323916609766321, -0.17723341171441903, -3.1109314720043515, -0.054000843513466915]","[-5.221027807507934e-05, 2.3302807154882433e-06, -4.2406332687813435e-05, -0.0005748516117410432, -0.0022202149476019998, 0.0008282123566654698]",65536,"[35.319984436035156, 35.18998336791992, 34.049983978271484, 41.08998107910156, 42.73998260498047, 46.199981689453125]",0.37307999999999997,7,"[253, 253, 253, 253, 253, 253]",1,"[0.359620600938797, 1.1507859230041504, -8.822691917419434]",1.0,1.0,0.004393917572003171,47.82634735107422,47.82634735107422,0.7877604365348816,"[47.529998779296875, 47.60599899291992, 47.6510009765625, 47.63600158691406, 47.499000549316406, 47.63600158691406]",132,2
7,"[[36212. 36212. 36095. 36095. 36102. 36102. 37356. 37356.]
 [36212. 36212. 36095. 36095. 36102. 36102. 37356. 37356.]
 [28449. 28449. 35789. 35789. 35674. 35674. 36507. 36507.]
 [28449. 28449. 35789. 35789. 35674. 35674. 36507. 36507.]
 [36857. 36857. 35730. 35730. 35933. 35933. 36702. 36702.]
 [36857. 36857. 35730. 35730. 35933. 35933. 36702. 36702.]
 [37160. 37160. 36234. 36234. 36451. 36451. 36999. 36999.]
 [37160. 37160. 36234. 36234. 36451. 36451. 36999. 36999.]]",,1677763160.2915502,['-X'],"[-0.3684689486035409, -0.05326457775956901, 0.1323655669627615, -0.1773916724238951, -3.1112195425942093, -0.054012741507142976]",-1,"[-0.36888, -0.0535, 0.13291015787889915, -0.17768931939222413, -3.11014200167075, -0.054409667424935776]",1677763160.1686323,1677763280.1686323,-1,starting,"('starting', (-0.36888, -0.0535), 0, 0, -0.005)",1,163395.384,"[-0.1350616309712489, -1.822253346721027, 2.2113813096795027, 4.295948226801152, -1.6008429209316208, -1.5926023580089765]","[-0.00038301212152754347, 0.0026951083995786665, -0.0030388873264069935, 0.005284716601552237, 0.0006533279255454547, -0.002196250811602801]",0,"[-0.03231199775208472, 0.22737209761045535, -0.25638097559197975, 0.4458499114398562, 0.05511682909849082, -0.1852833588973795]","[-0.03368854115246305, -0.4062467893321401, -1.600482771533912, -0.06068024859763904, 0.013080759902930181, -0.04622465247536173]","[-0.1529049370986215, -5.824536281238746, -16.555480457099648, -1.3986543720054498, 0.0009999367289042233, -0.0392511988245774]","[-0.1350801626788538, -1.822294060383932, 2.2114391326904297, 4.295952320098877, -1.6008766333209437, -1.5926178137408655]","[0.0, 0.0, -0.0007030745618976653, 0.011385014280676842, 0.0, 0.0]","[-0.13675044476985931, -0.21745562553405762, -1.40337336063385, -0.1525041162967682, 0.0732019767165184, -0.10522784292697906]","[-0.12105777114629745, -0.20400476455688477, -1.405615210533142, -0.16012932360172272, 0.06557676941156387, -0.10217776149511337]","[-0.36850799821357316, -0.05327235862546798, 0.13237836343597206, -0.1772145287075233, -3.111003194807594, -0.054037528859063814]","[0.0022226922122192817, -0.00030154364025802475, -0.0008221063149951676, -0.0014478592607140787, -0.010583323978559265, -2.848007065392905e-05]","[1.7382402052178563, -4.979397429672487, 10.25415330485688, 1.3226173331819542, -1.5585756053472313, -0.6335454160607117]","[-0.368531793267324, -0.0532834336646153, 0.13239077618497708, -0.1772080360315382, -3.1109800265134133, -0.05398669939468261]","[-0.0001150065279203049, 5.13734981427415e-06, -9.29965147355169e-05, -0.0012651831432997187, -0.004886476450022106, 0.001822494729728774]",65536,"[35.319984436035156, 35.18998336791992, 34.049983978271484, 41.08998107910156, 42.73998260498047, 46.199981689453125]",0.37542000000000003,7,"[253, 253, 253, 253, 253, 253]",1,"[0.4405352473258972, 1.1567796468734741, -8.81669807434082]",1.0,1.0,0.009947400580933121,47.82634735107422,47.82634735107422,0.7161448001861572,"[47.529998779296875, 47.60599899291992, 47.6510009765625, 47.6510009765625, 47.499000549316406, 47.63600158691406]",132,2
8,"[[36213. 36213. 36093. 36093. 36097. 36097. 37355. 37355.]
 [36213. 36213. 36093. 36093. 36097. 36097. 37355. 37355.]
 [28448. 28448. 35792. 35792. 35674. 35674. 36507. 36507.]
 [28448. 28448. 35792. 35792. 35674. 35674. 36507. 36507.]
 [36857. 36857. 35732. 35732. 35931. 35931. 36702. 36702.]
 [36857. 36857. 35732. 35732. 35931. 35931. 36702. 36702.]
 [37156. 37156. 36235. 36235. 36447. 36447. 36997. 36997.]
 [37156. 37156. 36235. 36235. 36447. 36447. 36997. 36997.]]",,1677763160.305514,['-X'],"[-0.3684689486035409, -0.05326457775956901, 0.1323655669627615, -0.1773916724238951, -3.1112195425942093, -0.054012741507142976]",-1,"[-0.36888, -0.0535, 0.13291015787889915, -0.17768931939222413, -3.11014200167075, -0.054409667424935776]",1677763160.1686323,1677763280.1686323,-1,starting,"('starting', (-0.36888, -0.0535), 0, 0, -0.005)",1,163395.4,"[-0.1350688277378378, -1.822202709861183, 2.211324220627123, 4.296047511401662, -1.600830632368825, -1.5926436282217011]","[-0.000723077574829609, 0.005087590454912397, -0.005735813492063377, 0.009975287453015493, 0.001234740528260947, -0.004146541394689685]",0,"[-0.05782817376874666, 0.40687615855161574, -0.45871009093714105, 0.797758716421167, 0.09876164706848811, -0.3316228814461299]","[-0.062259721030524816, -0.26684406214503753, -1.7669909725380686, 0.04325639789104341, 0.02568756019786903, -0.08679621607382824]","[-0.27363435988084983, -5.314116686880146, -17.011536416823247, -1.3260598486292243, 0.010008515894247802, -0.07025237307809515]","[-0.13510448137392217, -1.8222225348102015, 2.211355209350586, 4.295964241027832, -1.6008527914630335, -1.5926654974566858]","[0.0, 0.0044357613660395145, -0.004141748417168856, 0.003403519978746772, 0.0, -0.0041465419344604015]","[-0.1345086395740509, -0.28246814012527466, -1.4616605043411255, -0.08692734688520432, 0.08235222101211548, -0.0930275097489357]","[-0.12554138898849487, -0.27574270963668823, -1.4616605043411255, -0.08997742831707001, 0.07777710258960724, -0.08692734688520432]","[-0.3685411468764974, -0.05326448905293498, 0.13239030938527208, -0.17717742146821885, -3.111004818176632, -0.05400196701903644]","[-0.0009621134724679025, 0.00012717247798550298, -1.0087208830179207e-05, -0.0004039265895640024, -0.0038129534185499642, 0.004144525068294042]","[-7.672556212932865, -4.191834823045752, 11.167914029777974, 1.0638270615012273, -4.0712606107436695, -0.2290613695687389]","[-0.36853395319509746, -0.05328334008476342, 0.13238902677769795, -0.17715790167798495, -3.1110759345233476, -0.05395873322968696]","[-0.00021697857729003538, 9.381167699456605e-06, -0.00017573835380929958, -0.0023901605568244994, -0.009223965837168467, 0.0034408741928524385]",65536,"[35.319984436035156, 35.18998336791992, 34.049983978271484, 41.08998107910156, 42.73998260498047, 46.199981689453125]",0.446436,7,"[253, 253, 253, 253, 253, 253]",1,"[0.527443528175354, 1.168766975402832, -8.990514755249023]",1.0,1.0,0.019125011886831772,47.82634735107422,47.82634735107422,0.6445291042327881,"[47.529998779296875, 47.60599899291992, 47.6510009765625, 47.6510009765625, 47.48400115966797, 47.63600158691406]",132,2
9,"[[36210. 36210. 36096. 36096. 36102. 36102. 37357. 37357.]
 [36210. 36210. 36096. 36096. 36102. 36102. 37357. 37357.]
 [28450. 28450. 35788. 35788. 35675. 35675. 36506. 36506.]
 [28450. 28450. 35788. 35788. 35675. 35675. 36506. 36506.]
 [36857. 36857. 35731. 35731. 35930. 35930. 36702. 36702.]
 [36857. 36857. 35731. 35731. 35930. 35930. 36702. 36702.]
 [37157. 37157. 36232. 36232. 36450. 36450. 36997. 36997.]
 [37157. 37157. 36232. 36232. 36450. 36450. 36997. 36997.]]",,1677763160.3204734,['-X'],"[-0.3684689486035409, -0.05326457775956901, 0.1323655669627615, -0.1773916724238951, -3.1112195425942093, -0.054012741507142976]",-1,"[-0.36888, -0.0535, 0.13291015787889915, -0.17768931939222413, -3.11014200167075, -0.054409667424935776]",1677763160.1686323,1677763280.1686323,-1,starting,"('starting', (-0.36888, -0.0535), 0, 0, -0.005)",1,163395.416,"[-0.13508156444438768, -1.8221132019020354, 2.21122331412046, 4.296223052196067, -1.6008089148313163, -1.5927166375709554]","[-0.0012335158576803843, 0.008667788396909978, -0.009771558331699294, 0.016999368477340848, 0.002103043417703577, -0.007070530415265363]",0,"[-0.09370146580990692, 0.6582876630633046, -0.7421072404797742, 1.291096803678093, 0.15971105166898392, -0.5370580761681281]","[-0.10409629936228584, -0.062318059975713457, -2.0126365946844857, 0.057555887884580166, 0.04441260647752996, -0.1472482603785134]","[-0.44305921066944853, -4.599835523864457, -17.650264265498496, -1.224273551947171, 0.02258734364417429, -0.11377262077645964]","[-0.1350920836078089, -1.822198216115133, 2.2112832069396973, 4.296191692352295, -1.6008408705340784, -1.5927255789386194]","[0.0, 0.005905826110392809, -0.0093317162245512, 0.01251153089106083, 0.0, -0.0038349521346390247]","[-0.14571768045425415, -0.14795950055122375, -1.3966479301452637, -0.23790642619132996, 0.10827792435884476, -0.12047825008630753]","[-0.14123407006263733, -0.13899224996566772, -1.4011316299438477, -0.2394314706325531, 0.09912768006324768, -0.1128530502319336]","[-0.3685186592931568, -0.05327472735845724, 0.13239197690288662, -0.17707082172236352, -3.111190912878769, -0.05396527789609767]","[-0.000937721679228995, 0.00012156100049483892, 0.0009525458663969695, -0.001143453497217508, -0.009139763569288082, 0.003817801332847019]","[-16.52892445312198, -4.025230005708028, 22.707785081321575, 0.6546452285556795, -8.700393278985567, -0.08021762205110095]","[-0.3685377590493297, -0.05328316974663206, 0.1323859294235017, -0.17706921305149248, -3.111245513768791, -0.05390928074994557]","[-0.0003683800265720483, 1.652666115902257e-05, -0.00029986151731500746, -0.004073422570845696, -0.015719837341662105, 0.005866334910481494]",65536,"[35.319984436035156, 35.18998336791992, 34.049983978271484, 41.08998107910156, 42.73998260498047, 46.199981689453125]",0.37110000000000004,7,"[253, 253, 253, 253, 253, 253]",1,"[1.0159281492233276, 1.2017321586608887, -9.610860824584961]",1.0,1.0,0.03300787649584179,47.82634735107422,47.82634735107422,0.7161448001861572,"[47.529998779296875, 47.60599899291992, 47.63600158691406, 47.6510009765625, 47.48400115966797, 47.63600158691406]",132,2
10,"[[36212. 36212. 36092. 36092. 36099. 36099. 37358. 37358.]
 [36212. 36212. 36092. 36092. 36099. 36099. 37358. 37358.]
 [28449. 28449. 35792. 35792. 35675. 35675. 36509. 36509.]
 [28449. 28449. 35792. 35792. 35675. 35675. 36509. 36509.]
 [36858. 36858. 35732. 35732. 35931. 35931. 36703. 36703.]
 [36858. 36858. 35732. 35732. 35931. 35931. 36703. 36703.]
 [37160. 37160. 36236. 36236. 36448. 36448. 36999. 36999.]
 [37160. 37160. 36236. 36236. 36448. 36448. 36999. 36999.]]",,1677763160.3363473,['-X'],"[-0.3684689486035409, -0.05326457775956901, 0.1323655669627615, -0.1773916724238951, -3.1112195425942093, -0.054012741507142976]",-1,"[-0.36888, -0.0535, 0.13291015787889915, -0.17768931939222413, -3.11014200167075, -0.054409667424935776]",1677763160.1686323,1677763280.1686323,-1,starting,"('starting', (-0.36888, -0.0535), 0, 0, -0.005)",1,163395.432,"[-0.13510240788458816, -1.8219665876904205, 2.21105803027093, 4.296510519229263, -1.6007733923804297, -1.5928361354383895]","[-0.001956261840662401, 0.01376182338715643, -0.01551422970264361, 0.0269821911375084, 0.003333836179894493, -0.011215682781033043]",0,"[-0.1412156029040708, 0.9936564466511508, -1.1201861889362381, 1.9480986746047497, 0.2406355570249099, -0.8096571125207498]","[-0.16203275947950785, 0.07688217137437844, -2.1020538082286793, 0.07608020255784563, 0.07082425146701286, -0.20977801497095233]","[-0.6682872466815236, -3.6481296676764807, -18.502381701085767, -1.0887305713117517, 0.03929191115787612, -0.1715211365575835]","[-0.13510448137392217, -1.8220308462726038, 2.2112112045288086, 4.296359062194824, -1.6007807890521448, -1.5928452650653284]","[0.0, 0.007529288996011019, -0.010763431899249554, 0.009563411585986614, 0.0, 0.003379551460966468]","[-0.2398737221956253, -0.5133746266365051, -1.1702251434326172, -0.16165436804294586, 0.1494540423154831, 0.05795156583189964]","[-0.2600500285625458, -0.5245836973190308, -1.1567742824554443, -0.1692795753479004, 0.14792899787425995, 0.10065271705389023]","[-0.368518151008841, -0.05328390329920739, 0.13234815653134283, -0.17691108490971783, -3.111461948511382, -0.053846710524774244]","[-0.0021726242160954026, 0.0002878391898862352, 0.0013324504258280532, -0.0009336246979796515, -0.006149661307254526, -0.003378823958871086]","[-42.270368578614864, -3.4234926599134017, 21.801502976913945, 0.8187495780352996, -13.768362827340336, 1.9680498913885032]","[-0.3685440010117351, -0.053282885066372826, 0.13238086865995113, -0.17692404093747313, -3.1115231982602958, -0.05382830289510504]","[-0.0005857789344108801, 2.6745041198087357e-05, -0.0004746103597467867, -0.006464922287585068, -0.024950188359578396, 0.009305061371528017]",65536,"[35.319984436035156, 35.18998336791992, 34.049983978271484, 41.08998107910156, 42.73998260498047, 46.199981689453125]",0.460356,7,"[253, 253, 253, 253, 253, 253]",1,"[0.791165292263031, 1.2167164087295532, -9.12237548828125]",1.0,1.0,0.0529071810955839,47.82634735107422,47.82634735107422,0.7877604365348816,"[47.529998779296875, 47.60599899291992, 47.63600158691406, 47.6510009765625, 47.48400115966797, 47.63600158691406]",132,2
11,"[[36213. 36213. 36091. 36091. 36100. 36100. 37357. 37357.]
 [36213. 36213. 36091. 36091. 36100. 36100. 37357. 37357.]
 [28447. 28447. 35789. 35789. 35672. 35672. 36506. 36506.]
 [28447. 28447. 35789. 35789. 35672. 35672. 36506. 36506.]
 [36858. 36858. 35731. 35731. 35932. 35932. 36704. 36704.]
 [36858. 36858. 35731. 35731. 35932. 35932. 36704. 36704.]
 [37159. 37159. 36234. 36234. 36446. 36446. 37002. 37002.]
 [37159. 37159. 36234. 36234. 36446. 36446. 37002. 37002.]]",,1677763160.3508408,['-X'],"[-0.3684689486035409, -0.05326457775956901, 0.1323655669627615, -0.1773916724238951, -3.1112195425942093, -0.054012741507142976]",-1,"[-0.36888, -0.0535, 0.13291015787889915, -0.17768931939222413, -3.11014200167075, -0.054409667424935776]",1677763160.1686323,1677763280.1686323,-1,starting,"('starting', (-0.36888, -0.0535), 0, 0, -0.005)",1,163395.448,"[-0.13513459905663794, -1.8217402767935704, 2.210802877376562, 4.296954343788904, -1.6007185106745796, -1.5930206761757333]","[-0.002939014691954575, 0.020660405125408184, -0.023293699420682212, 0.04051879264258778, 0.005010858296710733, -0.016848154751243304]",0,"[-0.20160553224706115, 1.4169539725872449, -1.5975982448388362, 2.7791032762567762, 0.34376735609187614, -1.15568667018664]","[-0.23895680367229644, 0.18734040749413527, -2.201944163206673, 0.0997230205661529, 0.10664322185807444, -0.21991467407344964]","[-0.9535918237768133, -2.4481585045581826, -19.57816743419355, -0.9172546523715335, 0.06058499862011377, -0.24482547995869247]","[-0.1350920836078089, -1.821803394948141, 2.211042881011963, 4.296670436859131, -1.6007569471942347, -1.592917267476217]","[0.0, 0.00942119862884283, -0.00942119862884283, 0.008580705150961876, 0.008628642186522484, 0.037462688982486725]","[-0.2622918486595154, -0.6164978742599487, -1.3831970691680908, -0.08540230989456177, -0.03202586621046066, 0.07015189528465271]","[-0.28246814012527466, -0.6299487352371216, -1.358537197113037, -0.08235222101211548, -0.04117611050605774, 0.06557676941156387]","[-0.3685216223705461, -0.05329341912104428, 0.13231325679727685, -0.1767913917166757, -3.1118391492259, -0.05377155522978875]","[-0.002237453972726638, -0.0016410548356724994, 6.909985712780087e-05, -0.010540962758903743, -0.005997180920668836, -0.037199773118861724]","[-47.069156476146276, -1.5189961107479286, 14.420577471109308, -1.4077987414792679, -13.33019296665996, 2.241678519696154]","[-0.36855361631463956, -0.053282452832005604, 0.1323730724753605, -0.1766998239899072, -3.1119518719012498, -0.053703080396466006]","[-0.0008771298522820707, 3.933087044709527e-05, -0.0007109295953477367, -0.009720413394960726, -0.03746306527345814, 0.013975920662511397]",65536,"[35.319984436035156, 35.18998336791992, 34.049983978271484, 41.08998107910156, 42.73998260498047, 46.199981689453125]",0.45966,7,"[253, 253, 253, 253, 253, 253]",1,"[1.1268112659454346, 1.450469732284546, -9.805655479431152]",1.0,1.0,0.08002000751311623,47.82634735107422,47.82634735107422,0.7161448001861572,"[47.529998779296875, 47.60599899291992, 47.63600158691406, 47.6510009765625, 47.48400115966797, 47.63600158691406]",132,2
12,"[[36215. 36215. 36092. 36092. 36101. 36101. 37354. 37354.]
 [36215. 36215. 36092. 36092. 36101. 36101. 37354. 37354.]
 [28450. 28450. 35789. 35789. 35675. 35675. 36506. 36506.]
 [28450. 28450. 35789. 35789. 35675. 35675. 36506. 36506.]
 [36856. 36856. 35730. 35730. 35931. 35931. 36703. 36703.]
 [36856. 36856. 35730. 35730. 35931. 35931. 36703. 36703.]
 [37157. 37157. 36233. 36233. 36448. 36448. 36994. 36994.]
 [37157. 37157. 36233. 36233. 36448. 36448. 36994. 36994.]]",,1677763160.3695533,['-X'],"[-0.3684689486035409, -0.05326457775956901, 0.1323655669627615, -0.1773916724238951, -3.1112195425942093, -0.054012741507142976]",-1,"[-0.36888, -0.0535, 0.13291015787889915, -0.17768931939222413, -3.11014200167075, -0.054409667424935776]",1677763160.1686323,1677763280.1686323,-1,starting,"('starting', (-0.36888, -0.0535), 0, 0, -0.005)",1,163395.46399999998,"[-0.13516451858499678, -1.8215299364104478, 2.210565851227326, 4.297366679499989, -1.600667451225, -1.593192203036594]","[-0.0019159511970959417, 0.013470743852238228, -0.015176001329145076, 0.026401191528513283, 0.003271226699423659, -0.01098451725967145]",0,"[0.01381138331866451, -0.09679231974609533, 0.11001567030710667, -0.19121082793077626, -0.02318382109269966, 0.07905866200462441]","[-0.09441783341225161, -0.1985827540132524, -1.857567197012737, 0.023056732378877585, 0.063117652328821, -0.18692758863298561]","[0.06525337531309752, -6.77636997926922, -15.729429459964615, -1.529557403619366, -0.015090166133461893, 0.01674811639650421]","[-0.13517648378481084, -1.8214920202838343, 2.2107434272766113, 4.297125339508057, -1.6006611029254358, -1.5930731932269495]","[-0.004729774314910173, 0.010763431899249554, -0.00942119862884283, 0.012942963279783726, -0.00453003728762269, 0.01569933444261551]","[0.107606902718544, -0.6299487352371216, -1.5087385177612305, -0.09912768006324768, -0.1464039534330368, -0.08692734688520432]","[0.06277069449424744, -0.638916015625, -1.4751113653182983, -0.10370279848575592, -0.15555420517921448, -0.0930275097489357]","[-0.3685526647086394, -0.05328046614413019, 0.13229414830238842, -0.17669342592893178, -3.1123107500705647, -0.05357752587253928]","[-0.001198647207911037, 0.002880887100727749, -0.0007549183307367519, 0.002211611607707805, -0.014205129564673015, -0.02054176310339213]","[-21.972387298636274, 5.817619438297146, 6.122290672283648, -3.5024989234494335, -6.3030884157584985, 0.7782593832830462]","[-0.3685625363479408, -0.05328206434453909, 0.1323658027630904, -0.1764913834010296, -3.1123502103064022, -0.053586465177670004]","[-0.0005708560283958964, 2.4494030273942742e-05, -0.00046625231313803683, -0.006345964023494795, -0.02441865837003773, 0.009111116804410641]",65536,"[35.319984436035156, 35.18998336791992, 34.049983978271484, 41.08998107910156, 42.73998260498047, 46.199981689453125]",0.6666599999999999,7,"[253, 253, 253, 253, 253, 253]",1,"[1.183751106262207, 1.7321726083755493, -9.655813217163086]",1.0,1.0,0.05246994962526062,47.82634735107422,47.82634735107422,0.6445291042327881,"[47.529998779296875, 47.63600158691406, 47.63600158691406, 47.6510009765625, 47.48400115966797, 47.63600158691406]",132,2
13,"[[36213. 36213. 36091. 36091. 36102. 36102. 37356. 37356.]
 [36213. 36213. 36091. 36091. 36102. 36102. 37356. 37356.]
 [28446. 28446. 35791. 35791. 35677. 35677. 36507. 36507.]
 [28446. 28446. 35791. 35791. 35677. 35677. 36507. 36507.]
 [36855. 36855. 35732. 35732. 35930. 35930. 36703. 36703.]
 [36855. 36855. 35732. 35732. 35930. 35930. 36703. 36703.]
 [37161. 37161. 36234. 36234. 36445. 36445. 36998. 36998.]
 [37161. 37161. 36234. 36234. 36445. 36445. 36998. 36998.]]",,1677763160.3814816,['-X'],"[-0.3684689486035409, -0.05326457775956901, 0.1323655669627615, -0.1773916724238951, -3.1112195425942093, -0.054012741507142976]",-1,"[-0.36888, -0.0535, 0.13291015787889915, -0.17768931939222413, -3.11014200167075, -0.054409667424935776]",1677763160.1686323,1677763280.1686323,-1,starting,"('starting', (-0.36888, -0.0535), 0, 0, -0.005)",1,163395.47999999998,"[-0.135265411260038, -1.820820519008401, 2.2097668063047635, 4.298756784607848, -1.600495118047327, -1.5937706629668362]","[-0.008734090464907947, 0.0614134195402124, -0.06917088096239764, 0.12033743327685313, 0.014919169810514612, -0.05007638684475436]",0,"[-0.5307334420262013, 3.731922626916656, -4.203040298263097, 7.312133164214716, 0.9066896569483778, -3.0429647269263422]","[-0.6818171384969537, 0.7948476020299631, -2.7493361788552106, 0.23009622854695297, 0.22051172881228084, -0.2757985553649249]","[-2.511523540734051, 4.1285025584703146, -25.44545290179559, 0.018125657369335357, 0.1767780023936662, -0.6446343277860934]","[-0.13522369066347295, -1.821216885243551, 2.2104554176330566, 4.297927379608154, -1.6005647818194788, -1.5933368841754358]","[-0.009114402346313, 0.05091537907719612, -0.045955508947372437, 0.09033709019422531, -0.0036911414936184883, -0.02991262637078762]","[-0.6209815144538879, 0.04259439930319786, -2.4054627418518066, -0.08082718402147293, -0.010675288736820221, -0.4026108682155609]","[-0.6187397241592407, 0.06052888557314873, -2.4054627418518066, -0.07015189528465271, -0.021350577473640442, -0.41328614950180054]","[-0.36850032628018137, -0.053292351793187934, 0.13224785146677523, -0.17638153100801157, -3.113118043123063, -0.05334931182075395]","[0.0003426370701520742, 0.004037714533253509, -0.005972563484151605, -0.008622097321632985, -0.09597697766457088, 0.020566146890353826]","[-33.352559250665855, -6.8921480152468915, 6.8641359537429665, -1.1829865020818868, -10.595174035457548, -1.5261493365438605]","[-0.36859253712366363, -0.053280797066912425, 0.13234127955192124, -0.17578820592238786, -3.1136932238666155, -0.053191874282693334]","[-0.0025919898830321962, 0.00010903757993624428, -0.0021159382637284258, -0.029010626053388694, -0.11129475478559385, 0.04151903598102165]",65536,"[35.319984436035156, 35.18998336791992, 34.049983978271484, 41.08998107910156, 42.73998260498047, 46.199981689453125]",0.378709,7,"[253, 253, 253, 253, 253, 253]",1,"[2.040846824645996, 1.9269670248031616, -10.31212043762207]",1.0,1.0,0.2403305980618166,47.82634735107422,47.82634735107422,0.7877604365348816,"[47.529998779296875, 47.63600158691406, 47.60599899291992, 47.6510009765625, 47.48400115966797, 47.63600158691406]",132,2
14,"[[36214. 36214. 36095. 36095. 36102. 36102. 37352. 37352.]
 [36214. 36214. 36095. 36095. 36102. 36102. 37352. 37352.]
 [28449. 28449. 35790. 35790. 35674. 35674. 36508. 36508.]
 [28449. 28449. 35790. 35790. 35674. 35674. 36508. 36508.]
 [36859. 36859. 35732. 35732. 35929. 35929. 36702. 36702.]
 [36859. 36859. 35732. 35732. 35929. 35929. 36702. 36702.]
 [37157. 37157. 36237. 36237. 36449. 36449. 36996. 36996.]
 [37157. 37157. 36237. 36237. 36449. 36449. 36996. 36996.]]",,1677763160.3964422,['-X'],"[-0.3684689486035409, -0.05326457775956901, 0.1323655669627615, -0.1773916724238951, -3.1112195425942093, -0.054012741507142976]",-1,"[-0.36888, -0.0535, 0.13291015787889915, -0.17768931939222413, -3.11014200167075, -0.054409667424935776]",1677763160.1686323,1677763280.1686323,-1,starting,"('starting', (-0.36888, -0.0535), 0, 0, -0.005)",1,163395.49599999998,"[-0.13534025468529975, -1.8202941030221194, 2.209174079108374, 4.299787937698594, -1.6003673052852454, -1.5941997811094772]","[-0.0043691387380041784, 0.030720621245360926, -0.03458399452006878, 0.06017178777437605, 0.007461140053244863, -0.02504837279444111]",0,"[0.12926531651204795, -0.9116965902134463, 1.0281473350264754, -1.7869279317995506, -0.22079913525541583, 0.7417191757750716]","[-0.17400162626620014, -0.39511214318832505, -1.6881490457322255, -0.008662374943064696, 0.1414641084678152, -0.17307664487817345]","[0.6125197245603586, -9.14831886446316, -13.660645253873135, -1.857759694162036, -0.055757058769761586, 0.15712888093999663]","[-0.13537961641420537, -1.8202946821795862, 2.2091007232666016, 4.299530982971191, -1.6003850142108362, -1.5939839521991175]","[-0.008257930167019367, 0.01884239725768566, -0.0322391651570797, 0.025909895077347755, -0.02334527112543583, -0.014381070621311665]","[-0.1591685563325882, -0.8541297912597656, -1.2083358764648438, -0.06557676941156387, 0.0366009883582592, 0.012200329452753067]","[-0.17486122250556946, -0.9124168753623962, -1.1433234214782715, -0.06862685084342957, 0.03965106979012489, 0.012200329452753067]","[-0.3686991357709781, -0.05325021096542807, 0.13238316555491242, -0.17565248856152713, -3.1143346393696687, -0.05295823334047008]","[-0.006676361289971277, 0.009115005364509841, 0.005756905760709369, 0.021710188413648933, -0.01605611550969173, 0.0055450782568601375]","[-27.345528966101604, 0.6023928415852824, 7.149689827210739, -1.2853350960325323, -7.1254236572246725, 1.4920190321704567]","[-0.3686147263357461, -0.053279857679045244, 0.13232313965991477, -0.1752663622543273, -3.114689373492826, -0.052898082574235374]","[-0.0012917645540173955, 5.446663007485258e-05, -0.0010583943006713735, -0.014536933775417833, -0.055658226692515446, 0.020761141395930358]",65536,"[35.319984436035156, 35.18998336791992, 34.049983978271484, 41.08998107910156, 42.73998260498047, 46.199981689453125]",0.618648,7,"[253, 253, 253, 253, 253, 253]",1,"[0.0958988294005394, 0.6023644804954529, -7.608972549438477]",1.0,1.0,0.12067651035773883,47.82634735107422,47.82634735107422,0.7161448001861572,"[47.529998779296875, 47.63600158691406, 47.60599899291992, 47.6510009765625, 47.48400115966797, 47.63600158691406]",132,2
15,"[[36212. 36212. 36091. 36091. 36099. 36099. 37354. 37354.]
 [36212. 36212. 36091. 36091. 36099. 36099. 37354. 37354.]
 [28450. 28450. 35792. 35792. 35675. 35675. 36504. 36504.]
 [28450. 28450. 35792. 35792. 35675. 35675. 36504. 36504.]
 [36856. 36856. 35730. 35730. 35931. 35931. 36704. 36704.]
 [36856. 36856. 35730. 35730. 35931. 35931. 36704. 36704.]
 [37156. 37156. 36235. 36235. 36449. 36449. 36996. 36996.]
 [37156. 37156. 36235. 36235. 36449. 36449. 36996. 36996.]]",,1677763160.4143922,['-X'],"[-0.3684689486035409, -0.05326457775956901, 0.1323655669627615, -0.1773916724238951, -3.1112195425942093, -0.054012741507142976]",-1,"[-0.36888, -0.0535, 0.13291015787889915, -0.17768931939222413, -3.11014200167075, -0.054409667424935776]",1677763160.1686323,1677763280.1686323,-1,starting,"('starting', (-0.36888, -0.0535), 0, 0, -0.005)",1,163395.512,"[-0.1354566207344856, -1.8194749226376716, 2.208251941510092, 4.301391880700694, -1.6001686297089117, -1.5948670728389924]","[-0.006553889727366687, 0.046230605163796575, -0.05205010539989864, 0.09048626984584478, 0.011187006223121597, -0.037599559097243954]",0,"[0.25419335474061394, -1.7661018403058735, 1.9857969182459616, -3.4661494157019623, -0.4346594159577882, 1.4534462561494408]","[-0.2364535271341385, -0.6016818773520562, -1.5098984883598905, -0.043290909100550376, 0.18688936206439014, -0.15763777109673083]","[1.1952979343677312, -11.620533421161621, -11.505194290443598, -2.2037844238154682, -0.09981040138157361, 0.3079041114132469]","[-0.1353676954852503, -1.8195403257953089, 2.2086806297302246, 4.301278591156006, -1.6003006140338343, -1.5945952574359339]","[-0.01324336789548397, 0.0907093957066536, -0.07828415185213089, 0.17257285118103027, 0.006807039957493544, -0.0668000727891922]","[-0.8541297912597656, -0.1322668194770813, -2.921079158782959, -0.13572867214679718, 0.22418105602264404, -0.12352833896875381]","[-0.8720642924308777, -0.107606902718544, -2.93228816986084, -0.1098029613494873, 0.22723113000392914, -0.12352833896875381]","[-0.36850554742118025, -0.0533002423740928, 0.1321323696941521, -0.1747499960663954, -3.1164732397684154, -0.05261231244466603]","[0.004256978596283208, 0.002612128767624456, -0.013497607423445768, -0.030634980305459202, -0.18469068493660104, 0.05341886547590094]","[50.369170939517325, -11.865746679446314, -25.97095387718194, 3.3979188971255554, 12.728315864880036, 0.6980045067008801]","[-0.3686491789492444, -0.053278389390450986, 0.13229506227008653, -0.17445452219268381, -3.1162386271434923, -0.05243940590459433]","[-0.0019488908441471352, 8.450892716956995e-05, -0.0015704288818105974, -0.021892805263447095, -0.08367352699590873, 0.031152972663647867]",65536,"[35.319984436035156, 35.18998336791992, 34.049983978271484, 41.08998107910156, 42.73998260498047, 46.199981689453125]",0.619548,7,"[253, 253, 253, 253, 253, 253]",1,"[1.3755488395690918, 2.277597188949585, -10.938460350036621]",1.0,1.0,0.1821762593041983,47.82634735107422,47.76557922363281,0.7519552707672119,"[47.529998779296875, 47.63600158691406, 47.60599899291992, 47.6510009765625, 47.48400115966797, 47.62099838256836]",132,2
16,"[[36214. 36214. 36091. 36091. 36099. 36099. 37357. 37357.]
 [36214. 36214. 36091. 36091. 36099. 36099. 37357. 37357.]
 [28448. 28448. 35788. 35788. 35675. 35675. 36503. 36503.]
 [28448. 28448. 35788. 35788. 35675. 35675. 36503. 36503.]
 [36857. 36857. 35731. 35731. 35931. 35931. 36702. 36702.]
 [36857. 36857. 35731. 35731. 35931. 35931. 36702. 36702.]
 [37154. 37154. 36235. 36235. 36448. 36448. 37000. 37000.]
 [37154. 37154. 36235. 36235. 36448. 36448. 37000. 37000.]]",,1677763160.4269416,['-X'],"[-0.3684689486035409, -0.05326457775956901, 0.1323655669627615, -0.1773916724238951, -3.1112195425942093, -0.054012741507142976]",-1,"[-0.36888, -0.0535, 0.13291015787889915, -0.17768931939222413, -3.11014200167075, -0.054409667424935776]",1677763160.1686323,1677763280.1686323,-1,starting,"('starting', (-0.36888, -0.0535), 0, 0, -0.005)",1,163395.52,"[-0.13554678807111387, -1.818837214605061, 2.2075337960208667, 4.302639470716946, -1.6000147685680304, -1.5953846631658593]","[-0.011704413889386952, 0.08277940807927711, -0.09322080869753528, 0.16194678095585077, 0.019972359633680648, -0.06718720589122942]",0,"[-0.6438155202525331, 4.568600364435067, -5.14633791220458, 8.93256388875075, 1.0981691763198813, -3.698455849248184]","[-0.7986231562154876, 1.0138827620202935, -2.952300872739221, 0.27972068121320354, 0.22623218132056913, -0.2964845166540247]","[-3.062307326209366, 6.445756090740533, -27.565232408275115, 0.3526135751232573, 0.21639788626197534, -0.783496298570259]","[-0.13546353975404912, -1.8191455046283167, 2.2081289291381836, 4.302032470703125, -1.6001327673541468, -1.59483510652651]","[-0.008372978307306767, 0.02551521360874176, -0.03470631688833237, 0.062437813729047775, 0.025070998817682266, -0.021595574915409088]","[-0.11657414585351944, -0.6949612498283386, -2.5220367908477783, -0.1662294864654541, 0.10675287991762161, -0.16470444202423096]","[-0.11209052801132202, -0.7241048216819763, -2.4816842079162598, -0.15860427916049957, 0.1098029613494873, -0.16012932360172272]","[-0.36856982269323607, -0.053294917027260025, 0.1321699637701966, -0.1745423294020357, -3.117078522315101, -0.0522913394998139]","[-0.0013566822752037343, -0.0024418390634333956, 0.0005252320155005147, -0.03169377801526714, -0.050108611762961476, 0.013655351416542364]","[-64.75123856470509, 15.720768277701822, -0.6137486976822774, -5.122507432178527, -18.187674817299566, 0.6815881575614186]","[-0.3686761755493717, -0.053277190838222264, 0.13227360585204934, -0.17382447138715948, -3.1174428800013705, -0.05208211764060317]","[-0.0034982515587195983, 0.00015494721197185484, -0.002776199704650095, -0.03922193882223806, -0.14970648918028176, 0.055652692202726]",65536,"[35.319984436035156, 35.18998336791992, 34.049983978271484, 41.08998107910156, 42.73998260498047, 46.199981689453125]",0.373729,7,"[253, 253, 253, 253, 253, 253]",1,"[3.257563352584839, 1.096842885017395, -12.445869445800781]",1.0,1.0,0.32664801834728624,47.82634735107422,47.82634735107422,0.5729187726974487,"[47.529998779296875, 47.63600158691406, 47.60599899291992, 47.62099838256836, 47.48400115966797, 47.62099838256836]",132,2
17,"[[36211. 36211. 36092. 36092. 36102. 36102. 37356. 37356.]
 [36211. 36211. 36092. 36092. 36102. 36102. 37356. 37356.]
 [28448. 28448. 35787. 35787. 35674. 35674. 36507. 36507.]
 [28448. 28448. 35787. 35787. 35674. 35674. 36507. 36507.]
 [36859. 36859. 35731. 35731. 35933. 35933. 36705. 36705.]
 [36859. 36859. 35731. 35731. 35933. 35933. 36705. 36705.]
 [37156. 37156. 36236. 36236. 36446. 36446. 36998. 36998.]
 [37156. 37156. 36236. 36236. 36446. 36446. 36998. 36998.]]",,1677763160.442702,['-X'],"[-0.3684689486035409, -0.05326457775956901, 0.1323655669627615, -0.1773916724238951, -3.1112195425942093, -0.054012741507142976]",-1,"[-0.36888, -0.0535, 0.13291015787889915, -0.17768931939222413, -3.11014200167075, -0.054409667424935776]",1677763160.1686323,1677763280.1686323,-1,starting,"('starting', (-0.36888, -0.0535), 0, 0, -0.005)",1,163395.536,"[-0.13573348558178466, -1.8175209794011256, 2.2060534706350055, 4.305213791408821, -1.5996959091578047, -1.5964555733849348]","[-0.015192321394232712, 0.10703882110058617, -0.12035119029472861, 0.2093370220688132, 0.02595144175518124, -0.08713121404973438]",0,"[-0.7753145421053851, 5.44890796058444, -6.120256789078312, 10.654144852574442, 1.325299982829771, -4.444001465483333]","[-0.8553564175938101, 1.2489533611635304, -3.1629173816166105, 0.3333580839826899, 0.2330099680110557, -0.3201424785479518]","[-3.670365972069735, 8.921680606262573, -29.746203249925934, 0.7093241247877327, 0.26334889966319924, -0.9414357886020959]","[-0.13565522829164678, -1.8179367224322718, 2.20640230178833, 4.304306507110596, -1.5998929182635706, -1.595865551625387]","[-0.007529288996011019, 0.04237622022628784, -0.05655276030302048, 0.08441688120365143, 0.021595574915409088, -0.037342846393585205]","[-0.01569267362356186, -0.7958427667617798, -1.3473281860351562, 0.035075947642326355, -0.022875618189573288, -0.32788383960723877]","[-0.013450862839818, -0.8361953496932983, -1.2935247421264648, 0.06405173242092133, -0.030500823631882668, -0.3294088840484619]","[-0.36877390132068905, -0.053252816624461345, 0.1323078685307238, -0.17328912182145786, -3.1189119099217377, -0.05174347434701385]","[-0.005110281157924326, -0.0014682947040613081, 0.002439491759615138, -0.03036280499105163, -0.06793445293225411, 0.030114710448377442]","[-112.63972051366146, 9.611130376960654, 25.07536432485252, -5.394132884708471, -29.71683752981877, -0.999753306666536]","[-0.36873111886930854, -0.053274888338690596, 0.13222892741666795, -0.17252011409194595, -3.119928857887707, -0.05133821193220849]","[-0.004443950088901815, 0.00018323976501171288, -0.0036228578565122545, -0.05109417194935291, -0.1936234063957178, 0.0721035901909599]",65536,"[35.319984436035156, 35.18998336791992, 34.049983978271484, 41.08998107910156, 42.73998260498047, 46.199981689453125]",0.44908800000000004,7,"[253, 253, 253, 253, 253, 253]",1,"[0.12886404991149902, 2.2596161365509033, -7.74383020401001]",1.0,1.0,0.423371501189155,47.82634735107422,47.82634735107422,0.7877604365348816,"[47.560001373291016, 47.62099838256836, 47.60599899291992, 47.62099838256836, 47.46900177001953, 47.62099838256836]",132,2
18,"[[36211. 36211. 36092. 36092. 36101. 36101. 37355. 37355.]
 [36211. 36211. 36092. 36092. 36101. 36101. 37355. 37355.]
 [28449. 28449. 35792. 35792. 35681. 35681. 36505. 36505.]
 [28449. 28449. 35792. 35792. 35681. 35681. 36505. 36505.]
 [36860. 36860. 35730. 35730. 35931. 35931. 36704. 36704.]
 [36860. 36860. 35730. 35730. 35931. 35931. 36704. 36704.]
 [37155. 37155. 36233. 36233. 36446. 36446. 37001. 37001.]
 [37155. 37155. 36233. 36233. 36446. 36446. 37001. 37001.]]",,1677763160.4582903,['-X'],"[-0.3684689486035409, -0.05326457775956901, 0.1323655669627615, -0.1773916724238951, -3.1112195425942093, -0.054012741507142976]",-1,"[-0.36888, -0.0535, 0.13291015787889915, -0.17768931939222413, -3.11014200167075, -0.054409667424935776]",1677763160.1686323,1677763280.1686323,-1,starting,"('starting', (-0.36888, -0.0535), 0, 0, -0.005)",1,163395.552,"[-0.13597384142312308, -1.8158265804345666, 2.2041489117821182, 4.308526284134008, -1.5992851124100866, -1.5978342754184673]","[-0.019183854237295, 0.13525406266482484, -0.15201990736991505, 0.26439503762934147, 0.03279138023173511, -0.11004393169347655]",0,"[-0.9135688566950718, 6.44440751827845, -7.241218953040659, 12.593074720822814, 1.5623708446377005, -5.241229382445847]","[-0.9175157644455032, 1.5142040660520764, -3.406180724301369, 0.39400196766475837, 0.24020400284940913, -0.34582871283332334]","[-4.3351646467532365, 11.70833630748304, -32.25989255521917, 1.109503397102926, 0.3123443413885513, -1.110323872580165]","[-0.1358712355243128, -1.816296402608053, 2.204627513885498, 4.307502269744873, -1.5996053854571741, -1.5971601645099085]","[-0.008372978307306767, 0.05997864902019501, -0.0696810781955719, 0.12288624793291092, 0.014381070621311665, -0.05074121057987213]","[-0.23314829170703888, -0.8877570033073425, -1.9862442016601562, 0.0, -0.04727627709507942, -0.3217836916446686]","[-0.215213805437088, -0.9370768070220947, -1.9055389165878296, -0.03812602907419205, -0.045751236379146576, -0.3095833659172058]","[-0.36881488183586014, -0.05323500729581965, 0.1322223110811077, -0.17170261777147738, -3.1220697159455937, -0.05097584937474874]","[-0.002061230301890931, 2.9750842248784667e-05, -0.0015229599387591814, -0.029019400592978577, -0.1118703707561842, 0.04241653543037653]","[-115.17941674668155, 4.718845927621509, 12.920547075295467, -4.471687251033628, -29.969671011481356, -0.7206764638921106]","[-0.3688011952824983, -0.053272060841553094, 0.1321719316560421, -0.17083923108252902, -3.123126728636238, -0.050371423359942935]","[-0.005568597785173412, 0.00022227661507901505, -0.0045127475550887615, -0.06494527597027523, -0.24448679056229122, 0.090974114070807]",65536,"[35.319984436035156, 35.18998336791992, 34.049983978271484, 41.08998107910156, 42.73998260498047, 46.199981689453125]",0.446808,7,"[253, 253, 253, 253, 253, 253]",1,"[2.4334328174591064, 1.9299639463424683, -11.232150077819824]",1.0,1.0,0.5360677740331987,47.82634735107422,47.82634735107422,0.7877604365348816,"[47.560001373291016, 47.62099838256836, 47.57500076293945, 47.62099838256836, 47.46900177001953, 47.62099838256836]",132,2
19,"[[36210. 36210. 36092. 36092. 36102. 36102. 37354. 37354.]
 [36210. 36210. 36092. 36092. 36102. 36102. 37354. 37354.]
 [28447. 28447. 35791. 35791. 35677. 35677. 36504. 36504.]
 [28447. 28447. 35791. 35791. 35677. 35677. 36504. 36504.]
 [36859. 36859. 35732. 35732. 35932. 35932. 36705. 36705.]
 [36859. 36859. 35732. 35732. 35932. 35932. 36705. 36705.]
 [37160. 37160. 36234. 36234. 36449. 36449. 36997. 36997.]
 [37160. 37160. 36234. 36234. 36449. 36449. 36997. 36997.]]",,1677763160.4726365,['-X'],"[-0.3684689486035409, -0.05326457775956901, 0.1323655669627615, -0.1773916724238951, -3.1112195425942093, -0.054012741507142976]",-1,"[-0.36888, -0.0535, 0.13291015787889915, -0.17768931939222413, -3.11014200167075, -0.054409667424935776]",1677763160.1686323,1677763280.1686323,-1,starting,"('starting', (-0.36888, -0.0535), 0, 0, -0.005)",1,163395.568,"[-0.13627666552565287, -1.8136807882463062, 2.2017361849932886, 4.312717003155016, -1.5987676395358257, -1.5995733403460832]","[-0.023744477594437013, 0.16845107945192297, -0.1894236756563567, 0.32891239704363484, 0.04057232006237149, -0.1363970067774082]",0,"[-1.0547610095061455, 7.523801415895259, -8.464116317587001, 14.676046673422492, 1.8017008510805683, -6.06648367887211]","[-0.98339565710898, 1.8025743000139722, -3.6737169241037613, 0.46032742875927346, 0.24764158780998832, -0.37305668139812465]","[-5.037053587281615, 14.717008947063766, -35.00039969868244, 1.538526144642131, 0.36179303490692266, -1.2851491815697578]","[-0.13617116609682256, -1.8142369429217737, 2.202181339263916, 4.311296463012695, -1.5991976896869105, -1.5988982359515589]","[-0.008372978307306767, 0.07539515942335129, -0.09509402513504028, 0.16984044015407562, 0.014381070621311665, -0.07597998529672623]","[-0.08294699341058731, -1.1904014348983765, -1.2038522958755493, 0.013725370168685913, -0.010675288736820221, -0.315683513879776]","[-0.0807051807641983, -1.2666230201721191, -1.1433234214782715, -0.016775453463196754, -0.015250411815941334, -0.3431342542171478]","[-0.3689960187732148, -0.05319507624067338, 0.132237667506505, -0.16956167586531318, -3.1256034352555, -0.04997732496355869]","[-0.0017118069186781968, -3.1645410588363025e-05, 0.00011216258391737166, -0.03403650117067637, -0.14924824157353397, 0.06752395775833882]","[-161.2858553582139, 5.197222351104662, 32.407330125143865, -4.758376456290463, -42.59201454669086, -0.8082922470598118]","[-0.36889004958973226, -0.05326838067969247, 0.1321019616287228, -0.16871621304980813, -3.127167889991617, -0.049137835162448865]","[-0.00695348147962487, 0.00028846839857409165, -0.0054156485868481685, -0.08117833077686791, -0.3038774562458593, 0.11264232152462773]",65536,"[35.319984436035156, 35.18998336791992, 34.049983978271484, 41.08998107910156, 42.73998260498047, 46.199981689453125]",0.37354899999999996,7,"[253, 253, 253, 253, 253, 253]",1,"[1.822077751159668, 0.5783898234367371, -10.042405128479004]",1.0,1.0,0.668758902982222,47.82634735107422,47.82634735107422,0.6087239384651184,"[47.560001373291016, 47.62099838256836, 47.57500076293945, 47.62099838256836, 47.46900177001953, 47.62099838256836]",132,2
20,"[[36214. 36214. 36090. 36090. 36098. 36098. 37356. 37356.]
 [36214. 36214. 36090. 36090. 36098. 36098. 37356. 37356.]
 [28448. 28448. 35790. 35790. 35675. 35675. 36504. 36504.]
 [28448. 28448. 35790. 35790. 35675. 35675. 36504. 36504.]
 [36855. 36855. 35730. 35730. 35930. 35930. 36706. 36706.]
 [36855. 36855. 35730. 35730. 35930. 35930. 36706. 36706.]
 [37158. 37158. 36235. 36235. 36449. 36449. 37000. 37000.]
 [37158. 37158. 36235. 36235. 36449. 36449. 37000. 37000.]]",,1677763160.4885933,['-X'],"[-0.3684689486035409, -0.05326457775956901, 0.1323655669627615, -0.1773916724238951, -3.1112195425942093, -0.054012741507142976]",-1,"[-0.36888, -0.0535, 0.13291015787889915, -0.17768931939222413, -3.11014200167075, -0.054409667424935776]",1677763160.1686323,1677763280.1686323,-1,starting,"('starting', (-0.36888, -0.0535), 0, 0, -0.005)",1,163395.584,"[-0.13665195568362876, -1.8110101350698438, 2.1987346492923248, 4.3179253294240585, -1.5981267994911086, -1.601730421610558]","[-0.02894404902280553, 0.2061326026066408, -0.23164012413734375, 0.40187888642396064, 0.049416263687422364, -0.16638854995122432]",0,"[-1.1975418065861314, 8.561989678042455, -9.614923307672194, 16.667053463819435, 2.0428602521563795, -6.889404853515895]","[-1.048867108976303, 2.083321402919809, -3.9294066351632835, 0.5265986531338657, 0.25533998590966356, -0.4011089913086145]","[-5.729197743988506, 17.6021096527624, -37.56325821036642, 1.9503348865834724, 0.4116304189116597, -1.4594802323188318]","[-0.13645822206606084, -1.811758820210592, 2.19930362701416, 4.316263675689697, -1.5987065474139612, -1.601055924092428]","[-0.00942119862884283, 0.10512881726026535, -0.11876846849918365, 0.21952703595161438, 0.01176850963383913, -0.10078733414411545]","[-0.215213805437088, -1.0581345558166504, -1.499771237373352, -0.0930275097489357, 0.17232964932918549, -0.2501067519187927]","[-0.20176294445991516, -1.147807002067566, -1.4145824909210205, -0.1128530502319336, 0.17080461978912354, -0.24400658905506134]","[-0.36909676272424435, -0.053189795866143585, 0.13218819378164806, -0.16677756078460945, -3.1303294537193516, -0.048703290904045536]","[-0.0006735027868988855, 0.000771457402649278, -0.004365947764921198, -0.039328209261122904, -0.205510747660186, 0.09112535865179341]","[-164.22613162821634, 4.673103166976749, 34.353988053483974, -3.260939300012615, -45.29774529481345, -0.007023467701881447]","[-0.36900014820546645, -0.0532636806894542, 0.13201720199076927, -0.1660787242709849, -3.1321860193913476, -0.04758630551205734]","[-0.008449280161194212, 0.0003604095186046659, -0.006450443403975603, -0.09997942922025746, -0.37116523305193205, 0.13720092503624848]",65536,"[35.319984436035156, 35.18998336791992, 34.049983978271484, 41.08998107910156, 42.73998260498047, 46.199981689453125]",0.39951600000000004,7,"[253, 253, 253, 253, 253, 253]",1,"[3.0028319358825684, 1.9239702224731445, -10.848554611206055]",1.0,1.0,0.8193718049003905,47.82634735107422,47.82634735107422,0.6803395748138428,"[47.560001373291016, 47.62099838256836, 47.57500076293945, 47.62099838256836, 47.46900177001953, 47.62099838256836]",132,2
21,"[[36213. 36213. 36092. 36092. 36101. 36101. 37354. 37354.]
 [36213. 36213. 36092. 36092. 36101. 36101. 37354. 37354.]
 [28449. 28449. 35786. 35786. 35674. 35674. 36505. 36505.]
 [28449. 28449. 35786. 35786. 35674. 35674. 36505. 36505.]
 [36857. 36857. 35730. 35730. 35932. 35932. 36702. 36702.]
 [36857. 36857. 35730. 35730. 35932. 35932. 36702. 36702.]
 [37162. 37162. 36234. 36234. 36447. 36447. 36999. 36999.]
 [37162. 37162. 36234. 36234. 36447. 36447. 36999. 36999.]]",,1677763160.503555,['-X'],"[-0.3684689486035409, -0.05326457775956901, 0.1323655669627615, -0.1773916724238951, -3.1112195425942093, -0.054012741507142976]",-1,"[-0.36888, -0.0535, 0.13291015787889915, -0.17768931939222413, -3.11014200167075, -0.054409667424935776]",1677763160.1686323,1677763280.1686323,-1,starting,"('starting', (-0.36888, -0.0535), 0, 0, -0.005)",1,163395.6,"[-0.13710998003774755, -1.8077303133600662, 2.1950508447505026, 4.3243084124305, -1.5973454213437845, -1.6043664094440793]","[-0.03475880542143368, 0.24926501404193135, -0.2799296035959432, 0.4848826598717937, 0.059285272469729075, -0.20010190764573962]",0,"[-1.3319507612234183, 9.628893504305989, -10.80541956601284, 18.6822057099727, 2.269177552088087, -7.680701585778656]","[-1.1141292703941446, 2.373325977048938, -4.197292936606739, 0.5957477006334078, 0.26288198204305036, -0.42927229248790666]","[-6.4139575577512815, 20.547367630191452, -40.20919736977018, 2.3660832583872233, 0.4584057479669819, -1.6271118294148583]","[-0.13685399690736944, -1.8084667364703577, 2.1956701278686523, 4.322667598724365, -1.598022762929098, -1.6036933104144495]","[-0.017487380653619766, 0.14024420082569122, -0.1545613557100296, 0.28551217913627625, 0.026341326534748077, -0.11821240186691284]","[-0.3497224450111389, -1.4616605043411255, -1.100728988647461, -0.16012932360172272, 0.32025864720344543, -0.35685962438583374]","[-0.33627158403396606, -1.549091100692749, -1.004331111907959, -0.17537973821163177, 0.32025864720344543, -0.355334609746933]","[-0.3692034595666998, -0.05318820306890693, 0.13205732097161207, -0.16345121172651556, -3.1365696912737464, -0.046929455964501314]","[-0.0015617442717600178, 0.0005120320346997804, -0.006791351447325846, -0.06341343771408327, -0.26856311668629573, 0.10036472243845725]","[-205.35417773411848, -6.379039914369551, 45.25636018742725, 0.10940603466525067, -56.95084102961297, -1.0303189734997589]","[-0.3691349186107484, -0.053257670491003266, 0.1319166550552981, 0.16271555946201552, 3.1357514767190393, 0.045620333965045154]","[-0.01018387344823959, 0.0004554952051812922, -0.007497452597794694, -0.12168012638875415, -0.4475870534834524, 0.1647035542516066]",65536,"[35.319984436035156, 35.18998336791992, 34.049983978271484, 41.08998107910156, 42.73998260498047, 46.199981689453125]",0.4497,7,"[253, 253, 253, 253, 253, 253]",1,"[3.8539340496063232, 1.9479448795318604, -11.624735832214355]",1.0,1.0,0.9916829309300711,47.88711929321289,47.82634735107422,0.6087239384651184,"[47.529998779296875, 47.62099838256836, 47.57500076293945, 47.57500076293945, 47.46900177001953, 47.62099838256836]",132,2
22,"[[36208. 36208. 36094. 36094. 36104. 36104. 37354. 37354.]
 [36208. 36208. 36094. 36094. 36104. 36104. 37354. 37354.]
 [28448. 28448. 35788. 35788. 35672. 35672. 36506. 36506.]
 [28448. 28448. 35788. 35788. 35672. 35672. 36506. 36506.]
 [36857. 36857. 35730. 35730. 35933. 35933. 36702. 36702.]
 [36857. 36857. 35730. 35730. 35933. 35933. 36702. 36702.]
 [37157. 37157. 36235. 36235. 36449. 36449. 36997. 36997.]
 [37157. 37157. 36235. 36235. 36449. 36449. 36997. 36997.]]",,1677763160.5195115,['-X'],"[-0.3684689486035409, -0.05326457775956901, 0.1323655669627615, -0.1773916724238951, -3.1112195425942093, -0.054012741507142976]",-1,"[-0.36888, -0.0535, 0.13291015787889915, -0.17768931939222413, -3.11014200167075, -0.054409667424935776]",1677763160.1686323,1677763280.1686323,-1,starting,"('starting', (-0.36888, -0.0535), 0, 0, -0.005)",1,163395.61599999998,"[-0.13755240418240788, -1.8045420272858, 2.1914738896745245, 4.330497961955299, -1.5965905087035495, -1.6069161238855898]","[-0.027228204291922437, 0.19666009873614557, -0.22050368844280882, 0.38138912229993427, 0.04647450887121873, -0.15699573032986935]",0,"[0.2903020623362773, -1.9813141204593487, 2.2554382615089867, -3.9452229200572577, -0.491654495187511, 1.653493314951255]","[-0.4151642738012468, -0.5972887169183102, -1.5717526616709225, 0.013233483522706408, 0.19270716667279703, -0.17977345301736505]","[1.3535950552777476, -12.785347197457291, -10.888682021707933, -2.2887855187968826, -0.11033858729823408, 0.35028291394591726]","[-0.13741714159120733, -1.804516617451803, 2.1913533210754395, 4.330327987670898, -1.5971115271197718, -1.606786076222555]","[-0.020056799054145813, 0.1818278580904007, -0.1980624943971634, 0.3430604338645935, 0.03863714262843132, -0.14611168205738068]","[-0.30488622188568115, -2.1185109615325928, -1.0200238227844238, -0.14792899787425995, 0.388885498046875, -0.3949856758117676]","[-0.30712804198265076, -2.2418105602264404, -0.9213841557502747, -0.15707923471927643, 0.3751601278781891, -0.37058499455451965]","[-0.36932514903173247, -0.053175532291225604, 0.1318873047920543, 0.15900933011687426, 3.130417729347033, 0.04441542164840273]","[-0.006982293535302285, -0.0006045272643373456, -0.00707449093311726, -0.08446627430218198, -0.32249626919198693, 0.12539068565775927]","[-66.80022068055236, -12.407076794530678, -2.830566445378507, 4.447162061733586, -16.377479912210767, -2.414713678232746]","[-0.3692653058495649, -0.053251812287913376, 0.1318220531708201, 0.1590040079626258, 3.1302070744662194, 0.04356116664605604]","[-0.00800874280288668, 0.0003569284988207006, -0.005751020851056943, -0.09662940000982295, -0.35205201728490315, 0.12899787541345373]",65536,"[35.319984436035156, 35.18998336791992, 34.049983978271484, 41.08998107910156, 42.73998260498047, 46.199981689453125]",0.648685,7,"[253, 253, 253, 253, 253, 253]",1,"[3.9678139686584473, 1.0458965301513672, -12.511799812316895]",1.0,1.0,0.7827642476296867,47.82634735107422,47.82634735107422,0.5729187726974487,"[47.529998779296875, 47.529998779296875, 47.57500076293945, 47.57500076293945, 47.393001556396484, 47.62099838256836]",132,2
23,"[[36210. 36210. 36092. 36092. 36100. 36100. 37356. 37356.]
 [36210. 36210. 36092. 36092. 36100. 36100. 37356. 37356.]
 [28447. 28447. 35792. 35792. 35678. 35678. 36507. 36507.]
 [28447. 28447. 35792. 35792. 35678. 35678. 36507. 36507.]
 [36856. 36856. 35730. 35730. 35930. 35930. 36704. 36704.]
 [36856. 36856. 35730. 35730. 35930. 35930. 36704. 36704.]
 [37160. 37160. 36233. 36233. 36444. 36444. 36998. 36998.]
 [37160. 37160. 36233. 36233. 36444. 36444. 36998. 36998.]]",,1677763160.5334764,['-X'],"[-0.3684689486035409, -0.05326457775956901, 0.1323655669627615, -0.1773916724238951, -3.1112195425942093, -0.054012741507142976]",-1,"[-0.36888, -0.0535, 0.13291015787889915, -0.17768931939222413, -3.11014200167075, -0.054409667424935776]",1677763160.1686323,1677763280.1686323,-1,starting,"('starting', (-0.36888, -0.0535), 0, 0, -0.005)",1,163395.63199999998,"[-0.13814910572314787, -1.800206628289022, 2.1866211175836305, 4.338881864528965, -1.595571210701805, -1.6103611244658893]","[-0.036216329250968377, 0.26360616562028016, -0.2948766051334352, 0.509278931302817, 0.061878724558794555, -0.20917121440281364]",0,"[0.5056112083754293, -3.5553995090934, 4.026580582504359, -6.997867914607214, -0.8603854357393499, 2.899187311356972]","[-0.32861635124071525, -0.9591099522918077, -1.2741924301117549, -0.03282383245127104, 0.18680053997846743, -0.15998643945375904]","[2.3939691402721586, -17.441516223488016, -6.901642540444486, -2.9108486256027906, -0.18606071018513765, 0.6141759209513874]","[-0.13792068163026983, -1.800816837941305, 2.1874561309814453, 4.338383674621582, -1.5960567633258265, -1.6099861303912562]","[-0.05169515311717987, 0.38895362615585327, -0.400292307138443, 0.7318286895751953, 0.09654492139816284, -0.29042571783065796]","[-0.7891173362731934, 2.36735200881958, -3.941102981567383, -0.13725370168685913, 0.15707923471927643, -0.24400658905506134]","[-0.8003263473510742, 2.564631223678589, -4.0599188804626465, -0.12810346484184265, 0.15097907185554504, -0.2562069296836853]","[-0.3691920238267698, -0.05325165365365055, 0.1315842569559299, 0.1542577583400122, 3.1228991677857043, 0.0415488803537416]","[-0.007299780366109352, -0.002287851226275553, -0.025030973816186883, -0.19976129069879317, -0.7077839512127483, 0.23646131769672657]","[183.5530652304608, 11.510674996899986, -17.280915291123627, -2.6079362239331156, 41.6879750688663, 0.2570045241108073]","[-0.3694417734124529, -0.053243994629771405, 0.13169691951828608, 0.1540160992601558, 3.122684222000362, 0.040744642812859326]","[-0.010643587465606974, 0.00046586474455808264, -0.007456161736043188, -0.13080159413448422, -0.47016383929996003, 0.17143507340743924]",65536,"[35.319984436035156, 35.18998336791992, 34.049983978271484, 41.08998107910156, 42.73998260498047, 46.199981689453125]",0.654072,7,"[253, 253, 253, 253, 253, 253]",1,"[2.019869089126587, 2.4933695793151855, -11.80754280090332]",1.0,1.0,1.0493211101780031,47.64403533935547,47.64403533935547,1.8619791269302368,"[47.529998779296875, 47.529998779296875, 47.529998779296875, 47.57500076293945, 47.393001556396484, 47.62099838256836]",132,2
24,"[[36214. 36214. 36093. 36093. 36101. 36101. 37358. 37358.]
 [36214. 36214. 36093. 36093. 36101. 36101. 37358. 37358.]
 [28448. 28448. 35794. 35794. 35674. 35674. 36502. 36502.]
 [28448. 28448. 35794. 35794. 35674. 35674. 36502. 36502.]
 [36856. 36856. 35730. 35730. 35934. 35934. 36702. 36702.]
 [36856. 36856. 35730. 35730. 35934. 35934. 36702. 36702.]
 [37161. 37161. 36240. 36240. 36449. 36449. 36998. 36998.]
 [37161. 37161. 36240. 36240. 36449. 36449. 36998. 36998.]]",,1677763160.5494308,['-X'],"[-0.3684689486035409, -0.05326457775956901, 0.1323655669627615, -0.1773916724238951, -3.1112195425942093, -0.054012741507142976]",-1,"[-0.36888, -0.0535, 0.13291015787889915, -0.17768931939222413, -3.11014200167075, -0.054409667424935776]",1677763160.1686323,1677763280.1686323,-1,starting,"('starting', (-0.36888, -0.0535), 0, 0, -0.005)",1,163395.648,"[-0.1388866927895549, -1.7948171614413857, 2.180604756665783, 4.349266704661944, -1.5943094056934877, -1.6146247032372578]","[-0.04480430071045018, 0.3273747802612945, -0.36517511976565686, 0.6304183422010622, 0.07671406280163326, -0.2589916581039739]",0,"[0.6016386582092915, -4.397425614873551, 4.978788272149974, -8.571480932843059, -1.012619194996029, 3.476980254053921]","[-0.28905503689886086, -1.1416325089509665, -1.136767428064109, -0.056815221480341606, 0.186110254181651, -0.15692822807843113]","[2.905448885126602, -20.03623282466039, -4.750750334266833, -3.225546855897933, -0.21697419044347888, 0.7365779855955014]","[-0.13865167299379522, -1.7959802786456507, 2.1812682151794434, 4.347780227661133, -1.5947735945331019, -1.6141932646380823]","[-0.07204596698284149, 0.4165269136428833, -0.5341960191726685, 0.8467094898223877, 0.10572483390569687, -0.3537983000278473]","[-0.9662203192710876, 4.815409183502197, -3.840221405029297, 0.19215518236160278, 0.24095650017261505, -0.16165436804294586]","[-0.9953638911247253, 4.902839660644531, -4.0509514808654785, 0.25163179636001587, 0.24095650017261505, -0.15097907185554504]","[-0.3696679282044839, -0.05321354704309229, 0.13179902709059288, 0.1483165714766063, 3.1152599064169033, 0.038245577250210126]","[-0.033286566474841905, 0.00660250088818258, 0.015964656808445037, -0.21435515493430773, -0.7156188303707472, 0.2783520479224492]","[273.1568205972631, 19.950663177408487, 7.679279951311853, -3.6718885521520375, 62.84611797488008, 1.3416834427788997]","[-0.3696576725502965, -0.05323489573612211, 0.1315462154029129, 0.14788881326795097, 3.1133470647980745, 0.03720595041639747]","[-0.012922686863593727, 0.0005170866524846826, -0.008950341399085087, -0.16502612551962043, -0.5820908563550866, 0.2115223402177141]",65536,"[35.319984436035156, 35.18998336791992, 34.049983978271484, 41.08998107910156, 42.73998260498047, 46.199981689453125]",0.655872,7,"[253, 253, 253, 253, 253, 253]",1,"[-4.261504173278809, 2.0318562984466553, -1.1358016729354858]",1.0,1.0,1.3030901595697861,47.58326721191406,47.58326721191406,2.2916676998138428,"[47.529998779296875, 47.529998779296875, 47.529998779296875, 47.57500076293945, 47.393001556396484, 47.62099838256836]",132,2
25,"[[36214. 36214. 36092. 36092. 36102. 36102. 37357. 37357.]
 [36214. 36214. 36092. 36092. 36102. 36102. 37357. 37357.]
 [28447. 28447. 35791. 35791. 35674. 35674. 36505. 36505.]
 [28447. 28447. 35791. 35791. 35674. 35674. 36505. 36505.]
 [36856. 36856. 35729. 35729. 35933. 35933. 36702. 36702.]
 [36856. 36856. 35729. 35729. 35933. 35933. 36702. 36702.]
 [37159. 37159. 36231. 36231. 36450. 36450. 36998. 36998.]
 [37159. 37159. 36231. 36231. 36450. 36450. 36998. 36998.]]",,1677763160.5639234,['-X'],"[-0.3684689486035409, -0.05326457775956901, 0.1323655669627615, -0.1773916724238951, -3.1112195425942093, -0.054012741507142976]",-1,"[-0.36888, -0.0535, 0.13291015787889915, -0.17768931939222413, -3.11014200167075, -0.054409667424935776]",1677763160.1686323,1677763280.1686323,-1,starting,"('starting', (-0.36888, -0.0535), 0, 0, -0.005)",1,163395.656,"[-0.13934413098837695, -1.791474891638468, 2.1768832742268387, 4.3556934195298735, -1.593524584422049, -1.61726900140766]","[-0.05850953705869687, 0.4274996259546046, -0.4760035677721206, 0.8220216691537325, 0.100384116114244, -0.33822418458644077]",0,"[-1.7131545435308355, 12.515605711663762, -13.853556000807968, 23.950415869083795, 2.9587566640763425, -9.904065810308358]","[-1.3017251295941858, 3.1899857820710036, -4.92680978770672, 0.7676610270297848, 0.28815306031381427, -0.5191995321870964]","[-8.324506226454565, 28.370159056771264, -46.81507116787881, 3.464565234638573, 0.6013881079673433, -2.098118571497954]","[-0.13907128969301397, -1.792879883443014, 2.1778388023376465, 4.3531670570373535, -1.5941136519061487, -1.6164105574237269]","[-0.03470631688833237, 0.30719244480133057, -0.33091801404953003, 0.5575061440467834, 0.07377488911151886, -0.24359136819839478]","[-0.5290672779083252, -1.551332950592041, -0.22418105602264404, -0.0732019767165184, 0.3233087360858917, -0.35075947642326355]","[-0.49319833517074585, -1.6499725580215454, -0.09863966703414917, -0.0930275097489357, 0.315683513879776, -0.35075947642326355]","[-0.3699069037368296, -0.053179067917981666, 0.13175402474202033, 0.14520216769579974, 3.110416062395528, 0.03638395502168732]","[-0.014935045159776124, -0.00216841188723816, -0.010547817735641386, -0.1543527754846563, -0.5237059341189115, 0.20617439358005588]","[-277.36357742060983, -13.94503319251685, 75.60676525826061, 0.8484554506814942, -76.79462208157005, -0.10959906818309895]","[-0.3697881698600788, -0.05323013649593776, 0.13145451114868112, 0.1441159977834323, 3.1075581268540855, 0.03498143327592189]","[-0.016550507145369583, 0.0005936599678325234, -0.01148954840730435, -0.21797230840384169, -0.7591009459062464, 0.27558012389324343]",65536,"[35.319984436035156, 35.18998336791992, 34.049983978271484, 41.08998107910156, 42.73998260498047, 46.199981689453125]",0.420589,7,"[253, 253, 253, 253, 253, 253]",1,"[2.0768089294433594, 2.0138752460479736, -8.52900218963623]",1.0,1.0,1.701472207586779,47.88711929321289,47.88711929321289,0.32226669788360596,"[47.529998779296875, 47.529998779296875, 47.529998779296875, 47.57500076293945, 47.393001556396484, 47.40800094604492]",132,2
26,"[[36213. 36213. 36093. 36093. 36099. 36099. 37352. 37352.]
 [36213. 36213. 36093. 36093. 36099. 36099. 37352. 37352.]
 [28446. 28446. 35790. 35790. 35677. 35677. 36502. 36502.]
 [28446. 28446. 35790. 35790. 35677. 35677. 36502. 36502.]
 [36857. 36857. 35727. 35727. 35930. 35930. 36704. 36704.]
 [36857. 36857. 35727. 35727. 35930. 35930. 36704. 36704.]
 [37154. 37154. 36237. 36237. 36451. 36451. 36999. 36999.]
 [37154. 37154. 36237. 36237. 36451. 36451. 36999. 36999.]]",,1677763160.5827181,['-X'],"[-0.3684689486035409, -0.05326457775956901, 0.1323655669627615, -0.1773916724238951, -3.1112195425942093, -0.054012741507142976]",-1,"[-0.36888, -0.0535, 0.13291015787889915, -0.17768931939222413, -3.11014200167075, -0.054409667424935776]",1677763160.1686323,1677763280.1686323,-1,starting,"('starting', (-0.36888, -0.0535), 0, 0, -0.005)",1,163395.68,"[-0.14077090955055027, -1.7809150388090789, 2.165136778462765, 4.375919477671916, -1.5910677369986752, -1.6255437078068447]","[-0.0619576697122916, 0.4612841842252833, -0.5128422989108867, 0.8818846352716158, 0.10682458570957577, -0.35985525962719883]",0,"[0.6273092654983251, -4.315428159954393, 4.838589588761099, -8.470733307583744, -1.0681126948695572, 3.576381738083244]","[-0.2991416696272345, -1.070269253239064, -1.2728880309686805, -0.023997596243720973, 0.19092064846507315, -0.17862624767856894]","[2.9305351493059484, -20.324532817167224, -5.051131766283984, -3.190214682047003, -0.22757562826219493, 0.757635610178257]","[-0.14059335390199834, -1.782332722340719, 2.1657872200012207, 4.374115467071533, -1.5914519468890589, -1.6250889937030237]","[-0.09087558090686798, 0.5883072018623352, -0.6813687086105347, 1.1022371053695679, 0.1360449194908142, -0.4562634229660034]","[-1.1209052801132202, 4.472412109375, -4.277374744415283, 0.11895321309566498, 0.2501067519187927, -0.1891051083803177]","[-1.1590160131454468, 4.6024370193481445, -4.517248153686523, 0.15402916073799133, 0.25468188524246216, -0.19215518236160278]","[-0.37028166558646963, -0.05318187863428472, 0.13156292964911734, 0.13299404084169222, 3.0918126620917636, 0.02889632646693991]","[-0.03844831369350194, 0.007296480151729844, 0.000263652347013198, -0.2983344421647432, -0.9876276352411593, 0.3573812907987368]","[265.39893467594544, 12.52862680756319, -3.3582831449195476, -1.8293035374827658, 61.63279626944357, 0.8424299489835622]","[-0.37019805283207574, -0.053216542631097825, 0.1311911764269882, 0.13242922411712182, 3.089316756614452, 0.027868947120284673]","[-0.017680187974597063, 0.0005561124943752513, -0.010672986877839116, -0.2406861136918378, -0.8127490413302977, 0.29122478923929873]",65536,"[35.319984436035156, 35.18998336791992, 34.049983978271484, 41.08998107910156, 42.73998260498047, 46.199981689453125]",0.609756,7,"[253, 253, 253, 253, 253, 253]",1,"[-4.76197624206543, 0.7522064447402954, -2.3734960556030273]",1.0,1.0,1.8349903132868077,47.52249526977539,47.52249526977539,3.0078134536743164,"[47.270999908447266, 47.63600158691406, 47.529998779296875, 47.60599899291992, 47.48400115966797, 47.40800094604492]",132,2
27,"[[36215. 36215. 36094. 36094. 36101. 36101. 37354. 37354.]
 [36215. 36215. 36094. 36094. 36101. 36101. 37354. 37354.]
 [28448. 28448. 35791. 35791. 35676. 35676. 36505. 36505.]
 [28448. 28448. 35791. 35791. 35676. 35676. 36505. 36505.]
 [36860. 36860. 35729. 35729. 35928. 35928. 36702. 36702.]
 [36860. 36860. 35729. 35729. 35928. 35928. 36702. 36702.]
 [37155. 37155. 36230. 36230. 36446. 36446. 36996. 36996.]
 [37155. 37155. 36230. 36230. 36446. 36446. 36996. 36996.]]",,1677763160.5946872,['-X'],"[-0.3684689486035409, -0.05326457775956901, 0.1323655669627615, -0.1773916724238951, -3.1112195425942093, -0.054012741507142976]",-1,"[-0.36888, -0.0535, 0.13291015787889915, -0.17768931939222413, -3.11014200167075, -0.054409667424935776]",1677763160.1686323,1677763280.1686323,-1,starting,"('starting', (-0.36888, -0.0535), 0, 0, -0.005)",1,163395.688,"[-0.14135971749761822, -1.7764969009143714, 2.1602287745898074, 4.384344738372468, -1.5900512373344844, -1.6289700487170062]","[-0.07516697196618623, 0.5640176035796495, -0.6265536859095332, 1.0755651958150654, 0.12976591457750375, -0.4374052225738401]",0,"[-1.6511627817368284, 12.841677419295774, -14.213923374830808, 24.210070067931202, 2.867666108490997, -9.69374536833016]","[-1.3142510301139994, 3.3152807453591335, -5.061906477093644, 0.8031051841970874, 0.2919209718453404, -0.538088325790819]","[-8.329414453666004, 28.84911635430312, -47.4390790106728, 3.5198207028699633, 0.5831354092421823, -2.053563412664011]","[-0.14114457765688115, -1.7780707518206995, 2.1612186431884766, 4.381477355957031, -1.5905168692218226, -1.6281102339373987]","[-0.05123496055603027, 0.4455191493034363, -0.4729902148246765, 0.8205359578132629, 0.10582070797681808, -0.34135866165161133]","[-0.6097724437713623, -2.2440524101257324, -0.5873543620109558, -0.07777710258960724, 0.35685962438583374, -0.3660098910331726]","[-0.6052888631820679, -2.3225157260894775, -0.4573293626308441, -0.10370279848575592, 0.355334609746933, -0.3660098910331726]","[-0.3705555393841181, -0.05315692905774436, 0.13145500359622347, 0.12881040385868567, 3.085047160321901, 0.026179883394550074]","[-0.015248639326590435, -0.0034091683948920142, -0.017395963458431328, -0.2352547239988299, -0.7752218219922078, 0.28306991593921654]","[-299.71333864439544, -17.732130555268, 60.41975909683223, 2.1095704668540294, -81.20959517091705, 0.515960518044208]","[-0.3703685078500774, -0.05321117363952384, 0.1310922330719669, 0.1276433214432065, 3.0817069379693396, 0.024858942702212162]","[-0.021537023689647928, 0.0006615527744535211, -0.012218966048928267, -0.29690141321407243, -0.9905405031887929, 0.35293342339868383]",65536,"[35.319984436035156, 35.18998336791992, 34.049983978271484, 41.08998107910156, 42.73998260498047, 46.199981689453125]",0.37068,7,"[253, 253, 253, 253, 253, 253]",1,"[4.27948522567749, 0.7042570114135742, -11.340036392211914]",1.0,1.0,2.24281662608789,47.88711929321289,47.88711929321289,0.3938823342323303,"[47.270999908447266, 47.63600158691406, 47.529998779296875, 47.60599899291992, 47.48400115966797, 47.40800094604492]",132,2
28,"[[36214. 36214. 36091. 36091. 36102. 36102. 37356. 37356.]
 [36214. 36214. 36091. 36091. 36102. 36102. 37356. 37356.]
 [28447. 28447. 35788. 35788. 35675. 35675. 36508. 36508.]
 [28447. 28447. 35788. 35788. 35675. 35675. 36508. 36508.]
 [36858. 36858. 35729. 35729. 35929. 35929. 36703. 36703.]
 [36858. 36858. 35729. 35729. 35929. 35929. 36703. 36703.]
 [37156. 37156. 36233. 36233. 36447. 36447. 36999. 36999.]
 [37156. 37156. 36233. 36233. 36447. 36447. 36999. 36999.]]",,1677763160.6096475,['-X'],"[-0.3684689486035409, -0.05326457775956901, 0.1323655669627615, -0.1773916724238951, -3.1112195425942093, -0.054012741507142976]",-1,"[-0.36888, -0.0535, 0.13291015787889915, -0.17768931939222413, -3.11014200167075, -0.054409667424935776]",1677763160.1686323,1677763280.1686323,-1,starting,"('starting', (-0.36888, -0.0535), 0, 0, -0.005)",1,163395.704,"[-0.14256216572820435, -1.7673524661526123, 2.150093954910396, 4.40169422561465, -1.5879677332837474, -1.6359906723681945]","[-0.08287281233446767, 0.6333607845635871, -0.7013614423126421, 1.1994131437194682, 0.1437911262804808, -0.484463235089028]",0,"[-1.542843822986712, 12.514686505262329, -13.721237381430731, 23.182397660358845, 2.7222959236602744, -9.158437421142883]","[-1.288545044924419, 3.2435697701354385, -4.988899517752059, 0.7928182312139936, 0.29127488473255314, -0.5360728576121118]","[-7.97838541993066, 27.657916627867237, -46.19844278087762, 3.3167765880941493, 0.5538033795386125, -1.9401615465036424]","[-0.14233142534364873, -1.7689841429339808, 2.151301860809326, 4.3990397453308105, -1.5883587042437952, -1.6351583639727991]","[-0.05880259722471237, 0.5246214270591736, -0.5465573668479919, 0.9476885795593262, 0.11895541846752167, -0.39624643325805664]","[-0.7128957509994507, -1.9548587799072266, -1.145565152168274, -0.19063015282154083, 0.19825536012649536, -0.33398401737213135]","[-0.6904776692390442, -2.0445311069488525, -1.0312328338623047, -0.21655584871768951, 0.20435552299022675, -0.3233087360858917]","[-0.37078023567988033, -0.05318718496974359, 0.13116736334007598, 0.11899402637510917, 3.068988557958629, 0.019735447188366808]","[-0.017183759717806717, -0.0033885650948773842, -0.021965301938280578, -0.27734509368243176, -0.9034406752993315, 0.32710977762582844]","[-270.5224114791683, -16.25061000814863, 52.77718961187036, 0.251870672527416, -74.84945545839983, 1.1353067352786157]","[-0.370720221841556, -0.05320112453425984, 0.1309046813155364, 0.11793425546722824, 3.0660067442779027, 0.0185696374700536]","[-0.02411783711044841, 0.0006464104221302735, -0.012126411282106134, -0.33909152097415324, -1.1038945311797712, 0.38845070860854813]",65536,"[35.319984436035156, 35.18998336791992, 34.04598617553711, 41.08998107910156, 42.73998260498047, 46.199981689453125]",0.450084,7,"[253, 253, 253, 253, 253, 253]",1,"[5.025697708129883, 1.8790175914764404, -13.653595924377441]",1.0,1.0,2.5153172056259567,47.88711929321289,47.88711929321289,0.5729187726974487,"[47.270999908447266, 47.63600158691406, 47.30099868774414, 47.60599899291992, 47.48400115966797, 47.40800094604492]",132,2
29,"[[36214. 36214. 36092. 36092. 36101. 36101. 37355. 37355.]
 [36214. 36214. 36092. 36092. 36101. 36101. 37355. 37355.]
 [28450. 28450. 35791. 35791. 35671. 35671. 36502. 36502.]
 [28450. 28450. 35791. 35791. 35671. 35671. 36502. 36502.]
 [36857. 36857. 35727. 35727. 35930. 35930. 36705. 36705.]
 [36857. 36857. 35727. 35727. 35930. 35930. 36705. 36705.]
 [37157. 37157. 36230. 36230. 36444. 36444. 36999. 36999.]
 [37157. 37157. 36230. 36230. 36444. 36444. 36999. 36999.]]",,1677763160.6266003,['-X'],"[-0.3684689486035409, -0.05326457775956901, 0.1323655669627615, -0.1773916724238951, -3.1112195425942093, -0.054012741507142976]",-1,"[-0.36888, -0.0535, 0.13291015787889915, -0.17768931939222413, -3.11014200167075, -0.054409667424935776]",1677763160.1686323,1677763280.1686323,-1,starting,"('starting', (-0.36888, -0.0535), 0, 0, -0.005)",1,163395.72,"[-0.14386835842732992, -1.7572355285346877, 2.1389165235907797, 4.420757835782838, -1.5856949841920693, -1.6436525550750094]","[-0.08595352437232527, 0.6692029606940495, -0.7386972246003571, 1.2585770063002073, 0.14972233930239165, -0.5048590937819386]",0,"[-1.0791201692454122, 9.223589893441103, -10.02694178109871, 16.775342697105344, 1.9188802681366912, -6.4978561515012245]","[-1.0933679046616154, 2.3997284642375702, -4.275410457448476, 0.6429199201774745, 0.2728753585012052, -0.47234557675343575]","[-5.76739696658769, 17.873451768887556, -37.893175466694544, 2.0114097972526617, 0.38889037234811996, -1.3765329237006028]","[-0.1436856428729456, -1.7587483564959925, 2.1398978233337402, 4.418182849884033, -1.5860684553729456, -1.6428421179400843]","[-0.06950211524963379, 0.6051809787750244, -0.6213005781173706, 1.0669795274734497, 0.13261744379997253, -0.4381672441959381]","[-0.4819892644882202, -2.374077320098877, -0.9034496545791626, -0.18147990107536316, 0.27755749225616455, -0.2882327735424042]","[-0.46629658341407776, -2.452540636062622, -0.8160190582275391, -0.2028304785490036, 0.28060758113861084, -0.3095833659172058]","[-0.37124443928097783, -0.05315266708122447, 0.13103111579257906, 0.10856500577117928, 3.051721482690942, 0.012685589532463208]","[-0.02136548377024681, -0.002003319991349659, -0.0254922438046445, -0.3204364530591028, -1.0232374646029216, 0.35419897643274173]","[-244.14249049463405, -10.545656859917777, 42.684986654484135, 0.2370026575261761, -66.85514116223247, 1.3855914027145992]","[-0.3711075200256653, -0.053191144813915237, 0.13072364895383523, 0.10748885367586934, 3.048710463146391, 0.011524388488933102]","[-0.025348400909930423, 0.0006174659140014347, -0.010985872384164767, -0.3647655055258667, -1.1574455753646817, 0.40182277891734947]",65536,"[35.319984436035156, 35.18998336791992, 34.04598617553711, 41.08998107910156, 42.73998260498047, 46.199981689453125]",0.38164800000000004,7,"[253, 253, 253, 253, 253, 253]",1,"[4.219548225402832, 2.3105623722076416, -13.752490997314453]",1.0,1.0,2.7059492529706137,47.88711929321289,47.88711929321289,0.35807186365127563,"[47.270999908447266, 47.63600158691406, 47.30099868774414, 47.60599899291992, 47.48400115966797, 47.40800094604492]",132,2
30,"[[36211. 36211. 36096. 36096. 36100. 36100. 37354. 37354.]
 [36211. 36211. 36096. 36096. 36100. 36100. 37354. 37354.]
 [28446. 28446. 35790. 35790. 35671. 35671. 36504. 36504.]
 [28446. 28446. 35790. 35790. 35671. 35671. 36504. 36504.]
 [36858. 36858. 35729. 35729. 35933. 35933. 36699. 36699.]
 [36858. 36858. 35729. 35729. 35933. 35933. 36699. 36699.]
 [37156. 37156. 36234. 36234. 36448. 36448. 36997. 36997.]
 [37156. 37156. 36234. 36234. 36448. 36448. 36997. 36997.]]",,1677763160.640775,[],"[-0.3684689486035409, -0.05326457775956901, 0.1323655669627615, -0.1773916724238951, -3.1112195425942093, -0.054012741507142976]",-1,"[-0.36888, -0.0535, 0.13291015787889915, -0.17768931939222413, -3.11014200167075, -0.054409667424935776]",1677763160.1686323,1677763280.1686323,-1,starting,"('starting', (-0.36888, -0.0535), 0, 0, -0.005)",1,163395.736,"[-0.14517438859704868, -1.7469239758727326, 2.1275714551640004, 4.440042455078758, -1.5834095366635648, -1.6513557570074653]","[-0.08468685283872225, 0.6724629602573332, -0.7388795609555854, 1.2547779943343949, 0.14847529072013071, -0.5003558488854845]",0,"[-0.7649918078533047, 6.997729721295393, -7.453196070442342, 12.372322084838322, 1.408705047156289, -4.7264320267486895]","[-0.9578845824159775, 1.8077612176254592, -3.7661151035959297, 0.5356406557831651, 0.2602562376369858, -0.4263162032621664]","[-4.260654363653151, 11.12823609914321, -32.11051253162141, 1.1208892170478886, 0.28485171262910935, -1.0012670555886978]","[-0.14512378374208623, -1.747734848652975, 2.1281228065490723, 4.43751859664917, -1.583670441304342, -1.6507538000689905]","[-0.06939984858036041, 0.5983675718307495, -0.6237165927886963, 1.0711740255355835, 0.13268934190273285, -0.43852677941322327]","[-0.1860702782869339, -2.7058653831481934, -0.6501250863075256, 0.11590313166379929, 0.36448484659194946, -0.3919355869293213]","[-0.17710302770137787, -2.7708778381347656, -0.5402763485908508, 0.08692734688520432, 0.36753493547439575, -0.3919355869293213]","[-0.37182706497475143, -0.053094201833702406, 0.1307941276481092, 0.09807358053164383, 3.033865295934307, 0.00518055088895325]","[-0.020145863589392157, -0.002183724489019512, -0.020496021736882385, -0.328909170628529, -1.0155989126348386, 0.35142144581139545]","[-230.1368257512524, -5.674010078052146, 28.820044266874348, 0.9121675034831801, -59.206253306299146, 0.4186002560648677]","[-0.3714993260652774, -0.05318295432532445, 0.13056302140584847, 0.0971459138383641, 3.031158007366174, 0.004251241964426323]","[-0.02528955995378967, 0.00046863451056410217, -0.009596965229565907, -0.37307957860106394, -1.1540003335830378, 0.3951531106098377]",65536,"[35.319984436035156, 35.18998336791992, 34.04598617553711, 41.08998107910156, 42.73998260498047, 46.199981689453125]",0.453385,7,"[253, 253, 253, 253, 253, 253]",1,"[1.5014159679412842, 0.22476287186145782, -10.875526428222656]",1.0,1.0,2.7123179463804394,47.88711929321289,47.88711929321289,-1.0596381798677612e-06,"[47.270999908447266, 47.63600158691406, 47.30099868774414, 47.560001373291016, 47.48400115966797, 47.05799865722656]",132,2
31,"[[36213. 36213. 36089. 36089. 36099. 36099. 37353. 37353.]
 [36213. 36213. 36089. 36089. 36099. 36099. 37353. 37353.]
 [28448. 28448. 35791. 35791. 35673. 35673. 36505. 36505.]
 [28448. 28448. 35791. 35791. 35673. 35673. 36505. 36505.]
 [36859. 36859. 35729. 35729. 35931. 35931. 36701. 36701.]
 [36859. 36859. 35729. 35729. 35931. 35931. 36701. 36701.]
 [37156. 37156. 36232. 36232. 36448. 36448. 36998. 36998.]
 [37156. 37156. 36232. 36232. 36448. 36448. 36998. 36998.]]",,1677763160.658827,[],"[-0.3684689486035409, -0.05326457775956901, 0.1323655669627615, -0.1773916724238951, -3.1112195425942093, -0.054012741507142976]",-1,"[-0.36888, -0.0535, 0.13291015787889915, -0.17768931939222413, -3.11014200167075, -0.054409667424935776]",1677763160.1686323,1677763280.1686323,-1,starting,"('starting', (-0.36888, -0.0535), 0, 0, -0.005)",1,163395.75199999998,"[-0.1464312082974697, -1.7367243727769788, 2.116403292294512, 4.458942404546527, -1.581195484472027, -1.6588341214003748]","[-0.08069461426682857, 0.660885457927214, -0.7226036319593647, 1.221091781509155, 0.14244328457184982, -0.4815939774125971]",0,"[-0.5358457476301454, 5.852566110649521, -6.148363154114156, 9.961234943394986, 1.0162556501786892, -3.549050713929927]","[-0.8710834611440601, 1.4780224266327684, -3.501470066320597, 0.4731425935971798, 0.2495321240036501, -0.3914538544281724]","[-3.321447533639641, 7.443669232973608, -29.19579459155448, 0.631906391493541, 0.20491496599598208, -0.7518456921332407]","[-0.1463702360736292, -1.7369487921344202, 2.1168394088745117, 4.4574055671691895, -1.5813563505755823, -1.6584857145892542]","[-0.06307217478752136, 0.5616926550865173, -0.6157143115997314, 1.0754164457321167, 0.1245400682091713, -0.4241456985473633]","[-0.5111327767372131, -2.190248966217041, 0.16589398682117462, -0.03812602907419205, 0.22418105602264404, -0.46971267461776733]","[-0.5201000571250916, -2.3404502868652344, 0.19952113926410675, -0.053376439958810806, 0.22418105602264404, -0.46056243777275085]","[-0.3720618098441972, -0.053136402027809046, 0.1304213796186664, 0.08771285927073844, 3.015178469225041, -0.0024790253243053948]","[-0.013196395165861902, -0.0036385850411750926, -0.008915750782141975, -0.324727489711504, -0.9900762379013623, 0.3409130832378503]","[-218.41136981531986, -19.36246983430031, 55.97580563684714, 2.3777838657459505, -59.08627619647987, -0.11783272563636982]","[-0.3718888417336872, -0.053176181569111615, 0.13042610768268384, 0.08724903562321619, 3.0138941566620536, -0.0029934935824729963]","[-0.025140951066021825, 0.00040383316941134274, -0.00803465774009349, -0.3703304994315873, -1.1234780523453076, 0.37767117077899093]",65536,"[35.319984436035156, 35.18998336791992, 34.04598617553711, 41.08998107910156, 42.73998260498047, 46.199981689453125]",0.448464,7,"[253, 253, 253, 253, 253, 253]",1,"[4.44730806350708, 1.0069376230239868, -16.269834518432617]",1.0,1.0,2.6577919626046738,47.88711929321289,47.82634735107422,0.0716145858168602,"[46.92100143432617, 47.62099838256836, 47.30099868774414, 47.560001373291016, 47.46900177001953, 47.05799865722656]",132,2
32,"[[36214. 36214. 36089. 36089. 36099. 36099. 37355. 37355.]
 [36214. 36214. 36089. 36089. 36099. 36099. 37355. 37355.]
 [28447. 28447. 35787. 35787. 35671. 35671. 36502. 36502.]
 [28447. 28447. 35787. 35787. 35671. 35671. 36502. 36502.]
 [36859. 36859. 35732. 35732. 35931. 35931. 36700. 36700.]
 [36859. 36859. 35732. 35732. 35931. 35931. 36700. 36700.]
 [37154. 37154. 36230. 36230. 36444. 36444. 36996. 36996.]
