Zhao-JW/SharedControl4RemotePalpation/Data/csvdata/yun0_mar-02-2023__0/starting_0_6.csv
,skin_data,patient_data,sample_times,keys_pressed,palpation_start_pose,robot_initiative,descent_start_pose,palpation_start_time,palpation_end_time,target_position,human_response,action,recipe_id,timestamp,target_q,target_qd,output_int_register_0,target_qdd,target_current,target_moment,actual_q,actual_qd,actual_current,joint_control_output,actual_TCP_pose,actual_TCP_speed,actual_TCP_force,target_TCP_pose,target_TCP_speed,actual_digital_input_bits,joint_temperatures,actual_execution_time,robot_mode,joint_mode,safety_mode,actual_tool_accelerometer,speed_scaling,target_speed_fraction,actual_momentum,actual_main_voltage,actual_robot_voltage,actual_robot_current,actual_joint_voltage,actual_digital_output_bits,runtime_state
0,"[[36226. 36226. 36105. 36105. 36121. 36121. 37365. 37365.]
 [36226. 36226. 36105. 36105. 36121. 36121. 37365. 37365.]
 [28450. 28450. 35829. 35829. 35681. 35681. 36518. 36518.]
 [28450. 28450. 35829. 35829. 35681. 35681. 36518. 36518.]
 [36886. 36886. 35760. 35760. 35944. 35944. 36716. 36716.]
 [36886. 36886. 35760. 35760. 35944. 35944. 36716. 36716.]
 [37183. 37183. 36258. 36258. 36463. 36463. 37035. 37035.]
 [37183. 37183. 36258. 36258. 36463. 36463. 37035. 37035.]]",,1677767625.4836664,['-X'],"[-0.36845758171216425, -0.05326812795170661, 0.13201489224480134, -0.17758782167981144, -3.1132315623717473, -0.05390832827068722]",-1,"[-0.36888, -0.0535, 0.13255524020282056, -0.17771115448095112, -3.112107685339881, -0.05426099229656482]",1677767625.4687092,1677767745.4687092,-1,starting,"('starting', (-0.36888, -0.0535), 0, 6, -0.015)",1,167860.78399999999,"[-0.1350920836078089, -1.820953671132223, 2.210923194885254, 4.29742431640625, -1.6009605566607874, -1.592353645955221]","[0.0, 0.0, -0.0, 0.0, 0.0, 0.0]",0,"[0.0, 0.0, 0.0, 0.0, 0.0, 0.0]","[-2.161997239219538e-17, -0.5113538512405927, -1.2548283819884263, -0.15943483548087042, -0.0011037399642267363, 0.0]","[-2.714514068403382e-16, -6.515791394564608, -15.971837579015356, -1.489877365109864, -0.010411445016943082, 0.0]","[-0.1350801626788538, -1.8209055105792444, 2.2109713554382324, 4.297412395477295, -1.6009367148028772, -1.592341725026266]","[0.0, 0.0, -0.0, 0.0, 0.0, 0.0]","[-0.1053650975227356, -0.3676569163799286, -1.1298725605010986, -0.12810346484184265, 0.053376439958810806, -0.06405173242092133]","[-0.12329958379268646, -0.35868969559669495, -1.1388397216796875, -0.14487890899181366, 0.053376439958810806, -0.06405173242092133]","[-0.3734182098691219, -0.053271808222439605, 0.1319518160359383, -0.1777224221025177, -3.113354378239368, -0.05387483233263482]","[0.0, 0.0, 0.0, 0.0, 0.0, 0.0]","[0.9981455214440434, -5.144828448239549, 4.263909301005532, 1.5889299866901603, 0.021204766634942564, -0.6257010376684]","[-0.3684311108383353, -0.05326039433922882, 0.13199033247597625, -0.1777203685045125, -3.113271702706737, -0.05392119391042492]","[0.0, 0.0, 0.0, 0.0, 0.0, 0.0]",65536,"[35.82998275756836, 35.629981994628906, 34.549983978271484, 41.32998275756836, 43.019981384277344, 46.4699821472168]",0.351312,7,"[253, 253, 253, 253, 253, 253]",1,"[0.359620600938797, 1.1777575016021729, -8.858654022216797]",0.0,1.0,0.011958364814313427,47.82634735107422,47.82634735107422,0.7877604365348816,"[47.560001373291016, 47.6510009765625, 47.66600036621094, 47.6510009765625, 47.513999938964844, 47.68199920654297]",132,1
1,"[[36227. 36227. 36109. 36109. 36120. 36120. 37366. 37366.]
 [36227. 36227. 36109. 36109. 36120. 36120. 37366. 37366.]
 [28451. 28451. 35831. 35831. 35685. 35685. 36515. 36515.]
 [28451. 28451. 35831. 35831. 35685. 35685. 36515. 36515.]
 [36887. 36887. 35761. 35761. 35945. 35945. 36717. 36717.]
 [36887. 36887. 35761. 35761. 35945. 35945. 36717. 36717.]
 [37188. 37188. 36255. 36255. 36461. 36461. 37032. 37032.]
 [37188. 37188. 36255. 36255. 36461. 36461. 37032. 37032.]]",,1677767625.5006223,['-X'],"[-0.36845758171216425, -0.05326812795170661, 0.13201489224480134, -0.17758782167981144, -3.1132315623717473, -0.05390832827068722]",-1,"[-0.36888, -0.0535, 0.13255524020282056, -0.17771115448095112, -3.112107685339881, -0.05426099229656482]",1677767625.4687092,1677767745.4687092,-1,starting,"('starting', (-0.36888, -0.0535), 0, 6, -0.015)",1,167860.8,"[-0.13504392305483037, -1.8209174315081995, 2.2108755111694336, 4.29747200012207, -1.6009605566607874, -1.5924013296710413]","[0.0, 0.0, -0.0, 0.0, 0.0, 0.0]",0,"[0.0, 0.0, 0.0, 0.0, 0.0, 0.0]","[3.966794616861718e-17, -0.511463575962564, -1.2548328566517695, -0.15943364084259457, -0.0011037409634941304, 0.0]","[4.980542804867346e-16, -6.5171895328546725, -15.971894533892343, -1.4898662015236794, -0.010411454442911035, 0.0]","[-0.13510448137392217, -1.8209293524371546, 2.210947036743164, 4.297460079193115, -1.6009486357318323, -1.5923894087420862]","[0.0, 0.0, -0.0, 0.0, 0.0, 0.0]","[-0.11881595849990845, -0.35868969559669495, -1.1209052801132202, -0.12047825008630753, 0.05185139924287796, -0.07472702115774155]","[-0.12329958379268646, -0.35868969559669495, -1.1388397216796875, -0.14487890899181366, 0.053376439958810806, -0.06405173242092133]","[-0.3734166390702718, -0.05326055808674024, 0.13196691294139543, -0.17768656165414096, -3.1133577894120434, -0.05389467442583029]","[0.0, 0.0, 0.0, 0.0, 0.0, 0.0]","[0.936644322887786, -5.884905363761336, 4.397207766989787, 1.7437029627614746, 0.06724144826862521, -0.7261793567037252]","[-0.36843713636442976, -0.053277005004217934, 0.1319946649351983, -0.17757234397332863, -3.113316393565401, -0.053917353378577004]","[0.0, 0.0, 0.0, 0.0, 0.0, 0.0]",65536,"[35.82998275756836, 35.629981994628906, 34.549983978271484, 41.32998275756836, 43.019981384277344, 46.4699821472168]",0.37174799999999997,7,"[253, 253, 253, 253, 253, 253]",1,"[0.3686111271381378, 1.1417953968048096, -8.86464786529541]",0.0,1.0,0.02818627767005806,47.82634735107422,47.82634735107422,0.7519552707672119,"[47.560001373291016, 47.6510009765625, 47.68199920654297, 47.6510009765625, 47.513999938964844, 47.68199920654297]",132,1
2,"[[36222. 36222. 36106. 36106. 36122. 36122. 37369. 37369.]
 [36222. 36222. 36106. 36106. 36122. 36122. 37369. 37369.]
 [28451. 28451. 35830. 35830. 35680. 35680. 36516. 36516.]
 [28451. 28451. 35830. 35830. 35680. 35680. 36516. 36516.]
 [36883. 36883. 35761. 35761. 35949. 35949. 36718. 36718.]
 [36883. 36883. 35761. 35761. 35949. 35949. 36718. 36718.]
 [37186. 37186. 36255. 36255. 36464. 36464. 37033. 37033.]
 [37186. 37186. 36255. 36255. 36464. 36464. 37033. 37033.]]",,1677767625.5145829,['-X'],"[-0.36845758171216425, -0.05326812795170661, 0.13201489224480134, -0.17758782167981144, -3.1132315623717473, -0.05390832827068722]",-1,"[-0.36888, -0.0535, 0.13255524020282056, -0.17771115448095112, -3.112107685339881, -0.05426099229656482]",1677767625.4687092,1677767745.4687092,-1,starting,"('starting', (-0.36888, -0.0535), 0, 6, -0.015)",1,167860.816,"[-0.13510448137392217, -1.8209293524371546, 2.210947036743164, 4.297460079193115, -1.6009486357318323, -1.5923894087420862]","[0.0, 0.0, -0.0, 0.0, 0.0, 0.0]",0,"[0.0, 0.0, 0.0, 0.0, 0.0, 0.0]","[-1.1480607855903416e-17, -0.5733878283263817, -1.4069012610141685, -0.1787571682301044, -0.001237040294341339, 0.0]","[-1.285624264353492e-16, -6.516378859463279, -15.971525040625805, -1.4898515127053058, -0.01040735345154379, 0.0]","[-0.13504392305483037, -1.8208935896502894, 2.210923194885254, 4.29744815826416, -1.6009486357318323, -1.5923894087420862]","[0.0, 0.0, -0.0, 0.0, 0.0, 0.0]","[-0.1300250142812729, -0.3676569163799286, -1.1276307106018066, -0.18452998995780945, 0.05795156583189964, -0.06557676941156387]","[-0.12329958379268646, -0.35868969559669495, -1.1388397216796875, -0.14487890899181366, 0.053376439958810806, -0.06405173242092133]","[-0.3734262538492123, -0.05328115181768364, 0.13196635408644, -0.1775920702910258, -3.113362150553719, -0.05389361052198072]","[0.0, 0.0, 0.0, 0.0, 0.0, 0.0]","[-0.5430626871179771, -6.377332150240501, 10.07197854663711, 1.7390206846175678, -1.2396278265612217, -0.6881014345353267]","[-0.3684166390702718, -0.05326055808674024, 0.13196691294139543, -0.17768656165414096, -3.1133577894120434, -0.05389467442583029]","[0.0, 0.0, 0.0, 0.0, 0.0, 0.0]",65536,"[35.82998275756836, 35.629981994628906, 34.549983978271484, 41.32998275756836, 43.019981384277344, 46.4699821472168]",0.399024,7,"[253, 253, 253, 253, 253, 253]",1,"[0.34163957834243774, 1.1867480278015137, -8.852660179138184]",1.0,1.0,0.0,47.82634735107422,47.82634735107422,0.8235656023025513,"[47.560001373291016, 47.6510009765625, 47.68199920654297, 47.6510009765625, 47.513999938964844, 47.6510009765625]",132,2
3,"[[36224. 36224. 36107. 36107. 36117. 36117. 37366. 37366.]
 [36224. 36224. 36107. 36107. 36117. 36117. 37366. 37366.]
 [28450. 28450. 35827. 35827. 35685. 35685. 36517. 36517.]
 [28450. 28450. 35827. 35827. 35685. 35685. 36517. 36517.]
 [36882. 36882. 35765. 35765. 35946. 35946. 36717. 36717.]
 [36882. 36882. 35765. 35765. 35946. 35946. 36717. 36717.]
 [37185. 37185. 36257. 36257. 36460. 36460. 37035. 37035.]
 [37185. 37185. 36257. 36257. 36460. 36460. 37035. 37035.]]",,1677767625.5285475,['-X'],"[-0.36845758171216425, -0.05326812795170661, 0.13201489224480134, -0.17758782167981144, -3.1132315623717473, -0.05390832827068722]",-1,"[-0.36888, -0.0535, 0.13255524020282056, -0.17771115448095112, -3.112107685339881, -0.05426099229656482]",1677767625.4687092,1677767745.4687092,-1,starting,"('starting', (-0.36888, -0.0535), 0, 6, -0.015)",1,167860.832,"[-0.1351044805246815, -1.8209293462106242, 2.210947032269468, 4.297460077467848, -1.6009486357503704, -1.5923894078987715]","[1.4217887652843402e-07, 1.0391737239133533e-06, -7.466244474737437e-07, -2.8794998548248715e-07, -3.093042646429467e-09, 1.4069851139994967e-07]",0,"[1.49300738815886e-05, 0.00010851325421315252, -7.796248764597209e-05, -3.0070779320928413e-05, -3.2279159895622907e-07, 1.4683458193973565e-05]","[2.3749254206498266e-08, -0.5733613846434819, -1.4069168709519324, -0.17875808282038225, -0.0012370264233296372, 3.7668362062011776e-07]","[2.6594948500460543e-07, -6.5160783350229226, -15.971702248876866, -1.4898591353574344, -0.0104072367532259, 3.1106049697816543e-06]","[-0.13505584398378545, -1.8209174315081995, 2.210923194885254, 4.297436237335205, -1.6009486357318323, -1.5923774878131312]","[0.0, 0.0, -0.0, 0.0, 0.0, 0.0]","[-0.15020130574703217, -0.38334959745407104, -1.230754017829895, -0.15402916073799133, 0.04880131781101227, -0.07015189528465271]","[-0.14795950055122375, -0.4057677090167999, -1.2374794483184814, -0.15402916073799133, 0.04880131781101227, -0.06710181385278702]","[-0.37342847757081477, -0.05327653388761064, 0.13197608149725187, -0.17762805899193237, -3.1133243213703397, -0.05389736886138611]","[0.0, 0.0, 0.0, 0.0, 0.0, 0.0]","[1.169632724549046, -6.839409796138298, 6.392500075723625, 1.869980753879084, -0.20662085146876535, -0.6962817164526539]","[-0.36841664130184965, -0.053260558090934704, 0.13196691295857801, -0.17768656161700647, -3.1133577894137656, -0.05389467442553983]","[-3.724142883187335e-07, -8.620921044539478e-10, 2.8638765391603804e-09, 1.4988016138387585e-11, -5.432354825519792e-12, 4.469911810572792e-09]",65536,"[35.82998275756836, 35.629981994628906, 34.549983978271484, 41.32998275756836, 43.019981384277344, 46.4699821472168]",0.5782079999999999,7,"[253, 253, 253, 253, 253, 253]",1,"[0.42555105686187744, 1.1657700538635254, -8.915594100952148]",1.0,1.0,2.4217187157540112e-06,47.82634735107422,47.82634735107422,0.6803395748138428,"[47.560001373291016, 47.62099838256836, 47.68199920654297, 47.66600036621094, 47.513999938964844, 47.6510009765625]",132,2
4,"[[36223. 36223. 36105. 36105. 36118. 36118. 37373. 37373.]
 [36223. 36223. 36105. 36105. 36118. 36118. 37373. 37373.]
 [28449. 28449. 35828. 35828. 35682. 35682. 36516. 36516.]
 [28449. 28449. 35828. 35828. 35682. 35682. 36516. 36516.]
 [36883. 36883. 35762. 35762. 35944. 35944. 36719. 36719.]
 [36883. 36883. 35762. 35762. 35944. 35944. 36719. 36719.]
 [37184. 37184. 36255. 36255. 36462. 36462. 37036. 37036.]
 [37184. 37184. 36255. 36255. 36462. 36462. 37036. 37036.]]",,1677767625.5447135,['-X'],"[-0.36845758171216425, -0.05326812795170661, 0.13201489224480134, -0.17758782167981144, -3.1132315623717473, -0.05390832827068722]",-1,"[-0.36888, -0.0535, 0.13255524020282056, -0.17771115448095112, -3.112107685339881, -0.05426099229656482]",1677767625.4687092,1677767745.4687092,-1,starting,"('starting', (-0.36888, -0.0535), 0, 6, -0.015)",1,167860.848,"[-0.13510446864782555, -1.8209292592305522, 2.210946969723363, 4.297460053306688, -1.6009486360097007, -1.5923893960742488]","[1.0204728118990714e-06, 7.486958088516113e-06, -5.387469202154781e-06, -2.083876629776492e-06, -2.2353581334257344e-08, 1.0211959496011527e-06]",0,"[1.6187645395531705e-05, 0.00012204601477147222, -8.871901308314384e-05, -3.4977297476162376e-05, -3.7195372598006313e-07, 1.74647227812993e-05]","[-1.0664218551653147e-07, -0.573358366073177, -1.4069190510188734, -0.1787582376140248, -0.0012370258918538814, 4.480330807279797e-07]","[-1.194203155656437e-06, -6.51604402988642, -15.971726997588593, -1.4898604254849568, -0.01040723228186303, 3.6997996494902733e-06]","[-0.13505584398378545, -1.8209293524371546, 2.210911273956299, 4.29744815826416, -1.6009605566607874, -1.5923774878131312]","[0.0, 0.0, -0.0, 0.0, 0.0, 0.0]","[-0.14795950055122375, -0.4192185699939728, -1.2531720399856567, -0.1326785832643509, 0.04422619566321373, -0.06557676941156387]","[-0.14795950055122375, -0.4057677090167999, -1.2442048788070679, -0.1525041162967682, 0.04880131781101227, -0.06710181385278702]","[-0.373429376127848, -0.05327373419255586, 0.13198475933574383, -0.17762799659737938, -3.113313016580563, -0.05391715239395327]","[0.0, 0.0, 0.0, 0.0, 0.0, 0.0]","[0.32652941081823667, -6.75211979705321, 4.707682731160718, 1.871282267042642, -0.023083735969296963, -0.6473579391286075]","[-0.3684166725068825, -0.05326055814989322, 0.1319669132286818, -0.1776865611417614, -3.1133577893222952, -0.05389467443290118]","[-2.6883876240262546e-06, -4.083179921894152e-09, 2.5384061444583533e-08, 2.3917851250905438e-09, 1.7583273447799846e-08, 2.0854063454877868e-08]",65536,"[35.82998275756836, 35.629981994628906, 34.549983978271484, 41.32998275756836, 43.019981384277344, 46.4699821472168]",0.5768759999999999,7,"[253, 253, 253, 253, 253, 253]",1,"[0.2846996486186981, 1.1987353563308716, -8.765751838684082]",1.0,1.0,2.0945722057198924e-05,47.88711929321289,47.82634735107422,0.6445291042327881,"[47.60599899291992, 47.62099838256836, 47.68199920654297, 47.66600036621094, 47.513999938964844, 47.6510009765625]",132,2
5,"[[36225. 36225. 36107. 36107. 36118. 36118. 37368. 37368.]
 [36225. 36225. 36107. 36107. 36118. 36118. 37368. 37368.]
 [28449. 28449. 35830. 35830. 35680. 35680. 36515. 36515.]
 [28449. 28449. 35830. 35830. 35680. 35680. 36515. 36515.]
 [36884. 36884. 35762. 35762. 35944. 35944. 36716. 36716.]
 [36884. 36884. 35762. 35762. 35944. 35944. 36716. 36716.]
 [37188. 37188. 36254. 36254. 36462. 36462. 37034. 37034.]
 [37188. 37188. 36254. 36254. 36462. 36462. 37034. 37034.]]",,1677767625.5614574,['-X'],"[-0.36845758171216425, -0.05326812795170661, 0.13201489224480134, -0.17758782167981144, -3.1132315623717473, -0.05390832827068722]",-1,"[-0.36888, -0.0535, 0.13255524020282056, -0.17771115448095112, -3.112107685339881, -0.05426099229656482]",1677767625.4687092,1677767745.4687092,-1,starting,"('starting', (-0.36888, -0.0535), 0, 6, -0.015)",1,167860.864,"[-0.13510441548213858, -1.8209288691723087, 2.2109466887956906, 4.297459944792816, -1.600948637301741, -1.5923893428239655]","[3.529844385510361e-06, 2.588837523136813e-05, -1.8662825562180157e-05, -7.19534272187288e-06, -9.586179933245824e-08, 3.5359300375153576e-06]",0,"[-0.00010178894790421779, -0.000749039767817554, 0.0005350344990833097, 0.00021010171879960702, -8.206969583632788e-08, -0.00010183198234934592]","[8.939939610752014e-08, -0.5725518195362292, -1.4076667067003017, -0.17875081354887332, -0.0012371929927655655, -2.6123573411349886e-06]","[1.0011145254410641e-06, -6.518472904037973, -15.970308769081125, -1.4897985496183503, -0.010408638119860326, -2.157251147475589e-05]","[-0.1350320021258753, -1.8209417502032679, 2.210911273956299, 4.297436237335205, -1.6009486357318323, -1.5924013296710413]","[0.0, 0.0, -0.0, 0.0, 0.0, 0.0]","[-0.14347587525844574, -0.3990422785282135, -1.2060940265655518, -0.17537973821163177, 0.053376439958810806, -0.06710181385278702]","[-0.14795950055122375, -0.40800952911376953, -1.1881595849990845, -0.15402916073799133, 0.04880131781101227, -0.06710181385278702]","[-0.3734305389534565, -0.05328485932214799, 0.13199030474085516, -0.17755271879095078, -3.1132923657661333, -0.05390116731523437]","[0.0, 0.0, 0.0, 0.0, 0.0, 0.0]","[0.1393415557104938, -6.732546152859583, 7.407983390878749, 1.8417385565238107, -0.737029389181417, -0.6864756947946085]","[-0.368416812643364, -0.05326055832412015, 0.1319669146622507, -0.17768655948971, -3.1133577882822987, -0.0538946747283511]","[-9.305492694520922e-06, -9.114931695998655e-09, 1.0264538346770298e-07, 2.9766637011354078e-08, 8.20293898508044e-08, 6.807916611627502e-08]",65536,"[35.82998275756836, 35.629981994628906, 34.549983978271484, 41.32998275756836, 43.019981384277344, 46.4699821472168]",0.57852,7,"[253, 253, 253, 253, 253, 253]",1,"[0.38958898186683655, 1.1537827253341675, -8.92458438873291]",1.0,1.0,7.761823727945593e-05,47.82634735107422,47.82634735107422,0.6445291042327881,"[47.60599899291992, 47.62099838256836, 47.68199920654297, 47.66600036621094, 47.513999938964844, 47.6510009765625]",132,2
6,"[[36223. 36223. 36106. 36106. 36121. 36121. 37368. 37368.]
 [36223. 36223. 36106. 36106. 36121. 36121. 37368. 37368.]
 [28452. 28452. 35829. 35829. 35683. 35683. 36517. 36517.]
 [28452. 28452. 35829. 35829. 35683. 35683. 36517. 36517.]
 [36885. 36885. 35760. 35760. 35947. 35947. 36720. 36720.]
 [36885. 36885. 35760. 35760. 35947. 35947. 36720. 36720.]
 [37185. 37185. 36256. 36256. 36464. 36464. 37035. 37035.]
 [37185. 37185. 36256. 36256. 36464. 36464. 37035. 37035.]]",,1677767625.5751522,['-X'],"[-0.36845758171216425, -0.05326812795170661, 0.13201489224480134, -0.17758782167981144, -3.1132315623717473, -0.05390832827068722]",-1,"[-0.36888, -0.0535, 0.13255524020282056, -0.17771115448095112, -3.112107685339881, -0.05426099229656482]",1677767625.4687092,1677767745.4687092,-1,starting,"('starting', (-0.36888, -0.0535), 0, 6, -0.015)",1,167860.872,"[-0.13510432876459966, -1.8209282332287904, 2.210946230237788, 4.2974597680825894, -1.600948639719384, -1.5923892559540072]","[1.2388219809109603e-05, 9.084907400424045e-05, -6.550827182060214e-05, -2.5244318111788445e-05, -3.4537771690722365e-07, 1.2409994027284825e-05]",0,"[0.0011072969279499053, 0.00812008734660904, -0.005855680782302748, -0.0022561219237394454, -3.118948969684568e-05, 0.0011092579987211832]","[0.0006529755988327787, -0.5678308444467159, -1.411137189056222, -0.17933000439640712, -0.001236196783193708, 0.00026487983053285124]","[-4.909212962022572e-06, -6.493916239218738, -15.984841698720166, -1.4904248910353566, -0.010400256901258507, 0.00023498983672717613]","[-0.1350320021258753, -1.8209055105792444, 2.210923194885254, 4.29744815826416, -1.600924317036764, -1.5924013296710413]","[0.0, 0.0, -0.0, 0.0, 0.0, 0.0]","[-0.14123407006263733, -0.3990422785282135, -1.1702251434326172, -0.16012932360172272, 0.0564265251159668, -0.06710181385278702]","[-0.15020130574703217, -0.4012840986251831, -1.181434154510498, -0.1525041162967682, 0.04880131781101227, -0.06710181385278702]","[-0.373425847106771, -0.05329096729671264, 0.13197044218403914, -0.17755406938189613, -3.1133511335672583, -0.05385702504062015]","[0.0, 0.0, 0.0, 0.0, 0.0, 0.0]","[-1.136735668535214, -6.891472468099599, 7.868952398595281, 1.916456132774741, -0.9205685897597599, -0.6969439384507341]","[-0.3684170412595465, -0.0532605585327723, 0.1319669172302466, -0.17768655681502823, -3.113357786270028, -0.053894675727017255]","[-3.265945727399918e-05, -2.9821109600790826e-08, 3.668449656082661e-07, 1.1459866707455998e-07, 2.961394040153382e-07, 2.3827006365581382e-07]",65536,"[35.82998275756836, 35.629981994628906, 34.549983978271484, 41.32998275756836, 43.019981384277344, 46.4699821472168]",0.38195999999999997,7,"[253, 253, 253, 253, 253, 253]",1,"[0.31766486167907715, 1.1567796468734741, -8.80471134185791]",1.0,1.0,0.00027806561772470903,47.88711929321289,47.82634735107422,0.7877604365348816,"[47.60599899291992, 47.62099838256836, 47.696998596191406, 47.66600036621094, 47.513999938964844, 47.6510009765625]",132,2
7,"[[36224. 36224. 36109. 36109. 36120. 36120. 37370. 37370.]
 [36224. 36224. 36109. 36109. 36120. 36120. 37370. 37370.]
 [28453. 28453. 35830. 35830. 35680. 35680. 36516. 36516.]
 [28453. 28453. 35830. 35830. 35680. 35680. 36516. 36516.]
 [36881. 36881. 35762. 35762. 35947. 35947. 36721. 36721.]
 [36881. 36881. 35762. 35762. 35947. 35947. 36721. 36721.]
 [37186. 37186. 36255. 36255. 36460. 36460. 37034. 37034.]
 [37186. 37186. 36255. 36255. 36460. 36460. 37034. 37034.]]",,1677767625.5901175,['-X'],"[-0.36845758171216425, -0.05326812795170661, 0.13201489224480134, -0.17758782167981144, -3.1132315623717473, -0.05390832827068722]",-1,"[-0.36888, -0.0535, 0.13255524020282056, -0.17771115448095112, -3.112107685339881, -0.05426099229656482]",1677767625.4687092,1677767745.4687092,-1,starting,"('starting', (-0.36888, -0.0535), 0, 6, -0.015)",1,167860.888,"[-0.13510406665396957, -1.820926333281359, 2.210944859067393, 4.297459238324356, -1.6009486455985993, -1.5923889991025755]","[2.7569441371005777e-05, 0.00019973972147283318, -0.00014415532749781712, -5.5701381986082794e-05, -6.11877145438797e-07, 2.6990182508427812e-05]",0,"[0.002328024182418432, 0.016849510240410072, -0.012161469980236454, -0.00470022248169748, -5.057975534063921e-05, 0.0022747512226666024]","[0.0014596413786827278, -0.5614174672472597, -1.4160779037002307, -0.18001267380092298, -0.0012348875401363615, 0.0005725466505096763]","[6.147341463525781e-05, -6.469804726389173, -15.999183980127656, -1.491046198728776, -0.010389242098172373, 0.0004818927778980379]","[-0.13506824174989873, -1.8209293524371546, 2.210923194885254, 4.29742431640625, -1.6009486357318323, -1.592353645955221]","[0.0, 0.0, -0.0, 0.0, 0.0, 0.0]","[-0.1591685563325882, -0.38559141755104065, -1.2374794483184814, -0.163179412484169, 0.04422619566321373, -0.06405173242092133]","[-0.15020130574703217, -0.38334959745407104, -1.2374794483184814, -0.1525041162967682, 0.04880131781101227, -0.06710181385278702]","[-0.3734312317937675, -0.053271677063424415, 0.13198154332173798, -0.1776836861344556, -3.113297101716732, -0.05389967291795448]","[0.0, 0.0, 0.0, 0.0, 0.0, 0.0]","[0.6317855982603242, -7.1534224924247365, 6.479283248825048, 1.8866058624380238, -0.40130207190118883, -0.6524195061411631]","[-0.3684177249820188, -0.05326056045817845, 0.13196692562095585, -0.1776865397945824, -3.1133577776977868, -0.05389467693068295]","[-7.188239326570837e-05, -2.0844001895087624e-07, 8.853510267845925e-07, 1.565048904449849e-07, 9.865288907836164e-07, 1.155080098007252e-06]",65536,"[35.82998275756836, 35.629981994628906, 34.549983978271484, 41.32998275756836, 43.019981384277344, 46.4699821472168]",0.380076,7,"[253, 253, 253, 253, 253, 253]",1,"[0.43753838539123535, 1.1537827253341675, -8.915594100952148]",1.0,1.0,0.0006285714047952213,47.88711929321289,47.82634735107422,0.7519552707672119,"[47.60599899291992, 47.62099838256836, 47.696998596191406, 47.66600036621094, 47.513999938964844, 47.6510009765625]",132,2
8,"[[36220. 36220. 36107. 36107. 36120. 36120. 37368. 37368.]
 [36220. 36220. 36107. 36107. 36120. 36120. 37368. 37368.]
 [28453. 28453. 35827. 35827. 35683. 35683. 36517. 36517.]
 [28453. 28453. 35827. 35827. 35683. 35683. 36517. 36517.]
 [36882. 36882. 35762. 35762. 35949. 35949. 36719. 36719.]
 [36882. 36882. 35762. 35762. 35949. 35949. 36719. 36719.]
 [37184. 37184. 36252. 36252. 36464. 36464. 37033. 37033.]
 [37184. 37184. 36252. 36252. 36464. 36464. 37033. 37033.]]",,1677767625.60707,['-X'],"[-0.36845758171216425, -0.05326812795170661, 0.13201489224480134, -0.17758782167981144, -3.1132315623717473, -0.05390832827068722]",-1,"[-0.36888, -0.0535, 0.13255524020282056, -0.17771115448095112, -3.112107685339881, -0.05426099229656482]",1677767625.4687092,1677767745.4687092,-1,starting,"('starting', (-0.36888, -0.0535), 0, 6, -0.015)",1,167860.90399999998,"[-0.13510354820645087, -1.8209225724053137, 2.2109421530641384, 4.297458194302946, -1.6009486513812803, -1.592388492436024]","[5.209232479172578e-05, 0.00037791256201423625, -0.00027186274987063, -0.00010487954820241723, -5.459694502441446e-07, 5.09031635145053e-05]",0,"[0.004166527303677245, 0.030231742392711508, -0.02173944693114852, -0.008385018594437204, -3.767127367032477e-05, 0.004070483655715743]","[0.002755709371991234, -0.551141651607189, -1.4239655867108016, -0.18110642188140108, -0.0012318414167262833, 0.0010741804759566377]","[9.040975534183905e-05, -6.432837959765411, -16.02093631528191, -1.4919781940875483, -0.010363614733299359, 0.0008623082193322163]","[-0.13505584398378545, -1.8209174315081995, 2.210923194885254, 4.297483921051025, -1.600924317036764, -1.5923894087420862]","[0.0, 0.0, -0.0, 0.0, 0.0, 0.0]","[-0.2084883749485016, -0.3721405565738678, -1.2195448875427246, -0.15860427916049957, 0.042701154947280884, -0.06405173242092133]","[-0.20624656975269318, -0.3698987364768982, -1.226270318031311, -0.14792899787425995, 0.050326358526945114, -0.06710181385278702]","[-0.3734188147523985, -0.0532833034094283, 0.13197111983336515, -0.1776106695903559, -3.113371958864174, -0.05385469835266002]","[0.0, 0.0, 0.0, 0.0, 0.0, 0.0]","[-0.1911097447205638, -9.049997736537104, 7.007361485413549, 2.2904250125981287, -0.5808740817139735, -0.6717133682597142]","[-0.36841907458450335, -0.05326056595679899, 0.13196693793240874, -0.1776865042790828, -3.1133577733653413, -0.05389466889390545]","[-0.0001355915651942416, -5.622108112105988e-07, 1.2101872680624285e-06, -4.945894365266542e-07, 5.643532924202425e-07, 2.291379985666849e-06]",65536,"[35.82998275756836, 35.629981994628906, 34.549983978271484, 41.32998275756836, 43.019981384277344, 46.4699821472168]",0.404676,7,"[253, 253, 253, 253, 253, 253]",1,"[0.3686111271381378, 1.2107226848602295, -8.861651420593262]",1.0,1.0,0.0012107877465496926,47.88711929321289,47.82634735107422,0.7877604365348816,"[47.60599899291992, 47.66600036621094, 47.696998596191406, 47.66600036621094, 47.529998779296875, 47.6510009765625]",132,2
9,"[[36224. 36224. 36108. 36108. 36120. 36120. 37371. 37371.]
 [36224. 36224. 36108. 36108. 36120. 36120. 37371. 37371.]
 [28451. 28451. 35828. 35828. 35683. 35683. 36517. 36517.]
 [28451. 28451. 35828. 35828. 35683. 35683. 36517. 36517.]
 [36888. 36888. 35763. 35763. 35945. 35945. 36718. 36718.]
 [36888. 36888. 35763. 35763. 35945. 35945. 36718. 36718.]
 [37182. 37182. 36256. 36256. 36463. 36463. 37032. 37032.]
 [37182. 37182. 36256. 36256. 36463. 36463. 37032. 37032.]]",,1677767625.6190724,['-X'],"[-0.36845758171216425, -0.05326812795170661, 0.13201489224480134, -0.17758782167981144, -3.1132315623717473, -0.05390832827068722]",-1,"[-0.36888, -0.0535, 0.13255524020282056, -0.17771115448095112, -3.112107685339881, -0.05426099229656482]",1677767625.4687092,1677767745.4687092,-1,starting,"('starting', (-0.36888, -0.0535), 0, 6, -0.015)",1,167860.91999999998,"[-0.13510264427768437, -1.8209159246275624, 2.210937366002822, 4.297456338672628, -1.6009486691450299, -1.5923875778345167]","[8.743954510561485e-05, 0.000643751261165385, -0.0004636012598694977, -0.00017977514823186487, -1.7821366176308687e-06, 8.871289579339241e-05]",0,"[0.006624067899119456, 0.048889308908913534, -0.035214270544737705, -0.013667139308598551, -0.00014617167145221718, 0.006762694636976629]","[0.004600603031097171, -0.5361314301062945, -1.4356322187251738, -0.18276279465723633, -0.0012309676809164202, 0.0018635588569879055]","[-0.0001287279578260428, -6.381353589354903, -16.051590932165453, -1.4933195850836634, -0.010356263899670001, 0.0014326374120456815]","[-0.13505584398378545, -1.8209293524371546, 2.210923194885254, 4.297436237335205, -1.6009486357318323, -1.5923774878131312]","[0.0, 0.0, -0.0, 0.0, 0.0, 0.0]","[-0.22866468131542206, -0.3923168480396271, -1.228512167930603, -0.1494540423154831, 0.0564265251159668, -0.07472702115774155]","[-0.21969743072986603, -0.39007502794265747, -1.2397211790084839, -0.14792899787425995, 0.04880131781101227, -0.06862685084342957]","[-0.3734279722052485, -0.053276597076865564, 0.1319803471904363, -0.17762770770146868, -3.1133124161150842, -0.05389861658443022]","[0.0, 0.0, 0.0, 0.0, 0.0, 0.0]","[-1.73989180859141, -10.356076688465665, 6.263386225038432, 2.736041826117279, -0.7661876269402481, -0.7939906520466797]","[-0.3684214642501738, -0.05326056892304357, 0.13196696256157037, -0.17768649020000582, -3.1133577491072844, -0.05389466779471457]","[-0.00023144255675277577, -2.3485296193655484e-07, 2.4095907434615997e-06, 1.7921178609012843e-07, 2.5218380718366876e-06, 5.881637496263142e-07]",65536,"[35.82998275756836, 35.629981994628906, 34.549983978271484, 41.32998275756836, 43.019981384277344, 46.4699821472168]",0.38091699999999995,7,"[253, 253, 253, 253, 253, 253]",1,"[0.3746047914028168, 1.1477891206741333, -8.858654022216797]",1.0,1.0,0.0020909976249222934,47.82634735107422,47.82634735107422,0.6803395748138428,"[47.560001373291016, 47.66600036621094, 47.696998596191406, 47.66600036621094, 47.529998779296875, 47.6510009765625]",132,2
10,"[[36223. 36223. 36109. 36109. 36119. 36119. 37370. 37370.]
 [36223. 36223. 36109. 36109. 36119. 36119. 37370. 37370.]
 [28448. 28448. 35827. 35827. 35681. 35681. 36517. 36517.]
 [28448. 28448. 35827. 35827. 35681. 35681. 36517. 36517.]
 [36885. 36885. 35760. 35760. 35948. 35948. 36718. 36718.]
 [36885. 36885. 35760. 35760. 35948. 35948. 36718. 36718.]
 [37186. 37186. 36253. 36253. 36462. 36462. 37031. 37031.]
 [37186. 37186. 36253. 36253. 36462. 36462. 37031. 37031.]]",,1677767625.6365235,['-X'],"[-0.36845758171216425, -0.05326812795170661, 0.13201489224480134, -0.17758782167981144, -3.1132315623717473, -0.05390832827068722]",-1,"[-0.36888, -0.0535, 0.13255524020282056, -0.17771115448095112, -3.112107685339881, -0.05426099229656482]",1677767625.4687092,1677767745.4687092,-1,starting,"('starting', (-0.36888, -0.0535), 0, 6, -0.015)",1,167860.936,"[-0.13510176044383204, -1.8209094342910381, 2.210932692800192, 4.297454537782681, -1.6009486838860294, -1.5923866914842355]","[5.9378600460173865e-05, 0.000435711955531099, -0.0003137856460965819, -0.00012118906009077689, -1.1602065920402047e-06, 5.951310379362234e-05]",0,"[8.145983088323446e-05, 0.0005159443598757779, -0.0003870960820179199, -0.00021606560417934873, -4.39189719670316e-05, 7.303301174111187e-05]","[0.0031341532185729807, -0.5561511285922663, -1.4216488863969763, -0.1811833726780486, -0.0012380377286818499, 0.0011356595684629822]","[2.453929205564596e-05, -6.5156630139775595, -15.972381713296903, -1.4899054265091993, -0.01041574497425642, 1.5471617535797063e-05]","[-0.13506824174989873, -1.8209055105792444, 2.210947036743164, 4.297436237335205, -1.6009724775897425, -1.5923894087420862]","[0.0, 0.0, -0.0, 0.0, 0.0, 0.0]","[-0.2398737221956253, -0.36317330598831177, -1.2486884593963623, -0.1891051083803177, 0.04727627709507942, -0.07167693227529526]","[-0.23314829170703888, -0.3676569163799286, -1.2554138898849487, -0.15707923471927643, 0.05185139924287796, -0.06862685084342957]","[-0.3734201979134616, -0.05326782311543665, 0.13196094802493888, -0.17763049496101727, -3.113361606562555, -0.0539311440238267]","[0.0, 0.0, 0.0, 0.0, 0.0, 0.0]","[1.1526492567498594, -10.147074026891419, 7.295239288424083, 2.5303192088701074, -0.6011660864233324, -0.7486800376377342]","[-0.3684237948019892, -0.05326057322307001, 0.13196698526375758, -0.17768646449809045, -3.1133577373436414, -0.05389466157337136]","[-0.00015653438881485073, -2.559939803530107e-07, 1.582766556199089e-06, 2.116873596677957e-08, 1.2150013206922884e-06, 1.1248720002362308e-06]",65536,"[35.82998275756836, 35.629981994628906, 34.549983978271484, 41.32998275756836, 43.019981384277344, 46.4699821472168]",0.587028,7,"[253, 253, 253, 253, 253, 253]",1,"[0.41056686639785767, 1.1627732515335083, -8.843669891357422]",1.0,1.0,0.0014286462108031607,47.88711929321289,47.82634735107422,0.7161448001861572,"[47.560001373291016, 47.66600036621094, 47.696998596191406, 47.66600036621094, 47.529998779296875, 47.6510009765625]",132,2
11,"[[36225. 36225. 36104. 36104. 36121. 36121. 37369. 37369.]
 [36225. 36225. 36104. 36104. 36121. 36121. 37369. 37369.]
 [28454. 28454. 35831. 35831. 35682. 35682. 36515. 36515.]
 [28454. 28454. 35831. 35831. 35682. 35682. 36515. 36515.]
 [36885. 36885. 35762. 35762. 35948. 35948. 36721. 36721.]
 [36885. 36885. 35762. 35762. 35948. 35948. 36721. 36721.]
 [37184. 37184. 36255. 36255. 36463. 36463. 37032. 37032.]
 [37184. 37184. 36255. 36255. 36463. 36463. 37032. 37032.]]",,1677767625.6504872,['-X'],"[-0.36845758171216425, -0.05326812795170661, 0.13201489224480134, -0.17758782167981144, -3.1132315623717473, -0.05390832827068722]",-1,"[-0.36888, -0.0535, 0.13255524020282056, -0.17771115448095112, -3.112107685339881, -0.05426099229656482]",1677767625.4687092,1677767745.4687092,-1,starting,"('starting', (-0.36888, -0.0535), 0, 6, -0.015)",1,167860.952,"[-0.1350981451154043, -1.8208829182649398, 2.210913594395148, 4.297447151293177, -1.6009487611261122, -1.592383069309113]","[0.000322681618755519, 0.0023665586528316745, -0.0017045532988533899, -0.0006593304082243529, -6.943698385641585e-06, 0.00032328259421795423]",0,"[0.02079035661535961, 0.152459350877337, -0.10981478321398977, -0.04249150260293486, -0.00045663227621899755, 0.020827195502722468]","[0.017014099758309486, -0.4430189853442757, -1.5086219916359211, -0.19321625909696974, -0.0012179230902039184, 0.006693133300419401]","[-8.375699283460353e-05, -6.095496555354934, -16.22117973453887, -1.5006364668664118, -0.010246518350720024, 0.004412119882220387]","[-0.13506824174989873, -1.820953671132223, 2.210923194885254, 4.297436237335205, -1.6009367148028772, -1.592365566884176]","[0.0, 0.0, -0.0, 0.0, 0.0, 0.0]","[-0.25108277797698975, -0.2914353609085083, -1.2867993116378784, -0.15555420517921448, 0.04727627709507942, -0.07015189528465271]","[-0.2421155422925949, -0.2891935706138611, -1.3069756031036377, -0.16012932360172272, 0.050326358526945114, -0.06710181385278702]","[-0.37342796134342704, -0.05327478593133294, 0.13198896212212205, -0.1776645838793283, -3.1132853753038, -0.05388262516057172]","[0.0, 0.0, 0.0, 0.0, 0.0, 0.0]","[-2.0318526142515667, -11.607275135203968, 6.616339103185125, 2.926790513162349, -0.8139029605466267, -0.8020849935258617]","[-0.3684333240700184, -0.05326058755795527, 0.1319670837500482, -0.17768635328038698, -3.1133576551801787, -0.05389466625739816]","[-0.0008505140447984393, -1.2725980921373578e-06, 8.79473031185426e-06, 9.3004629191224e-07, 7.831271386925592e-06, 6.226443691267338e-06]",65536,"[35.82998275756836, 35.629981994628906, 34.549983978271484, 41.32998275756836, 43.019981384277344, 46.4699821472168]",0.40131599999999995,7,"[253, 253, 253, 253, 253, 253]",1,"[0.3506300747394562, 1.1987353563308716, -8.81669807434082]",1.0,1.0,0.007817154422271686,47.82634735107422,47.82634735107422,0.6445291042327881,"[47.560001373291016, 47.66600036621094, 47.6510009765625, 47.66600036621094, 47.529998779296875, 47.6510009765625]",132,2
12,"[[36224. 36224. 36104. 36104. 36119. 36119. 37368. 37368.]
 [36224. 36224. 36104. 36104. 36119. 36119. 37368. 37368.]
 [28449. 28449. 35829. 35829. 35683. 35683. 36518. 36518.]
 [28449. 28449. 35829. 35829. 35683. 35683. 36518. 36518.]
 [36885. 36885. 35765. 35765. 35945. 35945. 36717. 36717.]
 [36885. 36885. 35765. 35765. 35945. 35945. 36717. 36717.]
 [37185. 37185. 36255. 36255. 36463. 36463. 37035. 37035.]
 [37185. 37185. 36255. 36255. 36463. 36463. 37035. 37035.]]",,1677767625.665955,['-X'],"[-0.36845758171216425, -0.05326812795170661, 0.13201489224480134, -0.17758782167981144, -3.1132315623717473, -0.05390832827068722]",-1,"[-0.36888, -0.0535, 0.13255524020282056, -0.17771115448095112, -3.112107685339881, -0.05426099229656482]",1677767625.4687092,1677767745.4687092,-1,starting,"('starting', (-0.36888, -0.0535), 0, 6, -0.015)",1,167860.968,"[-0.13509561800541636, -1.820864319033559, 2.2109002079051976, 4.297441968831617, -1.6009488215641792, -1.5923805292075741]","[0.00014989778281781477, 0.0011037229180985949, -0.0007951941715565741, -0.00030780020043651987, -3.086750001614674e-06, 0.0001512542196209942]",0,"[-0.004153271876549644, -0.030444189806387453, 0.021709470485391468, 0.008417701256630635, 0.00022404909668612336, -0.004027962052254376]","[0.007906954234642848, -0.5375063330171362, -1.4397356675168906, -0.1846483245987343, -0.0012375110097901296, 0.0027782128835637148]","[2.8665316802629903e-06, -6.603104067059305, -15.922119612506064, -1.4877291303486044, -0.01041131363139652, -0.0008533002656674387]","[-0.1350801626788538, -1.8208578268634241, 2.2108635902404785, 4.29742431640625, -1.600924317036764, -1.5923894087420862]","[0.0, 0.0, -0.0, 0.0, 0.0, 0.0]","[-0.28022632002830505, -0.20624656975269318, -1.3092173337936401, -0.19368022680282593, 0.053376439958810806, -0.05795156583189964]","[-0.24659916758537292, -0.215213805437088, -1.3181846141815186, -0.17995485663414001, 0.050326358526945114, -0.06405173242092133]","[-0.3734574472264456, -0.05326932764800039, 0.13198337632111343, -0.17764620550471205, -3.113310715515944, -0.053861479483103526]","[0.0, 0.0, 0.0, 0.0, 0.0, 0.0]","[6.994820266162313, -10.426999352964115, 8.232818728156222, 2.629488069587929, 0.5733381518616638, -0.5968330431544543]","[-0.36844000524660403, -0.053260593470263684, 0.13196714831669204, -0.17768628844138845, -3.1133576057266157, -0.05389467856151755]","[-0.0003968489746700994, -3.897262695929367e-07, 4.224039294132759e-06, 3.4373191322429795e-07, 4.204272086163366e-06, 1.8329859338518727e-06]",65536,"[35.82998275756836, 35.629981994628906, 34.549983978271484, 41.32998275756836, 43.019981384277344, 46.4699821472168]",0.590917,7,"[253, 253, 253, 253, 253, 253]",1,"[0.4675067663192749, 1.1417953968048096, -8.831682205200195]",1.0,1.0,0.0036680328182131816,47.82634735107422,47.82634735107422,0.6803395748138428,"[47.560001373291016, 47.66600036621094, 47.6510009765625, 47.63600158691406, 47.529998779296875, 47.6510009765625]",132,2
13,"[[36224. 36224. 36109. 36109. 36122. 36122. 37370. 37370.]
 [36224. 36224. 36109. 36109. 36122. 36122. 37370. 37370.]
 [28448. 28448. 35833. 35833. 35681. 35681. 36517. 36517.]
 [28448. 28448. 35833. 35833. 35681. 35681. 36517. 36517.]
 [36884. 36884. 35761. 35761. 35946. 35946. 36719. 36719.]
 [36884. 36884. 35761. 35761. 35946. 35946. 36719. 36719.]
 [37184. 37184. 36255. 36255. 36464. 36464. 37035. 37035.]
 [37184. 37184. 36255. 36255. 36464. 36464. 37035. 37035.]]",,1677767625.6837938,['-X'],"[-0.36845758171216425, -0.05326812795170661, 0.13201489224480134, -0.17758782167981144, -3.1132315623717473, -0.05390832827068722]",-1,"[-0.36888, -0.0535, 0.13255524020282056, -0.17771115448095112, -3.112107685339881, -0.05426099229656482]",1677767625.4687092,1677767745.4687092,-1,starting,"('starting', (-0.36888, -0.0535), 0, 6, -0.015)",1,167860.984,"[-0.13509124944185924, -1.820832055603324, 2.210876944403811, 4.297432971530952, -1.6009488921173585, -1.5923761101986607]","[0.00024195308651318352, 0.0017933357189798117, -0.0012930224382172598, -0.0004996196164874707, -3.353008861190525e-06, 0.00024449944896763745]",0,"[-0.011114737554949588, -0.08047850217170462, 0.058043874143917866, 0.022565122517300487, 0.0003183083275352271, -0.011305042674059348]","[0.012737445617570481, -0.5225953318554459, -1.4557310516913071, -0.18804576639325388, -0.0012453835167390542, 0.0043679377072314875]","[-0.00028354051458923807, -6.742788835861887, -15.839335601476346, -1.4841226181117468, -0.010477545881665147, -0.002394907348185555]","[-0.13506824174989873, -1.820845905934469, 2.2108635902404785, 4.297460079193115, -1.6009605566607874, -1.5923774878131312]","[0.0, 0.0, -0.0, 0.0, 0.0, 0.0]","[-0.25556638836860657, -0.08967242389917374, -1.502013087272644, -0.18758006393909454, 0.045751236379146576, -0.061001647263765335]","[-0.25332459807395935, -0.08518879860639572, -1.504254937171936, -0.18758006393909454, 0.05185139924287796, -0.06252668797969818]","[-0.37344842649130683, -0.053266725878854435, 0.1319757868571972, -0.1776486016601612, -3.1133597519648517, -0.0539123913571123]","[0.0, 0.0, 0.0, 0.0, 0.0, 0.0]","[15.102882580367652, -8.45707502466473, 4.984054524656021, 2.1964764964559675, 2.776648577329842, -0.5517654268698644]","[-0.3684516139136979, -0.05326060347156205, 0.13196728013895062, -0.17768621698153875, -3.113357465947479, -0.05389465185570964]","[-0.0006451956908530877, -3.8070126719371586e-07, 7.234866858284971e-06, -9.96395416635294e-07, 7.495848773056978e-06, 2.676093811296472e-06]",65536,"[35.82998275756836, 35.629981994628906, 34.549983978271484, 41.32998275756836, 43.019981384277344, 46.4699821472168]",0.594804,7,"[253, 253, 253, 253, 253, 253]",1,"[0.3805984556674957, 1.2107226848602295, -8.975530624389648]",1.0,1.0,0.0059907439937027795,47.88711929321289,47.82634735107422,0.7161448001861572,"[47.560001373291016, 47.6510009765625, 47.6510009765625, 47.63600158691406, 47.499000549316406, 47.6510009765625]",132,2
14,"[[36223. 36223. 36106. 36106. 36119. 36119. 37367. 37367.]
 [36223. 36223. 36106. 36106. 36119. 36119. 37367. 37367.]
 [28451. 28451. 35829. 35829. 35682. 35682. 36518. 36518.]
 [28451. 28451. 35829. 35829. 35682. 35682. 36518. 36518.]
 [36882. 36882. 35761. 35761. 35945. 35945. 36720. 36720.]
 [36882. 36882. 35761. 35761. 35945. 35945. 36720. 36720.]
 [37185. 37185. 36258. 36258. 36460. 36460. 37031. 37031.]
 [37185. 37185. 36258. 36258. 36460. 36460. 37031. 37031.]]",,1677767625.6950562,['-X'],"[-0.36845758171216425, -0.05326812795170661, 0.13201489224480134, -0.17758782167981144, -3.1132315623717473, -0.05390832827068722]",-1,"[-0.36888, -0.0535, 0.13255524020282056, -0.17771115448095112, -3.112107685339881, -0.05426099229656482]",1677767625.4687092,1677767745.4687092,-1,starting,"('starting', (-0.36888, -0.0535), 0, 6, -0.015)",1,167860.992,"[-0.13508761945018666, -1.8208050470475081, 2.2108574717810825, 4.297425454823834, -1.6009489334988558, -1.5923724459874276]","[0.000474373911767578, 0.0035295271804714244, -0.002544717742976351, -0.0009822969530383955, -5.407809210429082e-06, 0.0004788457861541819]",0,"[0.02905260315679931, 0.2170239326864516, -0.1564619130948864, -0.060334667068865595, -0.0002568500436548196, 0.029293292148318054]","[0.024898838700813858, -0.3815875423833829, -1.5572816367907114, -0.20021068643458834, -0.0012006570471135287, 0.009873922983530067]","[-0.0014094715051900311, -5.91917574321619, -16.327182277298775, -1.5051805598670553, -0.010101257267493183, 0.006205613073848078]","[-0.1350920836078089, -1.8208697477923792, 2.2108635902404785, 4.297412395477295, -1.6009605566607874, -1.5923774878131312]","[0.0, 0.001597896683961153, -0.0, 0.0, 0.0, 0.0]","[-0.25108277797698975, -0.17710302770137787, -1.3966479301452637, -0.15555420517921448, 0.050326358526945114, -0.06252668797969818]","[-0.2622918486595154, -0.19727933406829834, -1.4100987911224365, -0.18758006393909454, 0.050326358526945114, -0.06405173242092133]","[-0.37345908200937633, -0.05325665823729299, 0.1319891031726535, -0.17768334409594946, -3.1132866220768998, -0.05392036878321786]","[-6.775679855570848e-05, 8.474703753107366e-06, -0.0005718262244838768, -0.0002151787744968588, -0.001583340703048944, 2.0311791043156093e-06]","[1.3290660225845006, -11.188080920824023, 5.637441933676535, 2.8910922846819753, 0.08297455659858774, -0.7280209201510734]","[-0.36846132988408065, -0.05326060638689565, 0.13196738765862676, -0.1776861449628264, -3.1133573668031804, -0.053894601304818934]","[-0.0012697046361044204, -3.852120875296423e-07, 1.4031782553384159e-05, -3.247960379873853e-06, 1.3692285096249208e-05, 5.831551273849736e-06]",65536,"[35.82998275756836, 35.629981994628906, 34.549983978271484, 41.32998275756836, 43.019981384277344, 46.4699821472168]",0.433344,7,"[253, 253, 253, 253, 253, 253]",1,"[0.5304403901100159, 1.168766975402832, -9.161334991455078]",1.0,1.0,0.011816874226639261,47.82634735107422,47.82634735107422,0.7161448001861572,"[47.560001373291016, 47.6510009765625, 47.6510009765625, 47.63600158691406, 47.499000549316406, 47.6510009765625]",132,2
15,"[[36223. 36223. 36107. 36107. 36118. 36118. 37365. 37365.]
 [36223. 36223. 36107. 36107. 36118. 36118. 37365. 37365.]
 [28450. 28450. 35827. 35827. 35684. 35684. 36518. 36518.]
 [28450. 28450. 35827. 35827. 35684. 35684. 36518. 36518.]
 [36885. 36885. 35765. 35765. 35946. 35946. 36722. 36722.]
 [36885. 36885. 35765. 35765. 35946. 35946. 36722. 36722.]
 [37187. 37187. 36255. 36255. 36463. 36463. 37030. 37030.]
 [37187. 37187. 36255. 36255. 36463. 36463. 37030. 37030.]]",,1677767625.7106433,['-X'],"[-0.36845758171216425, -0.05326812795170661, 0.13201489224480134, -0.17758782167981144, -3.1132315623717473, -0.05390832827068722]",-1,"[-0.36888, -0.0535, 0.13255524020282056, -0.17771115448095112, -3.112107685339881, -0.05426099229656482]",1677767625.4687092,1677767745.4687092,-1,starting,"('starting', (-0.36888, -0.0535), 0, 6, -0.015)",1,167861.008,"[-0.13507690016797902, -1.8207251909398492, 2.2107999042576303, 4.297403268363404, -1.6009490670637803, -1.5923616315773437]","[0.0005427910149835713, 0.004040904589330008, -0.002912583311953922, -0.0011204589555706666, -8.596059908657183e-06, 0.0005475511791438874]",0,"[-0.038955153766110126, -0.2908971504583341, 0.2098219275652702, 0.08137745094483648, 2.6805291039570128e-05, -0.03931507589054645]","[0.028800758253217602, -0.4855200955883189, -1.5010996934197933, -0.19865049623846226, -0.0012938938716184588, 0.009422759292517312]","[0.0018607882238289436, -7.329914323655906, -15.493879029649232, -1.4691822927934155, -0.010885668730693765, -0.008328669502574595]","[-0.13510448137392217, -1.8207977453814905, 2.2108635902404785, 4.297388553619385, -1.6009367148028772, -1.592365566884176]","[0.0, 0.012578642927110195, -0.005292234010994434, -7.190534961409867e-05, 0.0, 0.0]","[-0.09639785438776016, 0.14123407006263733, -1.7329195737838745, -0.28060758113861084, 0.05795156583189964, -0.024400658905506134]","[-0.10312328487634659, 0.14347587525844574, -1.7553377151489258, -0.23790642619132996, 0.050326358526945114, -0.02592569962143898]","[-0.3734687124700948, -0.0532562587022812, 0.13196555402956403, -0.1777219515920217, -3.1133313697194565, -0.05387827446759763]","[-0.002485739036838553, 0.00032977061782138206, -0.002043303716439387, -0.0009698825790534621, -0.007149007425173831, 2.243929477689901e-05]","[28.10936262330477, -0.611698988691447, 5.4750584555836435, 0.45490994530077883, 4.814773884479583, -0.1504495702817926]","[-0.36849004687176007, -0.05326060941696156, 0.13196769681091824, -0.17768592447718914, -3.1133571205316226, -0.053894465068717326]","[-0.0014524278822171893, 1.2014867553736074e-08, 1.5152827441514733e-05, -1.9986491655365168e-06, 1.038814882189503e-05, 6.964004119871582e-06]",65536,"[35.82998275756836, 35.629981994628906, 34.549983978271484, 41.32998275756836, 43.019981384277344, 46.4699821472168]",0.637081,7,"[253, 253, 253, 253, 253, 253]",1,"[0.5634056329727173, 1.1597764492034912, -8.945562362670898]",1.0,1.0,0.013577883753786069,47.88711929321289,47.82634735107422,0.7519552707672119,"[47.560001373291016, 47.6510009765625, 47.6510009765625, 47.63600158691406, 47.499000549316406, 47.6510009765625]",132,2
16,"[[36224. 36224. 36105. 36105. 36119. 36119. 37367. 37367.]
 [36224. 36224. 36105. 36105. 36119. 36119. 37367. 37367.]
 [28448. 28448. 35831. 35831. 35683. 35683. 36518. 36518.]
 [28448. 28448. 35831. 35831. 35683. 35683. 36518. 36518.]
 [36882. 36882. 35763. 35763. 35948. 35948. 36720. 36720.]
 [36882. 36882. 35763. 35763. 35948. 35948. 36720. 36720.]
 [37184. 37184. 36256. 36256. 36463. 36463. 37031. 37031.]
 [37184. 37184. 36256. 36256. 36463. 36463. 37031. 37031.]]",,1677767625.7265835,['-X'],"[-0.36845758171216425, -0.05326812795170661, 0.13201489224480134, -0.17758782167981144, -3.1132315623717473, -0.05390832827068722]",-1,"[-0.36888, -0.0535, 0.13255524020282056, -0.17771115448095112, -3.112107685339881, -0.05426099229656482]",1677767625.4687092,1677767745.4687092,-1,starting,"('starting', (-0.36888, -0.0535), 0, 6, -0.015)",1,167861.024,"[-0.13506746634356936, -1.820654594133524, 2.2107489856478786, 4.297383611527156, -1.6009492926313769, -1.5923520414035357]","[0.0007936393187951429, 0.005944247228274762, -0.004287824054316099, -0.0016562527635087959, -2.005092995369499e-05, 0.0008078311594708671]",0,"[0.0452571532889781, 0.3399644908003056, -0.24532264659707753, -0.0949463153128579, -0.0013509721864895386, 0.04626706384917476]","[0.041618433292618565, -0.2566206075398839, -1.6567034365914712, -0.2147248845741653, -0.0015956122504235282, 0.016576748153114565]","[-0.002834153647778337, -5.58366430613015, -16.529125550974694, -1.513975872862249, -0.010133484121345715, 0.00980140760066424]","[-0.13505584398378545, -1.8207619825946253, 2.21079158782959, 4.297364234924316, -1.600924317036764, -1.5924137274371546]","[0.0, 0.004704207647591829, 0.0008692558039911091, -0.003499393817037344, 0.0, 0.0]","[-0.1322668194770813, -0.41025131940841675, -1.4370005130767822, -0.20740559697151184, 0.05185139924287796, -0.035075947642326355]","[-0.1569267362356186, -0.41473495960235596, -1.4235496520996094, -0.21808089315891266, 0.050326358526945114, -0.030500823631882668]","[-0.3734996667397674, -0.05327245533823345, 0.1319884518845555, -0.17756878928249112, -3.1132788761992822, -0.053865382692853854]","[-0.0006442979561493658, 8.55095683910123e-05, -0.0017351012279917003, -0.00027652625329557286, -0.002055563315353597, 1.396377987776936e-05]","[-12.101348914609948, -9.404319547144365, 3.0976508004431262, 2.5270845714862555, -2.9710605187053, -0.6375889316276843]","[-0.36851545247349143, -0.05326057063840513, 0.13196798513429908, -0.17768584201651952, -3.1133568332287505, -0.05389451934196542]","[-0.0021395984646062354, 3.7911138349723345e-06, 2.4537974608397762e-05, 5.887871842535513e-06, 2.5658493797590603e-05, 2.8969306661180173e-06]",65536,"[35.82998275756836, 35.629981994628906, 34.549983978271484, 41.32998275756836, 43.019981384277344, 46.4699821472168]",0.45974400000000004,7,"[253, 253, 253, 253, 253, 253]",1,"[-0.5094625353813171, 1.2676626443862915, -7.887678623199463]",1.0,1.0,0.02004278260492691,47.82634735107422,47.82634735107422,0.7161448001861572,"[47.560001373291016, 47.6510009765625, 47.66600036621094, 47.63600158691406, 47.499000549316406, 47.68199920654297]",132,2
17,"[[36222. 36222. 36108. 36108. 36120. 36120. 37367. 37367.]
 [36222. 36222. 36108. 36108. 36120. 36120. 37367. 37367.]
 [28450. 28450. 35829. 35829. 35681. 35681. 36517. 36517.]
 [28450. 28450. 35829. 35829. 35681. 35681. 36517. 36517.]
 [36884. 36884. 35763. 35763. 35944. 35944. 36717. 36717.]
 [36884. 36884. 35763. 35763. 35944. 35944. 36717. 36717.]
 [37184. 37184. 36257. 36257. 36461. 36461. 37031. 37031.]
 [37184. 37184. 36257. 36257. 36461. 36461. 37031. 37031.]]",,1677767625.742687,"['-X', '-Y']","[-0.36845758171216425, -0.05326812795170661, 0.13201489224480134, -0.17758782167981144, -3.1132315623717473, -0.05390832827068722]",-1,"[-0.36888, -0.0535, 0.13255524020282056, -0.17771115448095112, -3.112107685339881, -0.05426099229656482]",1677767625.4687092,1677767745.4687092,-1,starting,"('starting', (-0.36888, -0.0535), 0, 6, -0.015)",1,167861.03999999998,"[-0.135054660137647, -1.820557900728227, 2.2106794259018088, 4.297356629810757, -1.600949549896189, -1.5923388831955858]","[0.0010444968658555097, 0.007899060236080502, -0.005679425614524803, -0.0022048265455135883, -1.9909970935804652e-05, 0.0010751981025569604]",0,"[0.05378299611404008, 0.40923479443282407, -0.29363756571752414, -0.1143548822478504, -0.0008120284252075327, 0.05575946994484491]","[0.05466750307680848, -0.1625977891894856, -1.7315456423317224, -0.22625734531680003, -0.0015664920274761022, 0.021913728953058896]","[-0.004968777217391543, -5.394422836879959, -16.63835430854149, -1.5187809487233463, -0.00991162543222651, 0.011812318462827206]","[-0.13504392305483037, -1.8206184546100062, 2.2107553482055664, 4.297352313995361, -1.6009724775897425, -1.5924013296710413]","[0.0, 0.007529288996011019, -0.0051899682730436325, -0.003499393817037344, 0.0, 0.0]","[-0.14795950055122375, -0.638916015625, -1.4952876567840576, -0.1830049455165863, 0.045751236379146576, -0.019825534895062447]","[-0.15244311094284058, -0.6411578059196472, -1.499771237373352, -0.1830049455165863, 0.04880131781101227, -0.019825534895062447]","[-0.3735195254761648, -0.05826333356158865, 0.13195541273285397, -0.17757316813218074, -3.1133761077131035, -0.05392991626306828]","[-0.002981723667459631, 0.0003991187812739512, 5.969369242538026e-05, 0.0001607817730073551, 0.0011488758289758343, 2.472814900737565e-05]","[-24.390161935190775, -12.12928539929511, -2.111595596127132, 3.2359300398494666, -4.82471109525269, -0.6266765474900393]","[-0.3685502042059787, -0.0532604944892869, 0.13196829834628027, -0.17768594657866044, -3.1133565489268977, -0.053894502039341555]","[-0.0028381142399030793, 6.426615648585254e-06, 2.4083906413724876e-05, -8.502325813766199e-07, 2.0617369175704888e-05, -7.834935115156498e-06]",65536,"[35.82998275756836, 35.629981994628906, 34.549983978271484, 41.32998275756836, 43.019981384277344, 46.4699821472168]",0.38874000000000003,7,"[253, 253, 253, 253, 253, 253]",1,"[1.1777575016021729, 1.027915596961975, -9.766695976257324]",1.0,1.0,0.026703505342200312,47.88711929321289,47.88711929321289,0.5729187726974487,"[47.560001373291016, 47.6510009765625, 47.66600036621094, 47.6510009765625, 47.499000549316406, 47.68199920654297]",132,2
18,"[[36224. 36224. 36110. 36110. 36118. 36118. 37369. 37369.]
 [36224. 36224. 36110. 36110. 36118. 36118. 37369. 37369.]
 [28449. 28449. 35832. 35832. 35682. 35682. 36518. 36518.]
 [28449. 28449. 35832. 35832. 35682. 35682. 36518. 36518.]
 [36881. 36881. 35761. 35761. 35943. 35943. 36722. 36722.]
 [36881. 36881. 35761. 35761. 35943. 35943. 36722. 36722.]
 [37186. 37186. 36253. 36253. 36467. 36467. 37032. 37032.]
 [37186. 37186. 36253. 36253. 36467. 36467. 37032. 37032.]]",,1677767625.7566125,"['-X', '-Y']","[-0.36845758171216425, -0.05326812795170661, 0.13201489224480134, -0.17758782167981144, -3.1132315623717473, -0.05390832827068722]",-1,"[-0.36888, -0.0535, 0.13255524020282056, -0.17771115448095112, -3.112107685339881, -0.05426099229656482]",1677767625.4687092,1677767745.4687092,-1,starting,"('starting', (-0.36888, -0.0535), 0, 6, -0.015)",1,167861.05599999998,"[-0.13503783679684567, -1.820431946355372, 2.2105887128823376, 4.29732138971211, -1.600949779360839, -1.5923219928020131]","[0.0013479696206789343, 0.010070201573804644, -0.007255250125787919, -0.0028189303548831006, -1.6817402211034398e-05, 0.0013459926134783487]",0,"[0.06525083139307201, 0.48305016502366643, -0.34855484743078685, -0.13551087885677446, -0.0004976697968437668, 0.06367247758878578]","[0.07097356380126274, -0.061749666482955906, -1.8164761073488642, -0.23917937058751232, -0.0014813396332334287, 0.027275444542785698]","[-0.0017613497905571707, -5.195086199121295, -16.763494688233727, -1.5242515929274656, -0.009702752906588164, 0.013488642975622491]","[-0.1350920836078089, -1.8205345312701624, 2.210695743560791, 4.297352313995361, -1.6009367148028772, -1.592353645955221]","[0.0, 0.01507136132568121, -0.007529288996011019, -0.0076219672337174416, 0.0, 0.0]","[-0.12554138898849487, -0.7173793911933899, -1.3944061994552612, -0.11437808722257614, 0.04880131781101227, -0.0030500823631882668]","[-0.15020130574703217, -0.7106539607048035, -1.3764716386795044, -0.10370279848575592, 0.04880131781101227, -0.0045751235447824]","[-0.3735485429969139, -0.05825008431865422, 0.13195271550615345, -0.17772207004380242, -3.113390094267315, -0.05387176839613154]","[-0.0050564612796250245, 0.000676455881917665, -0.0011433361431110495, 1.9617877360121822e-05, 7.794145468579747e-05, 4.7703566058846105e-05]","[-36.0244320230486, -13.511302859681487, -2.3633035413605405, 3.685794649208418, -6.610879901702651, -0.5939066941749189]","[-0.3685955273465154, -0.05326046421093763, 0.13196875719420004, -0.17768546440444474, -3.113356013499424, -0.053894337754988635]","[-0.0036248614649304362, 1.1229718053448201e-06, 3.7786131629268155e-05, -5.971568586522721e-06, 4.9201614929806096e-05, 3.135944107562189e-05]",65536,"[35.82998275756836, 35.629981994628906, 34.549983978271484, 41.32998275756836, 43.019981384277344, 46.4699821472168]",0.39358800000000005,7,"[253, 253, 253, 253, 253, 253]",1,"[0.5963708162307739, 1.309618353843689, -8.897612571716309]",1.0,1.0,0.03411444263042342,47.88711929321289,47.82634735107422,0.7161448001861572,"[47.560001373291016, 47.63600158691406, 47.66600036621094, 47.6510009765625, 47.513999938964844, 47.68199920654297]",132,2
19,"[[36223. 36223. 36104. 36104. 36119. 36119. 37370. 37370.]
 [36223. 36223. 36104. 36104. 36119. 36119. 37370. 37370.]
 [28452. 28452. 35828. 35828. 35683. 35683. 36515. 36515.]
 [28452. 28452. 35828. 35828. 35683. 35683. 36515. 36515.]
 [36883. 36883. 35766. 35766. 35946. 35946. 36720. 36720.]
 [36883. 36883. 35766. 35766. 35946. 35946. 36720. 36720.]
 [37186. 37186. 36254. 36254. 36460. 36460. 37032. 37032.]
 [37186. 37186. 36254. 36254. 36460. 36460. 37032. 37032.]]",,1677767625.7725878,"['-X', '-Y']","[-0.36845758171216425, -0.05326812795170661, 0.13201489224480134, -0.17758782167981144, -3.1132315623717473, -0.05390832827068722]",-1,"[-0.36888, -0.0535, 0.13255524020282056, -0.17771115448095112, -3.112107685339881, -0.05426099229656482]",1677767625.4687092,1677767745.4687092,-1,starting,"('starting', (-0.36888, -0.0535), 0, 6, -0.015)",1,167861.072,"[-0.1349345748948494, -1.82025775649565, 2.210462742314947, 4.297276262113137, -1.6009523355147426, -1.5922188914211972]","[0.009615115216445112, 0.01394027320160228, -0.010089307745981936, -0.003550124092354339, -0.00024285178342810061, 0.009600133849265901]",0,"[0.7394391232416837, 0.6772577908596994, -0.4917764003690832, -0.16010031191494675, -0.019514331082938995, 0.7382810021645988]","[0.6461038152479968, -0.028524382504017246, -1.9710201380729662, -0.2543974015239655, -0.005379515642472477, 0.20180390600496415]","[1.5374114937266963, -4.848059233525056, -17.054371469681527, -1.5293556303255174, -0.0054039862527871544, 0.15640052391548462]","[-0.13504392305483037, -1.8203547636615198, 2.2106356620788574, 4.297208786010742, -1.6009843985186976, -1.592365566884176]","[0.00010226538870483637, 0.017730262130498886, -0.012028966099023819, -0.016178704798221588, 0.0, 0.0]","[0.2667754590511322, -0.5694198608398438, -1.5356402397155762, 0.04117611050605774, 0.05185139924287796, 0.12505337595939636]","[0.2667754590511322, -0.5828707218170166, -1.5401238203048706, 0.05185139924287796, 0.050326358526945114, 0.1265784204006195]","[-0.37360544199592743, -0.058249168262977026, 0.13193093298380712, -0.1776277610027904, -3.113373473127235, -0.053948004710633025]","[-0.008676549162650905, 0.001127268736587353, 0.0008459761462031813, 0.001427966551215685, 0.010379604082233288, 0.00018071815349588423]","[-34.5639923312709, -20.588077825835384, -5.317722615266387, 5.591097364365195, -4.427941634097478, -0.9856841629308286]","[-0.36865328327256386, -0.05328950314008818, 0.13196927559926705, -0.17768440893808715, -3.1133557866165873, -0.0538943912290113]","[-0.004538549476918803, -0.0028155372175099583, 3.881891673953504e-05, 7.631137993742242e-06, 1.1905677133347537e-05, 5.594660982159022e-05]",65536,"[35.82998275756836, 35.629981994628906, 34.549983978271484, 41.32998275756836, 43.019981384277344, 46.4699821472168]",0.40183199999999997,7,"[253, 253, 253, 253, 253, 253]",1,"[0.854098916053772, 1.2346973419189453, -9.251239776611328]",1.0,1.0,0.0412780077906548,47.88711929321289,47.82634735107422,0.6803395748138428,"[47.560001373291016, 47.63600158691406, 47.66600036621094, 47.6510009765625, 47.513999938964844, 47.68199920654297]",132,2
20,"[[36226. 36226. 36107. 36107. 36118. 36118. 37372. 37372.]
 [36226. 36226. 36107. 36107. 36118. 36118. 37372. 37372.]
 [28448. 28448. 35829. 35829. 35680. 35680. 36515. 36515.]
 [28448. 28448. 35829. 35829. 35680. 35680. 36515. 36515.]
 [36885. 36885. 35764. 35764. 35944. 35944. 36721. 36721.]
 [36885. 36885. 35764. 35764. 35944. 35944. 36721. 36721.]
 [37183. 37183. 36256. 36256. 36464. 36464. 37034. 37034.]
 [37183. 37183. 36256. 36256. 36464. 36464. 37034. 37034.]]",,1677767625.787548,"['-X', '-Y']","[-0.36845758171216425, -0.05326812795170661, 0.13201489224480134, -0.17758782167981144, -3.1132315623717473, -0.05390832827068722]",-1,"[-0.36888, -0.0535, 0.13255524020282056, -0.17771115448095112, -3.112107685339881, -0.05426099229656482]",1677767625.4687092,1677767745.4687092,-1,starting,"('starting', (-0.36888, -0.0535), 0, 6, -0.015)",1,167861.088,"[-0.13474534584305875, -1.820029821081147, 2.210297578353007, 4.297219860292714, -1.6009569685086404, -1.5920292799473161]","[0.01531890815166997, 0.01772730641572597, -0.01284902763474754, -0.004355616245783998, -0.0003727735900460214, 0.015360446510930778]",0,"[0.7850839052766657, 0.7643303267656696, -0.5547579572702344, -0.18139159696301616, -0.01864955892384734, 0.789316574349328]","[0.677881909214198, -0.006199760532784747, -1.9851966500615599, -0.2711329822433371, -0.00782412375678792, 0.21215907616915394]","[1.6178259665024115, -4.624266181842934, -17.19515012772351, -1.53472440899501, -0.004649365453361039, 0.16721211219232696]","[-0.13487607637514287, -1.820151154194967, 2.210479259490967, 4.297208786010742, -1.6009367148028772, -1.5921619574176233]","[0.0062765381298959255, 0.01507136132568121, -0.00942119862884283, -0.014980281703174114, 0.0, 0.013158679939806461]","[0.22642286121845245, -0.526825487613678, -1.5064966678619385, 0.09150247275829315, 0.03965106979012489, 0.09150247275829315]","[0.2107301950454712, -0.526825487613678, -1.4975295066833496, 0.09455255419015884, 0.04117611050605774, 0.08997742831707001]","[-0.37366381820092537, -0.058312769878496075, 0.13193011041107905, -0.1776828171564725, -3.1134087730861353, -0.0538622818033899]","[-0.007019248044271722, -0.0013282207266897788, 0.0004687075177735561, 0.0009984799510407026, 0.009713827815080308, -0.006802017519566841]","[-35.92366749830282, -24.355226865265962, -5.879148025965764, 6.424014649347118, -4.038394529897027, -1.3953681391020376]","[-0.36872547675734324, -0.05334724893983899, 0.13196983001097004, -0.17768395633611853, -3.1133559779851354, -0.05389426220231411]","[-0.0055766599208915265, -0.004712137154352632, 4.099494108144535e-05, -1.1056930264652484e-05, -1.940170990933287e-05, 1.1273500353342972e-05]",65536,"[35.82998275756836, 35.629981994628906, 34.549983978271484, 41.32998275756836, 43.019981384277344, 46.4699821472168]",0.39128399999999997,7,"[253, 253, 253, 253, 253, 253]",1,"[1.0309123992919922, 0.24274390935897827, -9.374110221862793]",1.0,1.0,0.05152384630950556,47.82634735107422,47.82634735107422,0.6803395748138428,"[47.57500076293945, 47.63600158691406, 47.696998596191406, 47.6510009765625, 47.513999938964844, 47.68199920654297]",132,2
21,"[[36226. 36226. 36105. 36105. 36119. 36119. 37370. 37370.]
 [36226. 36226. 36105. 36105. 36119. 36119. 37370. 37370.]
 [28451. 28451. 35832. 35832. 35682. 35682. 36516. 36516.]
 [28451. 28451. 35832. 35832. 35682. 35682. 36516. 36516.]
 [36884. 36884. 35763. 35763. 35945. 35945. 36719. 36719.]
 [36884. 36884. 35763. 35763. 35945. 35945. 36719. 36719.]
 [37187. 37187. 36256. 36256. 36462. 36462. 37033. 37033.]
 [37187. 37187. 36256. 36256. 36462. 36462. 37033. 37033.]]",,1677767625.801631,"['-X', '-Y']","[-0.36845758171216425, -0.05326812795170661, 0.13201489224480134, -0.17758782167981144, -3.1132315623717473, -0.05390832827068722]",-1,"[-0.36888, -0.0535, 0.13255524020282056, -0.17771115448095112, -3.112107685339881, -0.05426099229656482]",1677767625.4687092,1677767745.4687092,-1,starting,"('starting', (-0.36888, -0.0535), 0, 6, -0.015)",1,167861.104,"[-0.13454247487851134, -1.819805773870245, 2.210135477605114, 4.297164899250422, -1.6009620153063064, -1.5918259529309688]","[0.012724873400536341, 0.013860281389888651, -0.010023861493136017, -0.003392664012508063, -0.0003128206329681234, 0.01275562778969011]",0,"[-0.07797959616744131, -0.13435053417482012, 0.09825766364694039, 0.03480898504856257, 0.002873894915427188, -0.0776174342305147]","[0.5187407328843394, -0.21011036076011594, -1.8559834990266113, -0.24545309571616228, -0.007381168536323086, 0.1892239688023598]","[-0.14154831158884004, -6.911096931884916, -15.74892206063615, -1.48102461200619, -0.010761560610691662, -0.016442800699240673]","[-0.13468438783754522, -1.8198283354388636, 2.210287570953369, 4.297173023223877, -1.6009004751788538, -1.5919340292560022]","[0.012565859593451023, 0.017436249181628227, -0.012565859593451023, 0.047864995896816254, 0.0, 0.014381070621311665]","[0.2129720002412796, -0.5335509181022644, -1.6499725580215454, -0.08540230989456177, 0.03202586621046066, 0.053376439958810806]","[0.2129720002412796, -0.5402763485908508, -1.6275544166564941, -0.05947660654783249, 0.0366009883582592, 0.04422619566321373]","[-0.37374633529086515, -0.05837924232048912, 0.1319065856442743, -0.17773989831344955, -3.1134919226584907, -0.05378857047504564]","[0.005768874085402415, -0.005334435153657231, -0.00522727296437602, -0.007412550555236748, -0.051739220879540165, -0.0018892588969477778]","[-19.847523679449395, -17.192865408912894, -4.063467596146491, 4.453232695984841, -2.5393120581902675, -1.4412549420570835]","[-0.3687953240475277, -0.05341017677831704, 0.1319701964473863, -0.17768363941023665, -3.113356333070049, -0.05389421927419471]","[-0.004308275204041284, -0.003958539655207633, 1.935839019362829e-05, -7.556491312120308e-06, -2.6081748758407283e-05, 1.0586291813040674e-05]",65536,"[35.82998275756836, 35.629981994628906, 34.549983978271484, 41.32998275756836, 43.019981384277344, 46.4699821472168]",0.679117,7,"[253, 253, 253, 253, 253, 253]",1,"[0.7641937732696533, 0.5094625353813171, -9.191303253173828]",1.0,1.0,0.04018615567962326,47.82634735107422,47.82634735107422,0.7519552707672119,"[47.57500076293945, 47.63600158691406, 47.696998596191406, 47.6510009765625, 47.513999938964844, 47.66600036621094]",132,2
22,"[[36225. 36225. 36106. 36106. 36118. 36118. 37367. 37367.]
 [36225. 36225. 36106. 36106. 36118. 36118. 37367. 37367.]
 [28449. 28449. 35829. 35829. 35681. 35681. 36515. 36515.]
 [28449. 28449. 35829. 35829. 35681. 35681. 36515. 36515.]
 [36883. 36883. 35761. 35761. 35946. 35946. 36722. 36722.]
 [36883. 36883. 35761. 35761. 35946. 35946. 36722. 36722.]
 [37183. 37183. 36257. 36257. 36461. 36461. 37034. 37034.]
 [37183. 37183. 36257. 36257. 36461. 36461. 37034. 37034.]]",,1677767625.8166707,"['-X', '-Y']","[-0.36845758171216425, -0.05326812795170661, 0.13201489224480134, -0.17758782167981144, -3.1132315623717473, -0.05390832827068722]",-1,"[-0.36888, -0.0535, 0.13255524020282056, -0.17771115448095112, -3.112107685339881, -0.05426099229656482]",1677767625.4687092,1677767745.4687092,-1,starting,"('starting', (-0.36888, -0.0535), 0, 6, -0.015)",1,167861.12,"[-0.1342411680023794, -1.8194860730047395, 2.2099045604825154, 4.297087116709346, -1.600969137339515, -1.5915237230735455]","[0.018307518078989664, 0.019369340044170926, -0.01398193009218785, -0.004700670261214355, -0.00042350686265763465, 0.018370983259219553]",0,"[-0.25669560892542, -0.28632195317352793, 0.2089020084133865, 0.07262479992865171, 0.00837598225489124, -0.25563517136846253]","[0.4895920233739944, -0.2403471612950923, -1.8370284494471387, -0.27047019715804754, -0.009664026010265381, 0.18615573640304364]","[-0.5168755336433017, -7.298255503328416, -15.504823287416091, -1.4717446966847267, -0.011802884731124116, -0.054154819934454194]","[-0.13444501558412725, -1.8195884863482874, 2.2101197242736816, 4.2972211837768555, -1.6009724775897425, -1.5917547384845179]","[0.02979757823050022, 0.0336836613714695, -0.023124760016798973, 0.025909895077347755, 0.0, 0.03326820954680443]","[0.5582108497619629, -0.15244311094284058, -1.9884859323501587, -0.46361252665519714, 0.019825534895062447, 0.15555420517921448]","[0.5694198608398438, -0.14123407006263733, -2.01090407371521, -0.43768683075904846, 0.021350577473640442, 0.15402916073799133]","[-0.37379249980869905, -0.0584435507256237, 0.13189408294668403, -0.17765072271168664, -3.113613801342805, -0.05388065625953286]","[-0.0026513833376824864, -0.0104388772078295, -0.0039578151025143945, -0.005582345806312795, -0.03494797840321167, -0.003438946360056809]","[8.609723007281525, 2.8302396018741924, 3.0221273815686103, -0.6696748702455844, -0.22456881144943222, -0.27791255607588883]","[-0.3688940669921254, -0.053504439843075256, 0.13197043874447617, -0.17768362165347126, -3.1133574365325414, -0.053893500027916395]","[-0.0059737274387111445, -0.0057348476583913045, 8.315792208893648e-06, -4.4116885151136655e-05, -8.100061909086962e-05, -5.015796718202403e-06]",65536,"[35.82998275756836, 35.629981994628906, 34.549983978271484, 41.32998275756836, 43.019981384277344, 46.4699821472168]",0.652872,7,"[253, 253, 253, 253, 253, 253]",1,"[-0.13785456120967865, 1.9809101819992065, -8.526004791259766]",1.0,1.0,0.05614790689201467,47.82634735107422,47.82634735107422,0.6087239384651184,"[47.57500076293945, 47.6510009765625, 47.696998596191406, 47.6510009765625, 47.499000549316406, 47.66600036621094]",132,2
23,"[[36225. 36225. 36107. 36107. 36120. 36120. 37366. 37366.]
 [36225. 36225. 36107. 36107. 36120. 36120. 37366. 37366.]
 [28446. 28446. 35829. 35829. 35683. 35683. 36520. 36520.]
 [28446. 28446. 35829. 35829. 35683. 35683. 36520. 36520.]
 [36885. 36885. 35763. 35763. 35947. 35947. 36718. 36718.]
 [36885. 36885. 35763. 35763. 35947. 35947. 36718. 36718.]
 [37185. 37185. 36254. 36254. 36465. 36465. 37035. 37035.]
 [37185. 37185. 36254. 36254. 36465. 36465. 37035. 37035.]]",,1677767625.8335407,"['-X', '-Y']","[-0.36845758171216425, -0.05326812795170661, 0.13201489224480134, -0.17758782167981144, -3.1132315623717473, -0.05390832827068722]",-1,"[-0.36888, -0.0535, 0.13255524020282056, -0.17771115448095112, -3.112107685339881, -0.05426099229656482]",1677767625.4687092,1677767745.4687092,-1,starting,"('starting', (-0.36888, -0.0535), 0, 6, -0.015)",1,167861.136,"[-0.13385068530070043, -1.8190757254516656, 2.20960876517416, 4.296988470601274, -1.6009779169404617, -1.5911317128017295]","[0.0236458172260094, 0.024820985346558955, -0.01788784957195249, -0.0059374598059795365, -0.0005410408403226778, 0.023728861238790006]",0,"[-0.34443281254698627, -0.36889589247794324, 0.26694867355383634, 0.09603801090315793, 0.005396227797991869, -0.348145608157626]","[0.47753402865504296, -0.2560723013628698, -1.8282356287661345, -0.29451354352146786, -0.01216166409525357, 0.18521250857156177]","[-0.6987045242657627, -7.52005443577181, -15.376424593096445, -1.4661712996037404, -0.013527472877551378, -0.07375261635486069]","[-0.13409740129579717, -1.819193188344137, 2.209807872772217, 4.297125339508057, -1.6009605566607874, -1.591430966054098]","[0.038963112980127335, 0.03792767599225044, -0.030462302267551422, 0.021595574915409088, 0.0, 0.05179582163691521]","[0.9976056814193726, 0.14795950055122375, -2.102818250656128, -0.462087482213974, 0.010675288736820221, 0.22418105602264404]","[1.002089262008667, 0.17037759721279144, -2.1364455223083496, -0.495638370513916, 0.010675288736820221, 0.24553163349628448]","[-0.3739261089250281, -0.05855421406744422, 0.1319063514581316, -0.17761056209916715, -3.1135916636096295, -0.0538516947314888]","[-0.005966656201169641, -0.013317377471120117, -0.0016544874872694076, -0.0049536391895576865, -0.02694745507558326, -0.012760104884849889]","[25.14894444758137, 22.965756526637307, 3.707779075737054, -5.179510119617452, 3.6010009457952714, 0.596031258145061]","[-0.3690201167432693, -0.05362704836075512, 0.13197029213813488, -0.17768417876705458, -3.113360452062107, -0.05389169581832184]","[-0.007614008420885155, -0.007428097063655384, -1.5697053965411772e-05, -7.715668974804654e-05, -0.0002113388199702109, -8.18966357443024e-06]",65536,"[35.82998275756836, 35.629981994628906, 34.549983978271484, 41.32998275756836, 43.019981384277344, 46.4699821472168]",0.601657,7,"[253, 253, 253, 253, 253, 253]",1,"[-0.6143518686294556, 1.4564634561538696, -7.60597562789917]",1.0,1.0,0.07200417696212058,47.88711929321289,47.82634735107422,0.6445291042327881,"[47.57500076293945, 47.6510009765625, 47.696998596191406, 47.6510009765625, 47.499000549316406, 47.66600036621094]",132,2
24,"[[36223. 36223. 36107. 36107. 36121. 36121. 37371. 37371.]
 [36223. 36223. 36107. 36107. 36121. 36121. 37371. 37371.]
 [28449. 28449. 35830. 35830. 35680. 35680. 36518. 36518.]
 [28449. 28449. 35830. 35830. 35680. 35680. 36518. 36518.]
 [36882. 36882. 35761. 35761. 35946. 35946. 36719. 36719.]
 [36882. 36882. 35761. 35761. 35946. 35946. 36719. 36719.]
 [37186. 37186. 36255. 36255. 36462. 36462. 37033. 37033.]
 [37186. 37186. 36255. 36255. 36462. 36462. 37033. 37033.]]",,1677767625.8485131,"['-X', '-Y']","[-0.36845758171216425, -0.05326812795170661, 0.13201489224480134, -0.17758782167981144, -3.1132315623717473, -0.05390832827068722]",-1,"[-0.36888, -0.0535, 0.13255524020282056, -0.17771115448095112, -3.112107685339881, -0.05426099229656482]",1677767625.4687092,1677767745.4687092,-1,starting,"('starting', (-0.36888, -0.0535), 0, 6, -0.015)",1,167861.152,"[-0.13337077416486398, -1.818573259539705, 2.209246741734395, 4.2968698223148145, -1.6009893132923256, -1.590650698193187]","[0.029201376738675868, 0.03056949865519016, -0.02203135544282905, -0.0072023496039852735, -0.0006933426012175023, 0.029257647998109378]",0,"[-0.3790898438468305, -0.39797630942790035, 0.28518157117298676, 0.09799798744316657, 0.009026310179307143, -0.382680331057008]","[0.4753665283557215, -0.2600360957362399, -1.8274273654915003, -0.31974580783381695, -0.015091705719010563, 0.18580233207163588]","[-0.7717116501544935, -7.610551289485679, -15.336881138492092, -1.4657918054679355, -0.013184338866731137, -0.08106859596005608]","[-0.13360578218568975, -1.818690601979391, 2.20947265625, 4.297029495239258, -1.600924317036764, -1.5909999052630823]","[0.04295146465301514, 0.04465162381529808, -0.033913757652044296, 0.011217234656214714, 0.0, 0.05246694013476372]","[1.0626182556152344, 0.03138534724712372, -2.3516592979431152, -0.6084914207458496, 0.013725370168685913, 0.2699322998523712]","[1.0648599863052368, 0.051561642438173294, -2.380802869796753, -0.5871408581733704, 0.010675288736820221, 0.2668822109699249]","[-0.374065794571269, -0.05872178124224529, 0.1318907283466414, -0.1775148530857788, -3.1136511698529357, -0.05377179733547211]","[-0.009560351864157083, -0.014291543380603376, -0.0014342886124944017, -0.003994406975810556, -0.019887099609457705, -0.009403081963760739]","[28.81791410690732, 26.98013376243356, -0.6385498540050855, -6.0682636046524685, 3.7065046419023333, 1.0360056923642722]","[-0.3691737810779168, -0.05377790616415852, 0.13196972981901928, -0.1776837595710509, -3.113366507212519, -0.053890217677195915]","[-0.009346090327187839, -0.009184500343422157, -3.601254620476525e-05, -8.2855932518678e-05, -0.0003710138060076314, 3.500816608929466e-05]",65536,"[35.82998275756836, 35.629981994628906, 34.549983978271484, 41.32998275756836, 43.019981384277344, 46.4699821472168]",0.6310800000000001,7,"[253, 253, 253, 253, 253, 253]",1,"[-0.31766486167907715, 1.5343812704086304, -8.265279769897461]",1.0,1.0,0.08877306946188047,47.82634735107422,47.82634735107422,0.8235656023025513,"[47.57500076293945, 47.6510009765625, 47.696998596191406, 47.6510009765625, 47.499000549316406, 47.66600036621094]",132,2
25,"[[36223. 36223. 36109. 36109. 36118. 36118. 37367. 37367.]
 [36223. 36223. 36109. 36109. 36118. 36118. 37367. 37367.]
 [28450. 28450. 35830. 35830. 35682. 35682. 36519. 36519.]
 [28450. 28450. 35830. 35830. 35682. 35682. 36519. 36519.]
 [36884. 36884. 35763. 35763. 35944. 35944. 36720. 36720.]
 [36884. 36884. 35763. 35763. 35944. 35944. 36720. 36720.]
 [37183. 37183. 36256. 36256. 36462. 36462. 37033. 37033.]
 [37183. 37183. 36256. 36256. 36462. 36462. 37033. 37033.]]",,1677767625.8614633,"['-X', '-Y']","[-0.36845758171216425, -0.05326812795170661, 0.13201489224480134, -0.17758782167981144, -3.1132315623717473, -0.05390832827068722]",-1,"[-0.36888, -0.0535, 0.13255524020282056, -0.17771115448095112, -3.112107685339881, -0.05426099229656482]",1677767625.4687092,1677767745.4687092,-1,starting,"('starting', (-0.36888, -0.0535), 0, 6, -0.015)",1,167861.16,"[-0.13307145059788095, -1.8182600147696828, 2.2090208378482252, 4.296796405420736, -1.600996417966309, -1.5903510582332867]","[0.03828557252105009, 0.040066191514483235, -0.028894683114864466, -0.009390532963505987, -0.0009087373699497828, 0.038326041382559455]",0,"[1.1355244727967775, 1.1870866074116344, -0.857915959004427, -0.27352291994008915, -0.026924346091535056, 1.1335491730562597]","[0.758175986466346, 0.099825493370412, -2.054311061785649, -0.37448694718965675, -0.01796678783045288, 0.22711998207698242]","[2.315498434232249, -3.5959525926391316, -17.862113631741092, -1.5574868889775229, -0.0020249786122247385, 0.24013578031964217]","[-0.13333017030824834, -1.8184154669391077, 2.209256172180176, 4.296802043914795, -1.6009605566607874, -1.5907958189593714]","[0.026026541367173195, 0.02617993950843811, -0.016400812193751335, -0.016178704798221588, 0.0, 0.016825852915644646]","[0.5716617107391357, -0.3743823766708374, -2.0557403564453125, -0.0015250411815941334, 0.0045751235447824, 0.4193863272666931]","[0.5559689998626709, -0.3923168480396271, -2.0691912174224854, 0.0091502470895648, 0.007625205907970667, 0.4346367418766022]","[-0.374190466499895, -0.05879689371608367, 0.13191535364033882, -0.17739666747953087, -3.1134827015702253, -0.05383728062463082]","[-0.009245969336503729, -0.008201381122638685, -0.0001748724626517643, 0.000522922492114253, 0.00694161373176547, 0.009309402937442441]","[-19.776604079187653, -4.439067720896794, -17.496905360851837, 2.0751503292791056, 0.781112090608238, 1.766854277415848]","[-0.369269507598797, -0.053872090226712036, 0.13196937160665778, -0.17768293200165977, -3.113370650918519, -0.053889273338895094]","[-0.012243072456019929, -0.012050716914458786, -4.832855501763295e-05, -0.00011152742559524854, -0.0005167734244344809, 7.905762121419857e-05]",65536,"[35.82998275756836, 35.629981994628906, 34.549983978271484, 41.32998275756836, 43.019981384277344, 46.4699821472168]",0.38027999999999995,7,"[253, 253, 253, 253, 253, 253]",1,"[1.438482403755188, 0.6712917685508728, -9.712753295898438]",1.0,1.0,0.11642301601593699,47.88711929321289,47.82634735107422,0.7877604365348816,"[47.560001373291016, 47.6510009765625, 47.6510009765625, 47.6510009765625, 47.499000549316406, 47.66600036621094]",132,2
26,"[[36224. 36224. 36104. 36104. 36120. 36120. 37370. 37370.]
 [36224. 36224. 36104. 36104. 36120. 36120. 37370. 37370.]
 [28451. 28451. 35833. 35833. 35680. 35680. 36521. 36521.]
 [28451. 28451. 35833. 35833. 35680. 35680. 36521. 36521.]
 [36886. 36886. 35760. 35760. 35948. 35948. 36720. 36720.]
 [36886. 36886. 35760. 35760. 35948. 35948. 36720. 36720.]
 [37184. 37184. 36256. 36256. 36463. 36463. 37037. 37037.]
 [37184. 37184. 36256. 36256. 36463. 36463. 37037. 37037.]]",,1677767625.878493,"['-X', '-Y']","[-0.36845758171216425, -0.05326812795170661, 0.13201489224480134, -0.17758782167981144, -3.1132315623717473, -0.05390832827068722]",-1,"[-0.36888, -0.0535, 0.13255524020282056, -0.17771115448095112, -3.112107685339881, -0.05426099229656482]",1677767625.4687092,1677767745.4687092,-1,starting,"('starting', (-0.36888, -0.0535), 0, 6, -0.015)",1,167861.176,"[-0.1324446932266765, -1.817604226667803, 2.2085480092190117, 4.2966436912174935, -1.6010104907859777, -1.5897249745068063]","[0.044831327321757465, 0.04690506850352273, -0.03381639087986143, -0.010899654901003846, -0.0009877251580857449, 0.04475174030420284]",0,"[1.1949465493286664, 1.249595541575321, -0.9003309574897801, -0.2851965541781562, -0.022107032814909926, 1.185809798971641]","[0.7742070521927148, 0.11664898660606997, -2.0654818238818144, -0.3871766743503415, -0.019295169005004536, 0.23017630922649832]","[2.4375004329349372, -3.4588817496673867, -17.952690504283247, -1.5601393473793153, -0.00023842253442107192, 0.25120688908358474]","[-0.13270694414247686, -1.8177931944476526, 2.208800792694092, 4.296730041503906, -1.6009963194476526, -1.5901005903827112]","[0.03206019848585129, 0.03278883919119835, -0.02100275456905365, 0.021140173077583313, 0.0, 0.030703585594892502]","[0.5537272095680237, -0.3429970145225525, -2.107301950454712, -0.0732019767165184, -0.024400658905506134, 0.28060758113861084]","[0.542518138885498, -0.3474806249141693, -2.10506010055542, -0.07777710258960724, -0.021350577473640442, 0.2897578179836273]","[-0.3743647346117676, -0.058991691020936744, 0.13191038286261986, -0.17750887482762429, -3.113550613187004, -0.053859999616537146]","[-0.0027431936747050302, -0.011267467473736534, -0.004165032407847079, -0.004997300738675256, -0.03153751436736127, 0.001394789588826547]","[-18.43059807621532, -9.027247243307873, -16.608351034711383, 2.7096464091451398, 0.48368559605619177, 0.4290058380913389]","[-0.36946962520528454, -0.054069718520609114, 0.13196833950811732, -0.17767914089022988, -3.113380512488855, -0.053885985063935486]","[-0.014305262336956902, -0.014150841272772167, -8.36185515013197e-05, -0.00021568421871643565, -0.0007018187761154233, 0.00022108043354845952]",65536,"[35.82998275756836, 35.629981994628906, 34.549983978271484, 41.32998275756836, 43.019981384277344, 46.4699821472168]",0.463536,7,"[253, 253, 253, 253, 253, 253]",1,"[0.8990514874458313, 0.455519437789917, -9.254237174987793]",1.0,1.0,0.1364295872047239,47.88711929321289,47.82634735107422,0.7877604365348816,"[47.560001373291016, 47.6510009765625, 47.6510009765625, 47.6510009765625, 47.499000549316406, 47.66600036621094]",132,2
27,"[[36224. 36224. 36104. 36104. 36122. 36122. 37368. 37368.]
 [36224. 36224. 36104. 36104. 36122. 36122. 37368. 37368.]
 [28451. 28451. 35832. 35832. 35680. 35680. 36517. 36517.]
 [28451. 28451. 35832. 35832. 35680. 35680. 36517. 36517.]
 [36884. 36884. 35762. 35762. 35948. 35948. 36720. 36720.]
 [36884. 36884. 35762. 35762. 35948. 35948. 36720. 36720.]
 [37186. 37186. 36251. 36251. 36464. 36464. 37032. 37032.]
 [37186. 37186. 36251. 36251. 36464. 36464. 37032. 37032.]]",,1677767625.8935158,"['-X', '-Y']","[-0.36845758171216425, -0.05326812795170661, 0.13201489224480134, -0.17758782167981144, -3.1132315623717473, -0.05390832827068722]",-1,"[-0.36888, -0.0535, 0.13255524020282056, -0.17771115448095112, -3.112107685339881, -0.05426099229656482]",1677767625.4687092,1677767745.4687092,-1,starting,"('starting', (-0.36888, -0.0535), 0, 6, -0.015)",1,167861.19199999998,"[-0.13171421191427424, -1.8168401369647933, 2.2079967642596117, 4.2964637374956265, -1.6010267539391823, -1.588997843982705]","[0.05141715289443312, 0.053778360277515196, -0.03880693758112744, -0.012724074181889835, -0.0011488610870527176, 0.051131157743115066]",0,"[1.1953031157809064, 1.2491916381975479, -0.903485322983958, -0.30883639577003397, -0.027644373726766664, 1.177282379685716]","[0.7795179684951953, 0.11884802069372305, -2.0694062645123505, -0.3882127674178539, -0.022576102721405134, 0.2316610509565129]","[2.4390616869322703, -3.488308839852918, -17.960425410102733, -1.5656187370397114, -0.0013979972104995637, 0.24940040504829822]","[-0.1319516340838831, -1.8169906775103968, 2.2082247734069824, 4.296694278717041, -1.6010082403766077, -1.5893457571612757]","[0.03971732035279274, 0.03989628329873085, -0.02989984303712845, 0.02058889903128147, 0.0, 0.034874096512794495]","[0.5940797924995422, -0.3160952925682068, -2.1476545333862305, -0.282132625579834, -0.03355090692639351, 0.23180626332759857]","[0.5716617107391357, -0.33178797364234924, -2.1342036724090576, -0.2851827144622803, -0.03355090692639351, 0.2257061004638672]","[-0.3745764262396837, -0.05923509075521185, 0.13189255931924862, -0.17751011567589756, -3.1137162896545334, -0.053832810191047756]","[-0.0060046461077288725, -0.013625849896121714, -0.0025535180575761143, -0.00474134438722593, -0.029072551331064584, 0.004905788211629944]","[-15.095088971378, -8.752240309172523, -11.190101931755892, 2.2091140043919513, -1.230760051677492, -0.08765334426431338]","[-0.36970325636416757, -0.05430035854739368, 0.1319672742001542, -0.17767064438013025, -3.1133899060146795, -0.053882268264009985]","[-0.016455847395754612, -0.01624432607730333, -7.310268475297831e-05, -0.0001904188176993821, -0.0005525971447032858, 0.00044832745515181044]",65536,"[35.82998275756836, 35.629981994628906, 34.549983978271484, 41.32998275756836, 43.019981384277344, 46.4699821472168]",0.3927,7,"[253, 253, 253, 253, 253, 253]",1,"[0.5693992972373962, 0.6682949662208557, -8.996508598327637]",1.0,1.0,0.1565909203257871,47.82634735107422,47.82634735107422,0.7877604365348816,"[47.560001373291016, 47.62099838256836, 47.6510009765625, 47.63600158691406, 47.513999938964844, 47.66600036621094]",132,2
28,"[[36220. 36220. 36107. 36107. 36119. 36119. 37371. 37371.]
 [36220. 36220. 36107. 36107. 36119. 36119. 37371. 37371.]
 [28449. 28449. 35829. 35829. 35681. 35681. 36519. 36519.]
 [28449. 28449. 35829. 35829. 35681. 35681. 36519. 36519.]
 [36886. 36886. 35762. 35762. 35948. 35948. 36724. 36724.]
 [36886. 36886. 35762. 35762. 35948. 35948. 36724. 36724.]
 [37187. 37187. 36254. 36254. 36461. 36461. 37033. 37033.]
 [37187. 37187. 36254. 36254. 36461. 36461. 37033. 37033.]]",,1677767625.9095287,"['-X', '-Y']","[-0.36845758171216425, -0.05326812795170661, 0.13201489224480134, -0.17758782167981144, -3.1132315623717473, -0.05390832827068722]",-1,"[-0.36888, -0.0535, 0.13255524020282056, -0.17771115448095112, -3.112107685339881, -0.05426099229656482]",1677767625.4687092,1677767745.4687092,-1,starting,"('starting', (-0.36888, -0.0535), 0, 6, -0.015)",1,167861.20799999998,"[-0.13087094286777923, -1.815958531288758, 2.207360010525125, 4.296255608393459, -1.6010461193421683, -1.5881588434681193]","[0.05865046868909888, 0.061307110538035704, -0.04429454093703233, -0.014461823592074456, -0.001359989069532555, 0.0583641460240362]",0,"[1.215091389952039, 1.267901010806402, -0.9193885339872088, -0.2964415378437614, -0.03117983635816799, 1.2115811182075087]","[0.788952170606569, 0.12557821099621777, -2.0758029043860935, -0.3882530450768868, -0.026751513101721525, 0.23447261367229402]","[2.4810542569035365, -3.4714567190909325, -17.992473727083524, -1.5629464656956786, -0.0018791354135659225, 0.25666639273959824]","[-0.13108903566469365, -1.8161285559283655, 2.2075295448303223, 4.296490669250488, -1.601032559071676, -1.588494125996725]","[0.04832039400935173, 0.04760453850030899, -0.036738839000463486, 0.017592843621969223, 0.0, 0.04700213298201561]","[0.591838002204895, -0.2847099304199219, -2.0422894954681396, -0.36448484659194946, -0.05490148067474365, 0.326358824968338]","[0.5851125717163086, -0.30264443159103394, -2.0445311069488525, -0.38126030564308167, -0.053376439958810806, 0.3324589729309082]","[-0.3748646620228317, -0.05950494321279912, 0.13192514224371546, -0.177486943825067, -3.113652910987861, -0.05384442905097712]","[-0.009017228409973928, -0.016372861212676195, -0.0018731671842578857, -0.004682461643743398, -0.02653427628714006, 0.0014167886206962951]","[-16.174414443017575, -7.121521893467872, -5.678690856259956, 1.4909128921890895, -2.7553924718257705, 0.722470001201758]","[-0.3699730342255482, -0.05456690588248755, 0.1319661460759164, -0.17766018327900687, -3.1133995629900717, -0.053879085345299275]","[-0.018757866829822518, -0.018552853286912616, -8.361717303716799e-05, -0.0001646635722478522, -0.0006220262312408254, 0.00047020281605338055]",65536,"[35.82998275756836, 35.629981994628906, 34.549983978271484, 41.32998275756836, 43.019981384277344, 46.4699821472168]",0.40556400000000004,7,"[253, 253, 253, 253, 253, 253]",1,"[0.4645099341869354, 0.7582001090049744, -8.822691917419434]",1.0,1.0,0.17869320623779159,47.88711929321289,47.82634735107422,0.7877604365348816,"[47.560001373291016, 47.62099838256836, 47.6510009765625, 47.63600158691406, 47.513999938964844, 47.66600036621094]",132,2
29,"[[36224. 36224. 36107. 36107. 36119. 36119. 37372. 37372.]
 [36224. 36224. 36107. 36107. 36119. 36119. 37372. 37372.]
 [28450. 28450. 35831. 35831. 35682. 35682. 36515. 36515.]
 [28450. 28450. 35831. 35831. 35682. 35682. 36515. 36515.]
 [36883. 36883. 35762. 35762. 35945. 35945. 36721. 36721.]
 [36883. 36883. 35762. 35762. 35945. 35945. 36721. 36721.]
 [37188. 37188. 36254. 36254. 36465. 36465. 37036. 37036.]
 [37188. 37188. 36254. 36254. 36465. 36465. 37036. 37036.]]",,1677767625.922442,"['-X', '-Y']","[-0.36845758171216425, -0.05326812795170661, 0.13201489224480134, -0.17758782167981144, -3.1132315623717473, -0.05390832827068722]",-1,"[-0.36888, -0.0535, 0.13255524020282056, -0.17771115448095112, -3.112107685339881, -0.05426099229656482]",1677767625.4687092,1677767745.4687092,-1,starting,"('starting', (-0.36888, -0.0535), 0, 6, -0.015)",1,167861.224,"[-0.12991637702742143, -1.8149601978982979, 2.2066381472258385, 4.296024215503671, -1.6010683495249083, -1.5872086294775976]","[0.06359215796064525, 0.06652112156589891, -0.04811341534208279, -0.015315769937085737, -0.0014833397190517157, 0.06330993669696602]",0,"[0.9829482345692954, 1.0313211655402559, -0.7492397841510458, -0.2134285813687243, -0.023488324450493547, 0.980390572348556]","[0.7504690010209416, 0.07353368733047667, -2.044823594941058, -0.38603660621152885, -0.029303502890463518, 0.22986274000843035]","[2.0065946045165295, -4.104242830526249, -17.61250410171936, -1.5429947134466928, -0.0031070164677199754, 0.20769002413383308]","[-0.13015395799745733, -1.8151233831988733, 2.2068099975585938, 4.296287536621094, -1.6009963194476526, -1.587487522755758]","[0.0564504936337471, 0.05716635286808014, -0.04301537945866585, 0.014788534492254257, 0.0, 0.05457616224884987]","[0.5649362802505493, -0.3990422785282135, -2.1566216945648193, -0.462087482213974, -0.08387726545333862, 0.40413591265678406]","[0.5694198608398438, -0.38783323764801025, -2.1498963832855225, -0.4361617863178253, -0.08235222101211548, 0.38736045360565186]","[-0.3751654431563551, -0.059813640343743375, 0.13191671024998022, -0.17759409492907524, -3.11369464899647, -0.05374603926635712]","[-0.011881325182818286, -0.018980258184440605, -0.002147105619450916, -0.004866530998065991, -0.026748110412502305, 0.0020059288876591586]","[-13.6153857233176, -4.25817939531979, -7.315803187163604, 0.5351517887574859, -2.926268429220085, 1.4995498887221301]","[-0.3702777438893592, -0.054869219340819536, 0.13196443524516718, -0.17764921647624748, -3.1134139440696904, -0.05387568116242485]","[-0.020281395254186454, -0.020161665623252226, -0.0001310291200891675, -0.00020948351868134278, -0.0009971471618680492, 0.00048069035441627994]",65536,"[35.82998275756836, 35.629981994628906, 34.549983978271484, 41.32998275756836, 43.019981384277344, 46.4699821472168]",0.47664100000000004,7,"[253, 253, 253, 253, 253, 253]",1,"[0.7312285304069519, 0.6623013019561768, -8.978528022766113]",1.0,1.0,0.19788096708437955,47.82634735107422,47.82634735107422,0.7161448001861572,"[47.560001373291016, 47.62099838256836, 47.6510009765625, 47.63600158691406, 47.513999938964844, 47.66600036621094]",132,2
30,"[[36223. 36223. 36108. 36108. 36117. 36117. 37370. 37370.]
 [36223. 36223. 36108. 36108. 36117. 36117. 37370. 37370.]
 [28451. 28451. 35829. 35829. 35683. 35683. 36518. 36518.]
 [28451. 28451. 35829. 35829. 35683. 35683. 36518. 36518.]
 [36885. 36885. 35762. 35762. 35948. 35948. 36719. 36719.]
 [36885. 36885. 35762. 35762. 35948. 35948. 36719. 36719.]
 [37186. 37186. 36257. 36257. 36463. 36463. 37036. 37036.]
 [37186. 37186. 36257. 36257. 36463. 36463. 37036. 37036.]]",,1677767625.938433,"['-X', '-Y']","[-0.36845758171216425, -0.05326812795170661, 0.13201489224480134, -0.17758782167981144, -3.1132315623717473, -0.05390832827068722]",-1,"[-0.36888, -0.0535, 0.13255524020282056, -0.17771115448095112, -3.112107685339881, -0.05426099229656482]",1677767625.4687092,1677767745.4687092,-1,starting,"('starting', (-0.36888, -0.0535), 0, 6, -0.015)",1,167861.24,"[-0.1289889295021105, -1.8139898198124804, 2.2059345343929326, 4.2958028372720225, -1.6010897367634822, -1.58628483740946]","[0.05653641430829699, 0.05917168716632735, -0.04294047430856684, -0.013448702601745926, -0.0012826145947132967, 0.05634323318226985]",0,"[-0.3572640059137256, -0.36923579931709155, 0.2588319370045774, 0.09685921907118819, 0.013521954049866568, -0.3484427690875428]","[0.5006453640658889, -0.2479129035473237, -1.8455282486561635, -0.3764683469838551, -0.026440092236714598, 0.19391263779546603]","[-0.7288610445412362, -7.69915273887432, -15.388351750878178, -1.4664808056077192, -0.011956586723234321, -0.07381556816452385]","[-0.12907535234560186, -1.814009968434469, 2.2059707641601562, 4.296083927154541, -1.6010444800006312, -1.5864446798907679]","[0.05765211209654808, 0.0592244416475296, -0.046185605227947235, 0.010522149503231049, -0.0011025487910956144, 0.06001700088381767]","[0.4999237656593323, -0.4259440004825592, -2.1521382331848145, -0.3797352612018585, -0.07777710258960724, 0.24095650017261505]","[0.5044073462486267, -0.43266943097114563, -2.1431708335876465, -0.3751601278781891, -0.08082718402147293, 0.22875617444515228]","[-0.37550431171289117, -0.06015128571982701, 0.1319249293083627, -0.1775350324009372, -3.113734859325365, -0.05377721268783949]","[-0.013953130122882613, -0.0189364446637376, -0.0010112771801842153, -0.0031544789048868985, -0.021365899334478213, -0.0022381758664808196]","[1.6722227807943502, 1.5691007361824105, -10.076168183638224, -0.6188846991992912, 1.3903799383034563, 0.4981934422187132]","[-0.3705737385830159, -0.05516357653508312, 0.1319629421260606, -0.17763950350607238, -3.113429417734528, -0.053871961388130274]","[-0.01804798591999204, -0.017965275943424116, -9.130289205108856e-05, -0.00022430846126975557, -0.000912401605154118, 0.0003704276427592759]",65536,"[35.82998275756836, 35.629981994628906, 34.549983978271484, 41.32998275756836, 43.019981384277344, 46.4699821472168]",0.5740080000000001,7,"[253, 253, 253, 253, 253, 253]",1,"[0.6173486709594727, 0.9050451517105103, -9.008496284484863]",1.0,1.0,0.17610389977397495,47.82634735107422,47.82634735107422,0.7161448001861572,"[47.54499816894531, 47.62099838256836, 47.66600036621094, 47.63600158691406, 47.513999938964844, 47.63600158691406]",132,2
31,"[[36225. 36225. 36106. 36106. 36119. 36119. 37369. 37369.]
 [36225. 36225. 36106. 36106. 36119. 36119. 37369. 37369.]
 [28449. 28449. 35830. 35830. 35682. 35682. 36518. 36518.]
 [28449. 28449. 35830. 35830. 35682. 35682. 36518. 36518.]
 [36885. 36885. 35765. 35765. 35945. 35945. 36720. 36720.]
 [36885. 36885. 35765. 35765. 35945. 35945. 36720. 36720.]
 [37186. 37186. 36254. 36254. 36463. 36463. 37034. 37034.]
 [37186. 37186. 36254. 36254. 36463. 36463. 37034. 37034.]]",,1677767625.9533587,"['-X', '-Y']","[-0.36845758171216425, -0.05326812795170661, 0.13201489224480134, -0.17758782167981144, -3.1132315623717473, -0.05390832827068722]",-1,"[-0.36888, -0.0535, 0.13255524020282056, -0.17771115448095112, -3.112107685339881, -0.05426099229656482]",1677767625.4687092,1677767745.4687092,-1,starting,"('starting', (-0.36888, -0.0535), 0, 6, -0.015)",1,167861.256,"[-0.1279866510257417, -1.8129397221593884, 2.2051701714221323, 4.29556743157584, -1.6011114261088402, -1.5852845149112627]","[0.06060948527039446, 0.06351531826353711, -0.04627103666785953, -0.014185343990406, -0.0013097792338636533, 0.06049355727788608]",0,"[-0.5082298756578021, -0.5289462636775439, 0.37541225175798976, 0.1318780052377733, 0.011451212764357344, -0.5066497148655588]","[0.47638726422720734, -0.2839090048092491, -1.8248317433809378, -0.37556687380086273, -0.027246801569840665, 0.1909625410189451]","[-1.0363660423332288, -8.142651038539992, -15.12874763603011, -1.4576922804146573, -0.014285687204586891, -0.10733078680648181]","[-0.1281521956073206, -1.8130281607257288, 2.205263137817383, 4.2959160804748535, -1.6010564009295862, -1.585461441670553]","[0.06970664858818054, 0.07839920371770859, -0.053702112287282944, -0.008077368140220642, -0.0011025487910956144, 0.07113835960626602]","[0.8092936277389526, -0.1860702782869339, -2.378561019897461, -0.3355090618133545, -0.11132800579071045, 0.23485633730888367]","[0.8384371399879456, -0.16365216672420502, -2.369593858718872, -0.38431036472320557, -0.11132800579071045, 0.2363813817501068]","[-0.37579093226242605, -0.06044789126270025, 0.1319153731261259, -0.17762638916624598, -3.1138042366363377, -0.05375249431379146]","[-0.020906850406223355, -0.022468179123102536, -0.0026077209173589453, -0.002449078569215884, -0.014090194953193393, -0.0012143842147882833]","[18.903051747383298, 15.991213002764079, -13.546955169942352, -4.016326487017684, 5.973795431510093, 0.7014281864820773]","[-0.3708941634408691, -0.055482573639210414, 0.13196183674562825, -0.1776321212838033, -3.113447126960297, -0.05386566275153747]","[-0.019378659544719744, -0.019310572576905532, -6.780403078558513e-05, -0.0003128482805014349, -0.0010411505930450183, 0.00030746958601685775]",65536,"[35.82998275756836, 35.629981994628906, 34.549983978271484, 41.32998275756836, 43.019981384277344, 46.4699821472168]",0.58668,7,"[253, 253, 253, 253, 253, 253]",1,"[0.020977867767214775, 1.7231820821762085, -8.69682502746582]",1.0,1.0,0.18914250296057444,47.82634735107422,47.82634735107422,0.6803395748138428,"[47.54499816894531, 47.62099838256836, 47.66600036621094, 47.66600036621094, 47.513999938964844, 47.63600158691406]",132,2
32,"[[36223. 36223. 36105. 36105. 36118. 36118. 37370. 37370.]
 [36223. 36223. 36105. 36105. 36118. 36118. 37370. 37370.]
 [28453. 28453. 35829. 35829. 35682. 35682. 36519. 36519.]
 [28453. 28453. 35829. 35829. 35682. 35682. 36519. 36519.]
 [36884. 36884. 35763. 35763. 35944. 35944. 36718. 36718.]
 [36884. 36884. 35763. 35763. 35944. 35944. 36718. 36718.]
 [37187. 37187. 36253. 36253. 36463. 36463. 37033. 37033.]
