Zhao-JW/SharedControl4RemotePalpation/Data/csvdata/yun0_mar-02-2023__0/starting_0_8.csv
,skin_data,patient_data,sample_times,keys_pressed,palpation_start_pose,robot_initiative,descent_start_pose,palpation_start_time,palpation_end_time,target_position,human_response,action,recipe_id,timestamp,target_q,target_qd,output_int_register_0,target_qdd,target_current,target_moment,actual_q,actual_qd,actual_current,joint_control_output,actual_TCP_pose,actual_TCP_speed,actual_TCP_force,target_TCP_pose,target_TCP_speed,actual_digital_input_bits,joint_temperatures,actual_execution_time,robot_mode,joint_mode,safety_mode,actual_tool_accelerometer,speed_scaling,target_speed_fraction,actual_momentum,actual_main_voltage,actual_robot_voltage,actual_robot_current,actual_joint_voltage,actual_digital_output_bits,runtime_state
0,"[[36226. 36226. 36110. 36110. 36127. 36127. 37374. 37374.]
 [36226. 36226. 36110. 36110. 36127. 36127. 37374. 37374.]
 [28445. 28445. 35815. 35815. 35683. 35683. 36516. 36516.]
 [28445. 28445. 35815. 35815. 35683. 35683. 36516. 36516.]
 [36894. 36894. 35756. 35756. 35947. 35947. 36717. 36717.]
 [36894. 36894. 35756. 35756. 35947. 35947. 36717. 36717.]
 [37142. 37142. 36246. 36246. 36456. 36456. 37026. 37026.]
 [37142. 37142. 36246. 36246. 36456. 36456. 37026. 37026.]]",,1677768595.0552547,['-X'],"[-0.36854257220559644, -0.05335809445665571, 0.13237737303017208, -0.17706187701186268, -3.1120674582879344, -0.0538074682612375]",-1,"[-0.36888, -0.0535, 0.13282032864593127, -0.17775369861257473, -3.1111621920706236, -0.054454232722734204]",1677768595.033936,1677768715.033936,-1,starting,"('starting', (-0.36888, -0.0535), 0, 8, -0.02)",1,168830.4,"[-0.13490039507021123, -1.8216717878924769, 2.2107315063476562, 4.297173023223877, -1.6008527914630335, -1.592485253010885]","[0.0, 0.0, -0.0, 0.0, 0.0, 0.0]",0,"[0.0, 0.0, 0.0, 0.0, 0.0, 0.0]","[8.208567843147862e-18, -0.5097208664937449, -1.2552814013083693, -0.15947300336405545, -0.0010997652491516639, 0.0]","[1.0306337347457565e-16, -6.4949835177193425, -15.977603746805423, -1.4902340341217524, -0.010373952012428089, 0.0]","[-0.13490039507021123, -1.8216717878924769, 2.210707664489746, 4.297125339508057, -1.600804630910055, -1.5925214926349085]","[0.0, 0.0, -0.0, 0.0, 0.0, 0.0]","[-0.107606902718544, -0.30040261149406433, -1.134356141090393, -0.14487890899181366, 0.050326358526945114, -0.06862685084342957]","[-0.12778319418430328, -0.2959190011024475, -1.1209052801132202, -0.14182883501052856, 0.061001647263765335, -0.06557676941156387]","[-0.3735390023347988, -0.05334978185351572, 0.13237611394847934, -0.17711832461751723, -3.112064456754076, -0.05380769865839189]","[0.0, 0.0, 0.0, 0.0, 0.0, 0.0]","[3.5421595002890216, -4.9372351670244665, 5.572580382852008, 1.4629793429199498, 0.29967754137045094, -0.6574695169780894]","[-0.3685184446950792, -0.05334174518364444, 0.13236061491805928, -0.17717827158480234, -3.1121344761978382, -0.05387435091012717]","[0.0, 0.0, 0.0, 0.0, 0.0, 0.0]",65536,"[35.82998275756836, 35.699981689453125, 34.549983978271484, 41.32998275756836, 43.019981384277344, 46.4699821472168]",0.350352,7,"[253, 253, 253, 253, 253, 253]",1,"[0.3835953176021576, 1.1657700538635254, -8.831682205200195]",0.0,1.0,0.011682074476439779,47.82634735107422,47.82634735107422,0.6803395748138428,"[47.560001373291016, 47.63600158691406, 47.68199920654297, 47.6510009765625, 47.513999938964844, 47.6510009765625]",132,1
1,"[[36224. 36224. 36113. 36113. 36128. 36128. 37376. 37376.]
 [36224. 36224. 36113. 36113. 36128. 36128. 37376. 37376.]
 [28449. 28449. 35820. 35820. 35680. 35680. 36514. 36514.]
 [28449. 28449. 35820. 35820. 35680. 35680. 36514. 36514.]
 [36900. 36900. 35758. 35758. 35945. 35945. 36718. 36718.]
 [36900. 36900. 35758. 35758. 35945. 35945. 36718. 36718.]
 [37146. 37146. 36248. 36248. 36458. 36458. 37026. 37026.]
 [37146. 37146. 36248. 36248. 36458. 36458. 37026. 37026.]]",,1677768595.0749347,['-X'],"[-0.36854257220559644, -0.05335809445665571, 0.13237737303017208, -0.17706187701186268, -3.1120674582879344, -0.0538074682612375]",-1,"[-0.36888, -0.0535, 0.13282032864593127, -0.17775369861257473, -3.1111621920706236, -0.054454232722734204]",1677768595.033936,1677768715.033936,-1,starting,"('starting', (-0.36888, -0.0535), 0, 8, -0.02)",1,168830.416,"[-0.13490039507021123, -1.8216241041766565, 2.210719585418701, 4.297173023223877, -1.6008408705340784, -1.5925214926349085]","[0.0, 0.0, -0.0, 0.0, 0.0, 0.0]",0,"[0.0, 0.0, 0.0, 0.0, 0.0, 0.0]","[-3.6786826682989235e-17, -0.5098418052858971, -1.2552638527999658, -0.15947183140862278, -0.0010993302218237373, 0.0]","[-4.618801391205253e-16, -6.496524548336912, -15.977380384049212, -1.4902230825008798, -0.010369848452484285, 0.0]","[-0.13490039507021123, -1.8216479460345667, 2.2107434272766113, 4.297137260437012, -1.6008408705340784, -1.5925334135638636]","[0.0, 0.0, -0.0, 0.0, 0.0, 0.0]","[-0.10984871536493301, -0.30712804198265076, -1.1186634302139282, -0.14792899787425995, 0.050326358526945114, -0.06862685084342957]","[-0.12778319418430328, -0.2959190011024475, -1.1209052801132202, -0.14182883501052856, 0.061001647263765335, -0.06557676941156387]","[-0.37352325950534015, -0.0533437764950192, 0.13235006621175627, -0.1771029338977176, -3.11213896453299, -0.05385676576911192]","[0.0, 0.0, 0.0, 0.0, 0.0, 0.0]","[2.92222243325738, -5.124822583869807, 5.9593110133054115, 1.49298053046314, 0.09691016369763791, -0.6652837911081512]","[-0.36852520095896557, -0.053343531812887535, 0.1323489864571194, -0.17712264784623744, -3.11217341586704, -0.053852763635622476]","[0.0, 0.0, 0.0, 0.0, 0.0, 0.0]",65536,"[35.82998275756836, 35.699981689453125, 34.549983978271484, 41.32998275756836, 43.019981384277344, 46.4699821472168]",0.35475599999999996,7,"[253, 253, 253, 253, 253, 253]",1,"[0.3566237688064575, 1.18075430393219, -8.879631996154785]",0.0,1.0,0.023588871892104124,47.88711929321289,47.82634735107422,0.6803395748138428,"[47.560001373291016, 47.63600158691406, 47.68199920654297, 47.6510009765625, 47.513999938964844, 47.6510009765625]",132,1
2,"[[36226. 36226. 36113. 36113. 36124. 36124. 37375. 37375.]
 [36226. 36226. 36113. 36113. 36124. 36124. 37375. 37375.]
 [28445. 28445. 35816. 35816. 35687. 35687. 36515. 36515.]
 [28445. 28445. 35816. 35816. 35687. 35687. 36515. 36515.]
 [36898. 36898. 35758. 35758. 35943. 35943. 36716. 36716.]
 [36898. 36898. 35758. 35758. 35943. 35943. 36716. 36716.]
 [37142. 37142. 36245. 36245. 36457. 36457. 37026. 37026.]
 [37142. 37142. 36245. 36245. 36457. 36457. 37026. 37026.]]",,1677768595.090109,['-X'],"[-0.36854257220559644, -0.05335809445665571, 0.13237737303017208, -0.17706187701186268, -3.1120674582879344, -0.0538074682612375]",-1,"[-0.36888, -0.0535, 0.13282032864593127, -0.17775369861257473, -3.1111621920706236, -0.054454232722734204]",1677768595.033936,1677768715.033936,-1,starting,"('starting', (-0.36888, -0.0535), 0, 8, -0.02)",1,168830.432,"[-0.13490039507021123, -1.8216479460345667, 2.2107434272766113, 4.297137260437012, -1.6008408705340784, -1.5925334135638636]","[0.0, 0.0, -0.0, 0.0, 0.0, 0.0]",0,"[0.0, 0.0, 0.0, 0.0, 0.0, 0.0]","[-1.6892673437512737e-17, -0.5715641496234188, -1.407418012071145, -0.17880306476599783, -0.0012325812174673937, 0.0]","[-1.8916795289631568e-16, -6.495653303810787, -15.977391338904848, -1.490234037356517, -0.010369838756746024, 0.0]","[-0.1348641554461878, -1.8216479460345667, 2.210719585418701, 4.297137260437012, -1.6008284727679651, -1.5925214926349085]","[0.0, 0.0, -0.0, 0.0, 0.0, 0.0]","[-0.12554138898849487, -0.30488622188568115, -1.1141798496246338, -0.13877874612808228, 0.05490148067474365, -0.06252668797969818]","[-0.12778319418430328, -0.2959190011024475, -1.1209052801132202, -0.14182883501052856, 0.061001647263765335, -0.06557676941156387]","[-0.37353041493759626, -0.053358692346105796, 0.13236102785410328, -0.17706396856904957, -3.1121158711822487, -0.05383907720886667]","[0.0, 0.0, 0.0, 0.0, 0.0, 0.0]","[0.975519976299583, -5.852558907514511, 9.96709038564661, 1.653415596282784, -0.46992249745037595, -0.6326528189435677]","[-0.36852325950534015, -0.0533437764950192, 0.13235006621175627, -0.1771029338977176, -3.11213896453299, -0.05385676576911192]","[0.0, 0.0, 0.0, 0.0, 0.0, 0.0]",65536,"[35.82998275756836, 35.699981689453125, 34.549983978271484, 41.32998275756836, 43.019981384277344, 46.4699821472168]",0.43906799999999996,7,"[253, 253, 253, 253, 253, 253]",1,"[0.3326490521430969, 1.183751106262207, -8.837676048278809]",1.0,1.0,0.0,47.82634735107422,47.82634735107422,0.6445291042327881,"[47.560001373291016, 47.63600158691406, 47.66600036621094, 47.6510009765625, 47.513999938964844, 47.68199920654297]",132,2
3,"[[36224. 36224. 36110. 36110. 36126. 36126. 37374. 37374.]
 [36224. 36224. 36110. 36110. 36126. 36126. 37374. 37374.]
 [28446. 28446. 35818. 35818. 35688. 35688. 36516. 36516.]
 [28446. 28446. 35818. 35818. 35688. 35688. 36516. 36516.]
 [36900. 36900. 35756. 35756. 35946. 35946. 36717. 36717.]
 [36900. 36900. 35756. 35756. 35946. 35946. 36717. 36717.]
 [37145. 37145. 36248. 36248. 36458. 36458. 37028. 37028.]
 [37145. 37145. 36248. 36248. 36458. 36458. 37028. 37028.]]",,1677768595.1070178,['-X'],"[-0.36854257220559644, -0.05335809445665571, 0.13237737303017208, -0.17706187701186268, -3.1120674582879344, -0.0538074682612375]",-1,"[-0.36888, -0.0535, 0.13282032864593127, -0.17775369861257473, -3.1111621920706236, -0.054454232722734204]",1677768595.033936,1677768715.033936,-1,starting,"('starting', (-0.36888, -0.0535), 0, 8, -0.02)",1,168830.448,"[-0.13490039370912577, -1.8216479357814341, 2.2107434199163194, 4.29713725758948, -1.6008408705663477, -1.5925334121732915]","[2.3816822871587815e-07, 1.7941336755302475e-06, -1.2879329429893007e-06, -4.982725064422767e-07, -5.646823889122743e-09, 2.433278557307972e-07]",0,"[2.6931792493760648e-05, 0.00020287859600735204, -0.00014563799274782243, -5.634408846709961e-05, -6.385364248551184e-07, 2.751523724992211e-05]","[-1.6344161220937753e-07, -0.5715146758724915, -1.407447172073865, -0.17880477669020695, -0.0012325576194914482, 7.058649980544803e-07]","[-1.830255898457346e-06, -6.495091049628338, -15.97772237117167, -1.4902483053878237, -0.010369640224428581, 5.828942515017121e-06]","[-0.13490039507021123, -1.8216241041766565, 2.2107315063476562, 4.297137260437012, -1.600804630910055, -1.5925453344928187]","[0.0, 0.0, -0.0, 0.0, 0.0, 0.0]","[-0.14123407006263733, -0.36093148589134216, -1.2173031568527222, -0.12352833896875381, 0.0564265251159668, -0.07167693227529526]","[-0.13899224996566772, -0.3429970145225525, -1.2486884593963623, -0.15097907185554504, 0.061001647263765335, -0.06862685084342957]","[-0.37352972925405664, -0.05335105098791254, 0.1323467945174555, -0.17708386818195687, -3.1121502989633134, -0.05379939315274582]","[0.0, 0.0, 0.0, 0.0, 0.0, 0.0]","[1.3626130734473825, -6.5180791086236125, 6.152718685510779, 1.9121709637184594, 0.13107237609406244, -0.7015284115444493]","[-0.36852326318123413, -0.05334377648880929, 0.1323500662403468, -0.17710293389775708, -3.1121389645330217, -0.0538567657693253]","[-6.432232166770676e-07, 1.0935636702545013e-09, 5.002877587417084e-09, 2.353175319844145e-11, -9.339419642360802e-12, -4.5622561609530024e-12]",65536,"[35.82998275756836, 35.699981689453125, 34.549983978271484, 41.32998275756836, 43.019981384277344, 46.4699821472168]",0.410472,7,"[253, 253, 253, 253, 253, 253]",1,"[0.38958898186683655, 1.1627732515335083, -8.891619682312012]",1.0,1.0,4.1862055377495334e-06,47.82634735107422,47.82634735107422,0.7877604365348816,"[47.59000015258789, 47.63600158691406, 47.66600036621094, 47.68199920654297, 47.513999938964844, 47.68199920654297]",132,2
4,"[[36224. 36224. 36109. 36109. 36129. 36129. 37374. 37374.]
 [36224. 36224. 36109. 36109. 36129. 36129. 37374. 37374.]
 [28444. 28444. 35814. 35814. 35687. 35687. 36515. 36515.]
 [28444. 28444. 35814. 35814. 35687. 35687. 36515. 36515.]
 [36898. 36898. 35759. 35759. 35946. 35946. 36718. 36718.]
 [36898. 36898. 35759. 35759. 35946. 35946. 36718. 36718.]
 [37143. 37143. 36244. 36244. 36457. 36457. 37025. 37025.]
 [37143. 37143. 36244. 36244. 36457. 36457. 37025. 37025.]]",,1677768595.1229067,['-X'],"[-0.36854257220559644, -0.05335809445665571, 0.13237737303017208, -0.17706187701186268, -3.1120674582879344, -0.0538074682612375]",-1,"[-0.36888, -0.0535, 0.13282032864593127, -0.17775369861257473, -3.1111621920706236, -0.054454232722734204]",1677768595.033936,1677768715.033936,-1,starting,"('starting', (-0.36888, -0.0535), 0, 8, -0.02)",1,168830.46399999998,"[-0.13490037730648652, -1.8216478145264103, 2.2107433326679544, 4.29713722391404, -1.6008408708420383, -1.5925333956303094]","[2.1546036533043615e-06, 1.5926121713701732e-05, -1.1459694321077337e-05, -4.423067495116016e-06, -3.613581483807593e-08, 2.1728905031270362e-06]",0,"[0.00021488430302150436, 0.001588101774970531, -0.0011427467569909739, -0.00044105411594314606, -3.5915374063193897e-06, 0.00021668458175363347]","[-4.2737180620001665e-07, -0.5705494819280413, -1.4081826652350473, -0.1788164878619816, -0.0012323549850996205, 5.55874043493473e-06]","[-4.785805515243634e-06, -6.491255697086272, -15.979989345166288, -1.4903459121420408, -0.01036793543942939, 4.590336472334188e-05]","[-0.1349242369281214, -1.8216360251056116, 2.210683822631836, 4.297161102294922, -1.600804630910055, -1.5925095717059534]","[0.0, 0.0, -0.0, 0.0, 0.0, 0.0]","[-0.1322668194770813, -0.3407551944255829, -1.2576557397842407, -0.13572867214679718, 0.05795156583189964, -0.07015189528465271]","[-0.13899224996566772, -0.3407551944255829, -1.2509303092956543, -0.15097907185554504, 0.061001647263765335, -0.07167693227529526]","[-0.3735427258581684, -0.053340686676738386, 0.13237076676490858, -0.17717551271085674, -3.11210910445992, -0.05380290107402059]","[0.0, 0.0, 0.0, 0.0, 0.0, 0.0]","[3.188284514907018, -5.870423528013186, 5.7842098300806155, 1.7743874014342256, 0.4544580529322387, -0.6728852102659687]","[-0.36852330671457395, -0.05334377654107718, 0.13235006667249105, -0.1771029335643625, -3.1121389643354633, -0.053856765620954726]","[-5.71788671372692e-06, -6.950566758856236e-09, 5.682527513709194e-08, -1.0290608161561314e-08, 2.9034287817314428e-08, 2.7882971126198525e-08]",65536,"[35.82998275756836, 35.699981689453125, 34.549983978271484, 41.32998275756836, 43.019981384277344, 46.4699821472168]",0.3972,7,"[253, 253, 253, 253, 253, 253]",1,"[0.36561426520347595, 1.18075430393219, -8.840673446655273]",1.0,1.0,4.457074228004813e-05,47.88711929321289,47.88711929321289,0.6087239384651184,"[47.59000015258789, 47.63600158691406, 47.66600036621094, 47.68199920654297, 47.499000549316406, 47.68199920654297]",132,2
5,"[[0. 0. 0. 0. 0. 0. 0. 0.]
 [0. 0. 0. 0. 0. 0. 0. 0.]
 [0. 0. 0. 0. 0. 0. 0. 0.]
 [0. 0. 0. 0. 0. 0. 0. 0.]
 [0. 0. 0. 0. 0. 0. 0. 0.]
 [0. 0. 0. 0. 0. 0. 0. 0.]
 [0. 0. 0. 0. 0. 0. 0. 0.]
 [0. 0. 0. 0. 0. 0. 0. 0.]]",,1677768595.146237,['-X'],"[-0.36854257220559644, -0.05335809445665571, 0.13237737303017208, -0.17706187701186268, -3.1120674582879344, -0.0538074682612375]",-1,"[-0.36888, -0.0535, 0.13282032864593127, -0.17775369861257473, -3.1111621920706236, -0.054454232722734204]",1677768595.033936,1677768715.033936,-1,starting,"('starting', (-0.36888, -0.0535), 0, 8, -0.02)",1,168830.48799999998,"[-0.13490027425592555, -1.8216470347239158, 2.210742772145773, 4.297137008060535, -1.6008408713167057, -1.5925332900276565]","[5.5487999122981495e-06, 4.22632428375034e-05, -3.046018323454095e-05, -1.166749186880036e-05, -2.3678008565932217e-08, 5.777333226464174e-06]",0,"[-0.00023918777284320095, -0.0017504130142560964, 0.0012394914298158616, 0.0004915347214026565, 1.3101895900047456e-06, -0.00022457195348954357]","[-1.1873921428280851e-07, -0.5703284965340722, -1.4085943389627285, -0.17902126028336737, -0.0012329023170994475, -5.7610799453832165e-06]","[-1.3296684019544446e-06, -6.500541598821527, -15.974577677552723, -1.4901109941933082, -0.01037254020259159, -4.7574258418555105e-05]","[-0.13487607637514287, -1.8216360251056116, 2.2107434272766113, 4.297112941741943, -1.600804630910055, -1.5925334135638636]","[0.0, 0.0, -0.0, 0.0, 0.0, 0.0]","[-0.1345086395740509, -0.35420605540275574, -1.2509303092956543, -0.13877874612808228, 0.061001647263765335, -0.0762520581483841]","[-0.13899224996566772, -0.3407551944255829, -1.2374794483184814, -0.15097907185554504, 0.061001647263765335, -0.07167693227529526]","[-0.37352886374850774, -0.053359945573797564, 0.13234798209358262, -0.17706372536270099, -3.112126502959027, -0.053801276055368615]","[0.0, 0.0, 0.0, 0.0, 0.0, 0.0]","[2.50937110211117, -6.222317154580324, 5.850882217023108, 1.8749367241984907, 0.26849246153259404, -0.7381701738139622]","[-0.36852358648246997, -0.05334377631506938, 0.132350069100999, -0.17710293400500138, -3.112138964202558, -0.053856762571994024]","[-1.518762179317462e-05, 2.8241423820177798e-08, 1.6617079294256333e-07, -1.0188702949817824e-07, 6.685809843419482e-08, -1.0423445938163276e-07]",65536,"[35.82998275756836, 35.699981689453125, 34.549983978271484, 41.32998275756836, 43.019981384277344, 46.4699821472168]",0.597637,7,"[253, 253, 253, 253, 253, 253]",1,"[0.40157634019851685, 1.1717637777328491, -8.822691917419434]",1.0,1.0,0.00012956131378993597,47.88711929321289,47.82634735107422,0.9309917092323303,"[47.59000015258789, 47.63600158691406, 47.66600036621094, 47.68199920654297, 47.499000549316406, 47.68199920654297]",132,2
6,"[[36226. 36226. 36113. 36113. 36130. 36130. 37374. 37374.]
 [36226. 36226. 36113. 36113. 36130. 36130. 37374. 37374.]
 [28448. 28448. 35817. 35817. 35685. 35685. 36514. 36514.]
 [28448. 28448. 35817. 35817. 35685. 35685. 36514. 36514.]
 [36898. 36898. 35756. 35756. 35948. 35948. 36719. 36719.]
 [36898. 36898. 35756. 35756. 35948. 35948. 36719. 36719.]
 [37141. 37141. 36244. 36244. 36459. 36459. 37026. 37026.]
 [37141. 37141. 36244. 36244. 36459. 36459. 37026. 37026.]]",,1677768595.162114,['-X'],"[-0.36854257220559644, -0.05335809445665571, 0.13237737303017208, -0.17706187701186268, -3.1120674582879344, -0.0538074682612375]",-1,"[-0.36888, -0.0535, 0.13282032864593127, -0.17775369861257473, -3.1111621920706236, -0.054454232722734204]",1677768595.033936,1677768715.033936,-1,starting,"('starting', (-0.36888, -0.0535), 0, 8, -0.02)",1,168830.504,"[-0.13489983261547867, -1.821643663809681, 2.210740340449119, 4.2971360782871315, -1.600840873172512, -1.5925328277661857]","[4.345397343574775e-05, 0.0003317186813126065, -0.00023930840810367225, -9.148996029499918e-05, -1.8240637039377497e-07, 4.549903725092747e-05]",0,"[0.0031681792127529083, 0.024193628982240874, -0.017456353669227237, -0.006671770050682509, -1.3264969012916654e-05, 0.003320161647175283]","[0.0022629549523394674, -0.552598743386961, -1.4221045857881591, -0.18083347333863992, -0.0012282403942330178, 0.0009519778944467788]","[-0.0003251952511195101, -6.428718292782747, -16.017090907009134, -1.4919315009373069, -0.010333318942575479, 0.0007033568784511957]","[-0.13488847414125615, -1.821695629750387, 2.2107315063476562, 4.297161102294922, -1.60081655183901, -1.5925334135638636]","[0.0, 0.0, -0.0, 0.0, 0.0, 0.0]","[-0.15244311094284058, -0.3452388346195221, -1.2419630289077759, -0.13877874612808228, 0.061001647263765335, -0.07167693227529526]","[-0.17037759721279144, -0.33627158403396606, -1.2442048788070679, -0.15707923471927643, 0.061001647263765335, -0.07167693227529526]","[-0.37352047914698144, -0.05335390214127174, 0.13237008413239926, -0.17708285890792538, -3.1121028694311743, -0.053822438588973794]","[0.0, 0.0, 0.0, 0.0, 0.0, 0.0]","[1.5326829722731885, -6.994186719168354, 6.237100883846353, 2.041883086175803, 0.031637296842784414, -0.7168504566389853]","[-0.3685247985197533, -0.05334377364337964, 0.13235008328621298, -0.17710295065311096, -3.1121389573746763, -0.05385674961176791]","[-0.00011927641565826204, 2.656356416083542e-07, 1.4018638376858236e-06, -7.871474641246693e-07, 6.73161011901607e-07, -1.0691827465618333e-06]",65536,"[35.82998275756836, 35.699981689453125, 34.549983978271484, 41.32998275756836, 43.019981384277344, 46.4699821472168]",0.38308800000000004,7,"[253, 253, 253, 253, 253, 253]",1,"[0.40157634019851685, 1.1507859230041504, -8.867644309997559]",1.0,1.0,0.001046207116259165,47.88711929321289,47.82634735107422,0.7161448001861572,"[47.59000015258789, 47.63600158691406, 47.66600036621094, 47.68199920654297, 47.499000549316406, 47.6510009765625]",132,2
7,"[[36224. 36224. 36109. 36109. 36124. 36124. 37375. 37375.]
 [36224. 36224. 36109. 36109. 36124. 36124. 37375. 37375.]
 [28445. 28445. 35818. 35818. 35685. 35685. 36515. 36515.]
 [28445. 28445. 35818. 35818. 35685. 35685. 36515. 36515.]
 [36900. 36900. 35758. 35758. 35947. 35947. 36714. 36714.]
 [36900. 36900. 35758. 35758. 35947. 35947. 36714. 36714.]
 [37144. 37144. 36247. 36247. 36456. 36456. 37028. 37028.]
 [37144. 37144. 36247. 36247. 36456. 36456. 37028. 37028.]]",,1677768595.177109,['-X'],"[-0.36854257220559644, -0.05335809445665571, 0.13237737303017208, -0.17706187701186268, -3.1120674582879344, -0.0538074682612375]",-1,"[-0.36888, -0.0535, 0.13282032864593127, -0.17775369861257473, -3.1111621920706236, -0.054454232722734204]",1677768595.033936,1677768715.033936,-1,starting,"('starting', (-0.36888, -0.0535), 0, 8, -0.02)",1,168830.52,"[-0.13489927595422557, -1.8216394948528265, 2.2107373459542963, 4.2971349177309826, -1.6008408754508174, -1.592532261211412]","[5.433631573782247e-05, 0.00040621279237383336, -0.000291656312992635, -0.00011318008114596669, -2.2186289317243938e-07, 5.515542719298003e-05]",0,"[0.004073063974322686, 0.03032239048245917, -0.021750007177080633, -0.008465857384515423, -1.6538455992169635e-05, 0.004108650184214682]","[0.0028518695781161204, -0.5481798272590931, -1.4254087668958402, -0.18131978637608595, -0.0012269819988511284, 0.0011561695330278637]","[-0.00015821795081943837, -6.411874178695675, -16.026812321266654, -1.4923751649360404, -0.010322731926468548, 0.0008703935757693558]","[-0.1349242369281214, -1.8216598669635218, 2.2107315063476562, 4.297161102294922, -1.6008408705340784, -1.5925095717059534]","[0.0, 0.0, -0.0, 0.0, 0.0, 0.0]","[-0.16813579201698303, -0.3250625431537628, -1.2419630289077759, -0.16165436804294586, 0.06557676941156387, -0.0732019767165184]","[-0.18158665299415588, -0.33627158403396606, -1.2554138898849487, -0.15860427916049957, 0.061001647263765335, -0.07167693227529526]","[-0.37352318345321256, -0.05333517116172112, 0.13235746050353694, -0.17717723052751627, -3.1121347357693203, -0.0538567409542608]","[0.0, 0.0, 0.0, 0.0, 0.0, 0.0]","[2.0944861145458216, -7.535557678147491, 7.187657118161145, 2.1561939459071904, -0.15187025017351422, -0.7418873152996065]","[-0.368526294554698, -0.0533437745202281, 0.13235009592076943, -0.1771029469985136, -3.11213895244556, -0.05385673323090454]","[-0.0001457424835125361, -1.2413906372567175e-07, 1.1850953190426288e-06, -9.861003918403664e-07, 5.571944469897488e-07, 3.7676416918107646e-07]",65536,"[35.82998275756836, 35.699981689453125, 34.549983978271484, 41.32998275756836, 43.019981384277344, 46.4699821472168]",0.410904,7,"[253, 253, 253, 253, 253, 253]",1,"[0.4045731723308563, 1.1957385540008545, -8.831682205200195]",1.0,1.0,0.001302857226271335,47.88711929321289,47.88711929321289,0.7161448001861572,"[47.57500076293945, 47.63600158691406, 47.66600036621094, 47.6510009765625, 47.499000549316406, 47.6510009765625]",132,2
8,"[[0. 0. 0. 0. 0. 0. 0. 0.]
 [0. 0. 0. 0. 0. 0. 0. 0.]
 [0. 0. 0. 0. 0. 0. 0. 0.]
 [0. 0. 0. 0. 0. 0. 0. 0.]
 [0. 0. 0. 0. 0. 0. 0. 0.]
 [0. 0. 0. 0. 0. 0. 0. 0.]
 [0. 0. 0. 0. 0. 0. 0. 0.]
 [0. 0. 0. 0. 0. 0. 0. 0.]]",,1677768595.1986718,['-X'],"[-0.36854257220559644, -0.05335809445665571, 0.13237737303017208, -0.17706187701186268, -3.1120674582879344, -0.0538074682612375]",-1,"[-0.36888, -0.0535, 0.13282032864593127, -0.17775369861257473, -3.1111621920706236, -0.054454232722734204]",1677768595.033936,1677768715.033936,-1,starting,"('starting', (-0.36888, -0.0535), 0, 8, -0.02)",1,168830.544,"[-0.134897946153127, -1.8216295309960664, 2.2107301693837513, 4.297132156322023, -1.6008408913115737, -1.5925309032154225]","[5.7263930574981815e-05, 0.000432631841576631, -0.00031144176965557454, -0.0001196995933165826, -1.0234511852067538e-06, 5.921530609279044e-05]",0,"[-0.003712322619708986, -0.027036997592163225, 0.019525957349961213, 0.007527807441753457, -2.43475245103115e-05, -0.0036325775229082303]","[0.0030164779827689227, -0.5611592262181228, -1.4180653115703339, -0.1809634155120325, -0.0012386776190107444, 0.0010349239556077105]","[-4.414445168810562e-05, -6.57121798253261, -15.932944258917711, -1.4883200604439268, -0.010421128440626507, -0.0007695403594034175]","[-0.13490039507021123, -1.8216241041766565, 2.210707664489746, 4.297161102294922, -1.60081655183901, -1.5925453344928187]","[0.0, 0.0, -0.0, 0.0, 0.0, 0.0]","[-0.2084883749485016, -0.30040261149406433, -1.2867993116378784, -0.17537973821163177, 0.06405173242092133, -0.07930213958024979]","[-0.19055390357971191, -0.2891935706138611, -1.2867993116378784, -0.16165436804294586, 0.061001647263765335, -0.0732019767165184]","[-0.3735328895588272, -0.05334795435170503, 0.1323555345012171, -0.17708419386691165, -3.112150898058271, -0.053817912127193335]","[0.0, 0.0, 0.0, 0.0, 0.0, 0.0]","[4.649996611329805, -8.663708505239589, 6.820930505849874, 2.3804739746853887, 0.31772383610799315, -0.7853621213258319]","[-0.36852987433184237, -0.05334377349117247, 0.13235013405251086, -0.17710294536127913, -3.112138933383637, -0.05385671097816445]","[-0.00015534541326606388, 2.7969318608179755e-07, 1.5601837617621918e-06, -2.846577766480068e-07, 4.801351061130284e-07, -6.991003267563643e-07]",65536,"[35.82998275756836, 35.699981689453125, 34.549983978271484, 41.32998275756836, 43.019981384277344, 46.4699821472168]",0.6078600000000001,7,"[253, 253, 253, 253, 253, 253]",1,"[0.41056686639785767, 1.1657700538635254, -8.849663734436035]",1.0,1.0,0.0014139636884372266,47.82634735107422,47.82634735107422,0.6803395748138428,"[47.57500076293945, 47.62099838256836, 47.66600036621094, 47.6510009765625, 47.529998779296875, 47.6510009765625]",132,2
9,"[[36225. 36225. 36111. 36111. 36128. 36128. 37373. 37373.]
 [36225. 36225. 36111. 36111. 36128. 36128. 37373. 37373.]
 [28446. 28446. 35819. 35819. 35685. 35685. 36515. 36515.]
 [28446. 28446. 35819. 35819. 35685. 35685. 36515. 36515.]
 [36899. 36899. 35759. 35759. 35944. 35944. 36716. 36716.]
 [36899. 36899. 35759. 35759. 35944. 35944. 36716. 36716.]
 [37138. 37138. 36246. 36246. 36458. 36458. 37026. 37026.]
 [37138. 37138. 36246. 36246. 36458. 36458. 37026. 37026.]]",,1677768595.2158158,['-X'],"[-0.36854257220559644, -0.05335809445665571, 0.13237737303017208, -0.17706187701186268, -3.1120674582879344, -0.0538074682612375]",-1,"[-0.36888, -0.0535, 0.13282032864593127, -0.17775369861257473, -3.1111621920706236, -0.054454232722734204]",1677768595.033936,1677768715.033936,-1,starting,"('starting', (-0.36888, -0.0535), 0, 8, -0.02)",1,168830.56,"[-0.13489624771660846, -1.8216166497851098, 2.2107209016078535, 4.297128598115492, -1.6008409236836414, -1.5925291431366766]","[9.156118710409079e-05, 0.0006929846122846915, -0.0004985153538261304, -0.00019122093773167394, -1.4254784880992094e-06, 9.409250546633691e-05]",0,"[-0.005372095597205062, -0.04110099786770559, 0.029589722900674548, 0.01140447201132164, 0.00018246606105959152, -0.005765395625968794]","[0.0048808843399580325, -0.5543720829941882, -1.424796818510287, -0.18227379202873956, -0.001235889125080263, 0.001644655100722267]","[0.00057534694643647, -6.610743653523499, -15.910048683482627, -1.4873392467378392, -0.010397668540359107, -0.0012213654338088028]","[-0.13488847414125615, -1.821587864552633, 2.2107315063476562, 4.297137260437012, -1.6008408705340784, -1.5925334135638636]","[0.0, 0.0, -0.0, 0.0, 0.0, 0.0]","[-0.19952113926410675, -0.25556638836860657, -1.3204264640808105, -0.163179412484169, 0.0564265251159668, -0.07777710258960724]","[-0.19279570877552032, -0.24659916758537292, -1.3159427642822266, -0.1662294864654541, 0.061001647263765335, -0.07167693227529526]","[-0.37352955008420285, -0.05334726250096637, 0.13233408662305818, -0.17708574336793662, -3.112187917829198, -0.0538515064647566]","[0.0, 0.0, 0.0, 0.0, 0.0, 0.0]","[6.623767040299114, -8.041552373059531, 6.299258522081532, 2.198436019456912, 0.9385617302929493, -0.7505224809586287]","[-0.3685344967763621, -0.05334376276101871, 0.132350177538706, -0.1771029834828684, -3.1121389291239896, -0.05385669867510851]","[-0.0002486073351282183, 4.280983121052215e-07, 2.28089078869742e-06, -7.675123510595831e-07, -8.228833211569079e-08, -5.222407066582385e-07]",65536,"[35.82998275756836, 35.699981689453125, 34.549983978271484, 41.32998275756836, 43.019981384277344, 46.4699821472168]",0.5857319999999999,7,"[253, 253, 253, 253, 253, 253]",1,"[0.3805984556674957, 1.1627732515335083, -8.825689315795898]",1.0,1.0,0.002283834283676826,47.88711929321289,47.82634735107422,0.7519552707672119,"[47.57500076293945, 47.62099838256836, 47.66600036621094, 47.6510009765625, 47.529998779296875, 47.6510009765625]",132,2
10,"[[36224. 36224. 36110. 36110. 36126. 36126. 37375. 37375.]
 [36224. 36224. 36110. 36110. 36126. 36126. 37375. 37375.]
 [28448. 28448. 35819. 35819. 35685. 35685. 36514. 36514.]
 [28448. 28448. 35819. 35819. 35685. 35685. 36514. 36514.]
 [36903. 36903. 35754. 35754. 35947. 35947. 36718. 36718.]
 [36903. 36903. 35754. 35754. 35947. 35947. 36718. 36718.]
 [37145. 37145. 36247. 36247. 36457. 36457. 37024. 37024.]
 [37145. 37145. 36247. 36247. 36457. 36457. 37024. 37024.]]",,1677768595.236608,['-X'],"[-0.36854257220559644, -0.05335809445665571, 0.13237737303017208, -0.17706187701186268, -3.1120674582879344, -0.0538074682612375]",-1,"[-0.36888, -0.0535, 0.13282032864593127, -0.17775369861257473, -3.1111621920706236, -0.054454232722734204]",1677768595.033936,1677768715.033936,-1,starting,"('starting', (-0.36888, -0.0535), 0, 8, -0.02)",1,168830.584,"[-0.13489002288455776, -1.8215696596988638, 2.210687120207645, 4.297115642271315, -1.6008410052197117, -1.5925228044969888]","[0.00022500508199005327, 0.0016962689094458157, -0.0012178359776205787, -0.00046803389597728707, -3.59657779857493e-06, 0.00022879912259303722]",0,"[-0.02100330449066326, -0.15893496730907186, 0.11459128688081537, 0.04373651618389411, 0.00012173180316561929, -0.02140785848108194]","[0.012018649873070768, -0.5436926435674638, -1.4414068556512392, -0.18681375628046856, -0.0012605138432536381, 0.003809658655590889]","[0.0016790840801169868, -6.939103487441435, -15.716654703147146, -1.4791109669001372, -0.010604838950932857, -0.0045351299471786885]","[-0.13488847414125615, -1.8216360251056116, 2.2106714248657227, 4.297149181365967, -1.6008284727679651, -1.5925334135638636]","[0.0, 0.0, -0.0, 0.0, 0.0, 0.0]","[-0.10088147222995758, 0.04483621194958687, -1.5423656702041626, -0.23028121888637543, 0.061001647263765335, -0.07015189528465271]","[-0.09639785438776016, 0.051561642438173294, -1.5446075201034546, -0.18758006393909454, 0.061001647263765335, -0.06557676941156387]","[-0.3735472286182522, -0.053347650226334836, 0.13237788669309794, -0.17708246686156517, -3.112091105332302, -0.05384231619009763]","[0.0, 0.0, 0.0, 0.0, 0.0, 0.0]","[23.066830619297125, -2.0359105918375437, 7.067990622772811, 0.8067265315516354, 3.8974204450119365, -0.5633633083256557]","[-0.3685513437345582, -0.05334374453707545, 0.13235032036518615, -0.17710295070201504, -3.1121389737612835, -0.0538565925301397]","[-0.0006076003277544256, 6.190483993332255e-07, 4.428729440673605e-06, -2.0691546595870688e-06, -2.6957940294346074e-06, 1.1166635202944613e-06]",65536,"[35.82998275756836, 35.699981689453125, 34.549983978271484, 41.32998275756836, 43.019981384277344, 46.4699821472168]",0.6298440000000001,7,"[253, 253, 253, 253, 253, 253]",1,"[0.38659214973449707, 1.1627732515335083, -8.849663734436035]",1.0,1.0,0.005640183582462338,47.88711929321289,47.82634735107422,0.7519552707672119,"[47.57500076293945, 47.62099838256836, 47.71200180053711, 47.6510009765625, 47.529998779296875, 47.66600036621094]",132,2
11,"[[36225. 36225. 36110. 36110. 36127. 36127. 37373. 37373.]
 [36225. 36225. 36110. 36110. 36127. 36127. 37373. 37373.]
 [28444. 28444. 35818. 35818. 35687. 35687. 36517. 36517.]
 [28444. 28444. 35818. 35818. 35687. 35687. 36517. 36517.]
 [36897. 36897. 35758. 35758. 35946. 35946. 36717. 36717.]
 [36897. 36897. 35758. 35758. 35946. 35946. 36717. 36717.]
 [37143. 37143. 36246. 36246. 36460. 36460. 37025. 37025.]
 [37143. 37143. 36246. 36246. 36460. 36460. 37025. 37025.]]",,1677768595.2506409,['-X'],"[-0.36854257220559644, -0.05335809445665571, 0.13237737303017208, -0.17706187701186268, -3.1120674582879344, -0.0538074682612375]",-1,"[-0.36888, -0.0535, 0.13282032864593127, -0.17775369861257473, -3.1111621920706236, -0.054454232722734204]",1677768595.033936,1677768715.033936,-1,starting,"('starting', (-0.36888, -0.0535), 0, 8, -0.02)",1,168830.592,"[-0.13488698125325627, -1.821546759360512, 2.210670703241208, 4.297109317748912, -1.6008410645956044, -1.5925197141109546]","[0.00039921410828947006, 0.003005669408632828, -0.0021547268448360054, -0.0008300935653374464, -7.793085962312809e-06, 0.00040561316698632904]",0,"[0.021776128287427098, 0.16367506239837654, -0.11711135840192834, -0.045257458670019915, -0.0005245635204672349, 0.022101755549161477]","[0.02093951397929363, -0.4133557970056047, -1.5316358460700632, -0.19675013027449306, -0.001213685086941813, 0.008294295769121926]","[-0.0013408166159892543, -6.045228180639748, -16.243276128331505, -1.5016698869844123, -0.010210863572068686, 0.004682127993549741]","[-0.13487607637514287, -1.821575943623678, 2.2106595039367676, 4.297112941741943, -1.6007807890521448, -1.5925214926349085]","[0.0, 0.008245146833360195, -0.0, 0.0, 0.0, 0.0]","[-0.12329958379268646, -0.41473495960235596, -1.3966479301452637, -0.17842981219291687, 0.05490148067474365, -0.07472702115774155]","[-0.12329958379268646, -0.4237021803855896, -1.3899224996566772, -0.18452998995780945, 0.061001647263765335, -0.06710181385278702]","[-0.3735628296046735, -0.05336075388321501, 0.13236520496793866, -0.17708069204219676, -3.1121002476502344, -0.05376650601922473]","[-0.0003527071151282899, 4.40696710020884e-05, -0.0029515378371655467, -0.0011085576556960682, -0.008170277619440823, 1.0480884107237057e-05]","[-4.5791545175880755, -7.912761671231452, 2.8287234946191337, 2.229543316580437, -1.1882332099825295, -0.8609964034193741]","[-0.36855953846238115, -0.05334373630314111, 0.13235036944237508, -0.17710292589047477, -3.1121390325192966, -0.05385656743022396]","[-0.0010755608686486855, 1.0777129398712114e-06, 6.427615331963822e-06, -2.59013952134292e-06, -7.3614191876395605e-06, 2.2636081546145194e-06]",65536,"[35.82998275756836, 35.699981689453125, 34.549983978271484, 41.32998275756836, 43.019981384277344, 46.4699821472168]",0.39687599999999995,7,"[253, 253, 253, 253, 253, 253]",1,"[0.5334372520446777, 1.11182701587677, -8.94256591796875]",1.0,1.0,0.010016410779595718,47.88711929321289,47.82634735107422,0.7161448001861572,"[47.57500076293945, 47.62099838256836, 47.71200180053711, 47.63600158691406, 47.529998779296875, 47.66600036621094]",132,2
12,"[[36224. 36224. 36108. 36108. 36124. 36124. 37373. 37373.]
 [36224. 36224. 36108. 36108. 36124. 36124. 37373. 37373.]
 [28444. 28444. 35815. 35815. 35685. 35685. 36513. 36513.]
 [28444. 28444. 35815. 35815. 35685. 35685. 36513. 36513.]
 [36898. 36898. 35755. 35755. 35945. 35945. 36719. 36719.]
 [36898. 36898. 35755. 35755. 35945. 35945. 36719. 36719.]
 [37142. 37142. 36245. 36245. 36454. 36454. 37026. 37026.]
 [37142. 37142. 36245. 36245. 36454. 36454. 37026. 37026.]]",,1677768595.2656095,['-X'],"[-0.36854257220559644, -0.05335809445665571, 0.13237737303017208, -0.17706187701186268, -3.1120674582879344, -0.0538074682612375]",-1,"[-0.36888, -0.0535, 0.13282032864593127, -0.17775369861257473, -3.1111621920706236, -0.054454232722734204]",1677768595.033936,1677768715.033936,-1,starting,"('starting', (-0.36888, -0.0535), 0, 8, -0.02)",1,168830.60799999998,"[-0.13488113515899602, -1.8215028758613245, 2.2106390970688405, 4.297097186598638, -1.6008411697144318, -1.5925137776731324]","[0.000496501785155125, 0.0037250664864644555, -0.0026850329198475327, -0.001029925412360697, -8.797128391887358e-06, 0.0005041257951323096]",0,"[0.028558945205645007, 0.21389957786068683, -0.15459017370779612, -0.05917252040276612, -0.00048086370515234276, 0.028988082726731992]","[0.026050283464609036, -0.3728558182068502, -1.5639953789574041, -0.20117588815249568, -0.0012026335040954505, 0.010347696340801769]","[-0.0015894029263210305, -5.9078620107612885, -16.328828868139983, -1.5052980837346144, -0.010117885413307612, 0.006140956238171628]","[-0.1349123159991663, -1.8215158621417444, 2.210695743560791, 4.297137260437012, -1.6008647123919886, -1.5925334135638636]","[0.0, 0.0, -0.0, 0.0, 0.0, 0.0]","[-0.1322668194770813, -0.16813579201698303, -1.4594186544418335, -0.18758006393909454, 0.06252668797969818, -0.07167693227529526]","[-0.12329958379268646, -0.18158665299415588, -1.4437259435653687, -0.20435552299022675, 0.061001647263765335, -0.06710181385278702]","[-0.37354625444882184, -0.05333107727470463, 0.1323250639181481, -0.17712434204304703, -3.1122236125916505, -0.05388525935012154]","[0.0, 0.0, 0.0, 0.0, 0.0, 0.0]","[3.5110839869076402, -7.039300878367033, 5.127537936356651, 2.050174599921262, 0.31160491540765517, -0.7937939788758257]","[-0.3685752974492888, -0.05334372144950043, 0.13235053197766483, -0.17710286802967454, -3.1121389864286972, -0.05385652188548201]","[-0.0013385202379698113, 1.242106107943377e-06, 1.4768300070799097e-05, -1.9740924647732293e-06, 6.631296951792501e-06, 3.156116124870931e-06]",65536,"[35.82998275756836, 35.699981689453125, 34.549983978271484, 41.32998275756836, 43.019981384277344, 46.4699821472168]",0.395473,7,"[253, 253, 253, 253, 253, 253]",1,"[0.2846996486186981, 1.2287037372589111, -8.879631996154785]",1.0,1.0,0.01247573007204555,47.88711929321289,47.82634735107422,0.7519552707672119,"[47.560001373291016, 47.6510009765625, 47.71200180053711, 47.63600158691406, 47.513999938964844, 47.66600036621094]",132,2
13,"[[0. 0. 0. 0. 0. 0. 0. 0.]
 [0. 0. 0. 0. 0. 0. 0. 0.]
 [0. 0. 0. 0. 0. 0. 0. 0.]
 [0. 0. 0. 0. 0. 0. 0. 0.]
 [0. 0. 0. 0. 0. 0. 0. 0.]
 [0. 0. 0. 0. 0. 0. 0. 0.]
 [0. 0. 0. 0. 0. 0. 0. 0.]
 [0. 0. 0. 0. 0. 0. 0. 0.]]",,1677768595.2978783,['-X'],"[-0.36854257220559644, -0.05335809445665571, 0.13237737303017208, -0.17706187701186268, -3.1120674582879344, -0.0538074682612375]",-1,"[-0.36888, -0.0535, 0.13282032864593127, -0.17775369861257473, -3.1111621920706236, -0.054454232722734204]",1677768595.033936,1677768715.033936,-1,starting,"('starting', (-0.36888, -0.0535), 0, 8, -0.02)",1,168830.63999999998,"[-0.13486336441784186, -1.8213688887265773, 2.2105428227503143, 4.297060123187983, -1.6008413923106364, -1.5924956641665267]","[0.000829300621880035, 0.006302511321235556, -0.004515322970414083, -0.0017380361798972276, -2.0599568634299895e-05, 0.000849262088901215]",0,"[0.044008254621504095, 0.3375233103352264, -0.24102864352861467, -0.09273204634788161, -0.0017702056905954519, 0.0453084812659046]","[0.04331777675234806, -0.24112561001125415, -1.6669382126976702, -0.21631852021743778, -0.001614172023388745, 0.017341438675680138]","[-0.00487940441417041, -5.568851769300469, -16.524306760081146, -1.5136452940942748, -0.010199591997129637, 0.009598337471810665]","[-0.1348641554461878, -1.8213723341571253, 2.210707664489746, 4.297077178955078, -1.60081655183901, -1.5925453344928187]","[0.0, 0.010725082829594612, -0.0019558256026357412, -0.0029241510201245546, 0.0, 0.0]","[-0.107606902718544, -0.46629658341407776, -1.5849601030349731, -0.19215518236160278, 0.06405173242092133, -0.045751236379146576]","[-0.10088147222995758, -0.47078022360801697, -1.5759928226470947, -0.17385469377040863, 0.061001647263765335, -0.04727627709507942]","[-0.37356000266077755, -0.053357490554736466, 0.13227385266024633, -0.17703219969556128, -3.1123211461254665, -0.053799769731612615]","[-0.0018102441663127244, 0.000239616137599807, -0.002638751923979859, -0.0007826867333816598, -0.005792470963019735, 2.3477835788650784e-05]","[-11.222952930692339, -8.71579311624953, -1.8409447489030515, 2.6090156629899828, -2.14874623620961, -0.7185164471290097]","[-0.3686233438883452, -0.05334368022229384, 0.1323509198941074, -0.17710280002567672, -3.112139039134813, -0.05385621023785235]","[-0.0022540887816964172, 5.759829122654971e-06, 1.1472560842450702e-05, -1.920814773028887e-06, -2.1438344214597645e-05, -1.91906477547011e-06]",65536,"[35.82998275756836, 35.699981689453125, 34.549983978271484, 41.32998275756836, 43.019981384277344, 46.4699821472168]",0.43788,7,"[253, 253, 253, 253, 253, 253]",1,"[0.4045731723308563, 1.2346973419189453, -8.927581787109375]",1.0,1.0,0.02124324829629541,47.88711929321289,47.82634735107422,0.6803395748138428,"[47.560001373291016, 47.6510009765625, 47.68199920654297, 47.63600158691406, 47.513999938964844, 47.66600036621094]",132,2
14,"[[36224. 36224. 36112. 36112. 36127. 36127. 37371. 37371.]
 [36224. 36224. 36112. 36112. 36127. 36127. 37371. 37371.]
 [28446. 28446. 35815. 35815. 35683. 35683. 36513. 36513.]
 [28446. 28446. 35815. 35815. 35683. 35683. 36513. 36513.]
 [36902. 36902. 35757. 35757. 35945. 35945. 36716. 36716.]
 [36902. 36902. 35757. 35757. 35945. 35945. 36716. 36716.]
 [37142. 37142. 36250. 36250. 36456. 36456. 37026. 37026.]
 [37142. 37142. 36250. 36250. 36456. 36456. 37026. 37026.]]",,1677768595.31687,['-X'],"[-0.36854257220559644, -0.05335809445665571, 0.13237737303017208, -0.17706187701186268, -3.1120674582879344, -0.0538074682612375]",-1,"[-0.36888, -0.0535, 0.13282032864593127, -0.17775369861257473, -3.1111621920706236, -0.054454232722734204]",1677768595.033936,1677768715.033936,-1,starting,"('starting', (-0.36888, -0.0535), 0, 8, -0.02)",1,168830.664,"[-0.13482471042654876, -1.821073973613843, 2.2103320320271145, 4.296978931875795, -1.6008426047028728, -1.5924560422653045]","[0.0014145993439605416, 0.010777065852003019, -0.007688228355893633, -0.002968093374014986, -4.0699809681524516e-05, 0.0014438700911145934]",0,"[-0.0972959580646745, -0.7468997718577575, 0.5364535166789121, 0.20524199700863704, 0.004097343831596541, -0.10108070503628988]","[0.07564599992631713, -0.3597801462551099, -1.660054353532239, -0.23183283989936787, -0.0020664815114550482, 0.024913516522119466]","[0.011169904601455782, -8.587936450586428, -14.757111566263488, -1.4381899486474017, -0.010706256267297081, -0.021413357758185536]","[-0.13490039507021123, -1.8211806456195276, 2.2104554176330566, 4.296993732452393, -1.6008284727679651, -1.5924971739398401]","[0.00015339808305725455, 0.02197427488863468, -0.018279938027262688, -0.02130795270204544, 0.0, 0.0]","[0.15468493103981018, 0.10984871536493301, -2.0378057956695557, -0.2928079068660736, 0.05185139924287796, 0.02897578291594982]","[0.1591685563325882, 0.11657414585351944, -2.0422894954681396, -0.32025864720344543, 0.05795156583189964, 0.027450740337371826]","[-0.3736801787993044, -0.05332561470602251, 0.1323306157070738, -0.17715809429125384, -3.1121703335123585, -0.05383336987072138]","[-0.012257845546956164, 0.001588493738182646, 0.002747583385015245, 0.002392549337146981, 0.017450304612398243, 0.00025783623852306393]","[27.13933381506217, 7.319203902041522, -1.032736567423364, -1.1872173415464986, 5.442423419611485, 0.2588437058653093]","[-0.36872861304571214, -0.05334333216394847, 0.13235119745004542, -0.17710305057402936, -3.1121406860056675, -0.053856502854679446]","[-0.0038418493789248095, 1.0336998259999998e-05, 2.7874360071113925e-06, -2.6256886672811563e-06, -7.405284337461617e-05, 1.3828568483469084e-06]",65536,"[35.82998275756836, 35.699981689453125, 34.549983978271484, 41.32998275756836, 43.019981384277344, 46.4699821472168]",0.6080399999999999,7,"[253, 253, 253, 253, 253, 253]",1,"[1.0249186754226685, 1.0638775825500488, -9.221271514892578]",1.0,1.0,0.036447380856433696,47.82634735107422,47.82634735107422,0.7519552707672119,"[47.560001373291016, 47.6510009765625, 47.68199920654297, 47.66600036621094, 47.513999938964844, 47.63600158691406]",132,2
15,"[[36226. 36226. 36111. 36111. 36128. 36128. 37375. 37375.]
 [36226. 36226. 36111. 36111. 36128. 36128. 37375. 37375.]
 [28446. 28446. 35815. 35815. 35686. 35686. 36512. 36512.]
 [28446. 28446. 35815. 35815. 35686. 35686. 36512. 36512.]
 [36902. 36902. 35759. 35759. 35945. 35945. 36717. 36717.]
 [36902. 36902. 35759. 35759. 35945. 35945. 36717. 36717.]
 [37142. 37142. 36244. 36244. 36458. 36458. 37028. 37028.]
 [37142. 37142. 36244. 36244. 36458. 36458. 37028. 37028.]]",,1677768595.3351185,['-X'],"[-0.36854257220559644, -0.05335809445665571, 0.13237737303017208, -0.17706187701186268, -3.1120674582879344, -0.0538074682612375]",-1,"[-0.36888, -0.0535, 0.13282032864593127, -0.17775369861257473, -3.1111621920706236, -0.054454232722734204]",1677768595.033936,1677768715.033936,-1,starting,"('starting', (-0.36888, -0.0535), 0, 8, -0.02)",1,168830.68,"[-0.1347999470619179, -1.8208854618832895, 2.2101979070686397, 4.296926906513949, -1.6008431464944124, -1.592430901250344]","[0.001342470864239265, 0.010259358565916754, -0.007305367323098933, -0.00283527219386266, -2.825282930540703e-05, 0.0013687639695442722]",0,"[-0.06403264113866429, -0.47750348743058135, 0.3382661749004416, 0.13080559693815727, 0.0016807898163294136, -0.0635534205256787]","[0.07106718394697627, -0.2950215971546454, -1.6818847322253543, -0.2314857683311255, -0.0018360947479040925, 0.02444544100482811]","[0.0025378343447887974, -7.847902127235985, -15.208882644399564, -1.4574087780351421, -0.0108106697556102, -0.013463421431263105]","[-0.13488847414125615, -1.820977512990133, 2.2103238105773926, 4.2969818115234375, -1.6008284727679651, -1.5924971739398401]","[0.0, 0.025502430275082588, -0.013000487349927425, -0.04448544606566429, 0.0, 0.0]","[0.08743061125278473, 0.32730433344841003, -2.2149088382720947, -0.48343804478645325, 0.05795156583189964, 0.042701154947280884]","[0.09639785438776016, 0.3183371126651764, -2.2126669883728027, -0.4727627635002136, 0.05795156583189964, 0.03965106979012489]","[-0.3737389416249673, -0.0533221009834966, 0.132320068415316, -0.17714071196321618, -3.112230743106404, -0.05382698378927094]","[-0.015537867301865488, 0.002087902684323859, 0.0013661718121745856, 0.004342597871573268, 0.03168719492362482, 0.00016236257116992544]","[37.68768862748767, 7.094881895870182, 2.7468018863205117, -1.4031803279118729, 5.613601411881023, 0.401120095609441]","[-0.3687957128940002, -0.05334321185771073, 0.1323510832107604, -0.17710284628392603, -3.1121422363127675, -0.05385627876427578]","[-0.0036551693549434637, 8.523982015578936e-06, -3.487546860817226e-06, -1.3269416756950223e-05, -7.303059800873728e-05, 3.167187229736806e-06]",65536,"[35.82998275756836, 35.699981689453125, 34.549983978271484, 41.32998275756836, 43.019981384277344, 46.4699821472168]",0.676176,7,"[253, 253, 253, 253, 253, 253]",1,"[-0.5454245805740356, 1.309618353843689, -7.522064208984375]",1.0,1.0,0.034767698428181906,47.82634735107422,47.82634735107422,0.8235656023025513,"[47.560001373291016, 47.6510009765625, 47.68199920654297, 47.66600036621094, 47.529998779296875, 47.63600158691406]",132,2
16,"[[0. 0. 0. 0. 0. 0. 0. 0.]
 [0. 0. 0. 0. 0. 0. 0. 0.]
 [0. 0. 0. 0. 0. 0. 0. 0.]
 [0. 0. 0. 0. 0. 0. 0. 0.]
 [0. 0. 0. 0. 0. 0. 0. 0.]
 [0. 0. 0. 0. 0. 0. 0. 0.]
 [0. 0. 0. 0. 0. 0. 0. 0.]
 [0. 0. 0. 0. 0. 0. 0. 0.]]",,1677768595.346531,['-X'],"[-0.36854257220559644, -0.05335809445665571, 0.13237737303017208, -0.17706187701186268, -3.1120674582879344, -0.0538074682612375]",-1,"[-0.36888, -0.0535, 0.13282032864593127, -0.17775369861257473, -3.1111621920706236, -0.054454232722734204]",1677768595.033936,1677768715.033936,-1,starting,"('starting', (-0.36888, -0.0535), 0, 8, -0.02)",1,168830.688,"[-0.13478536573658584, -1.8207731630362671, 2.2101178146548186, 4.296895787020759, -1.6008434289938762, -1.592415907563435]","[0.0018796239685782987, 0.014476023248975907, -0.010324412719268677, -0.004011497168928646, -3.641594662802855e-05, 0.0019327799531397077]",0,"[0.06714413804237922, 0.5270830853823941, -0.37738067452121804, -0.1470281218832483, -0.00102038966532769, 0.07050199794942943]","[0.09818492849095477, -0.04709444112489958, -1.951695450860763, -0.26337267812149484, -0.0018694283117069593, 0.038628970549874464]","[-0.011408316354634185, -5.063463410041257, -16.833276046095826, -1.527343542759143, -0.009751453950083344, 0.014935437027432587]","[-0.13487607637514287, -1.8208335081683558, 2.2103238105773926, 4.296921730041504, -1.600804630910055, -1.592461411152975]","[0.0, 0.010763431899249554, -0.006340453866869211, 0.0433349572122097, 0.0, 0.0]","[0.06725431978702545, -0.6770268082618713, -1.7105014324188232, -0.08845239132642746, 0.05795156583189964, 0.030500823631882668]","[0.07173793762922287, -0.6658177375793457, -1.7060178518295288, -0.0564265251159668, 0.05795156583189964, 0.03202586621046066]","[-0.37375824324237344, -0.053329387192618746, 0.13227436049632343, -0.17717859019661666, -3.112310487824706, -0.05378029500392857]","[0.006665996004495175, -0.0009090978691758686, -0.005274503739863547, -0.006455933444976914, -0.04731941369713523, -9.041170769487265e-05]","[-30.039562544524728, -6.155099532023593, -7.939673093078089, 2.3221402459016165, -4.284970961464479, -0.2794003334348053]","[-0.36883579492757695, -0.05334307440199749, 0.13235111013074877, -0.1771030044850447, -3.1121428245381906, -0.05385611924130297]","[-0.005166890839735712, 1.7649987647752197e-05, 3.1452403735872714e-06, -1.8475851484140522e-05, -7.538077949530844e-05, -1.1447613290358318e-05]",65536,"[35.82998275756836, 35.699981689453125, 34.549983978271484, 41.32998275756836, 43.019981384277344, 46.4699821472168]",0.442896,7,"[253, 253, 253, 253, 253, 253]",1,"[0.5993676781654358, 1.5853275060653687, -9.30817985534668]",1.0,1.0,0.04913312743038928,47.88711929321289,47.82634735107422,0.6803395748138428,"[47.560001373291016, 47.6510009765625, 47.68199920654297, 47.66600036621094, 47.529998779296875, 47.63600158691406]",132,2
17,"[[36226. 36226. 36112. 36112. 36130. 36130. 37370. 37370.]
 [36226. 36226. 36112. 36112. 36130. 36130. 37370. 37370.]
 [28443. 28443. 35817. 35817. 35685. 35685. 36514. 36514.]
 [28443. 28443. 35817. 35817. 35685. 35685. 36514. 36514.]
 [36902. 36902. 35756. 35756. 35944. 35944. 36716. 36716.]
 [36902. 36902. 35756. 35756. 35944. 35944. 36716. 36716.]
 [37141. 37141. 36246. 36246. 36459. 36459. 37027. 37027.]
 [37141. 37141. 36246. 36246. 36459. 36459. 37027. 37027.]]",,1677768595.3617034,['-X'],"[-0.36854257220559644, -0.05335809445665571, 0.13237737303017208, -0.17706187701186268, -3.1120674582879344, -0.0538074682612375]",-1,"[-0.36888, -0.0535, 0.13282032864593127, -0.17775369861257473, -3.1111621920706236, -0.054454232722734204]",1677768595.033936,1677768715.033936,-1,starting,"('starting', (-0.36888, -0.0535), 0, 8, -0.02)",1,168830.704,"[-0.13475753844887972, -1.8205568457460233, 2.2099634318739447, 4.2968360623257755, -1.6008439319877734, -1.592387204513214]","[0.0021095797142510098, 0.016440573507894192, -0.011735550691885314, -0.0045346840605544215, -3.738149838675179e-05, 0.002177815127060415]",0,"[0.07964606854194542, 0.6295420403641597, -0.4498288954469815, -0.1726846845503896, -0.0012519805675357085, 0.0826138569525998]","[0.11002065228406847, -0.021328302250469194, -1.9670210817773142, -0.27460220963036824, -0.001875501118441099, 0.04360755147958675]","[-0.014876890924574532, -4.786099812915807, -16.996951664368925, -1.5338220270559706, -0.00964408780225127, 0.017501263708780666]","[-0.13484031358827764, -1.8206184546100062, 2.2100839614868164, 4.296969890594482, -1.6008408705340784, -1.5924375692950647]","[0.0, 0.011274758726358414, -0.007529288996011019, 0.025909895077347755, 0.0, 0.0]","[0.17037759721279144, -0.542518138885498, -1.598410964012146, -0.3980357348918915, 0.061001647263765335, 0.05947660654783249]","[0.17261941730976105, -0.5357927083969116, -1.596169114112854, -0.4056609570980072, 0.05795156583189964, 0.07015189528465271]","[-0.3738416446308339, -0.053323066605301984, 0.13230390319824398, -0.1771608681893468, -3.1123357293636715, -0.053833137779228116]","[0.002411666303791511, -0.0003337560043759831, -0.003155255453456383, -0.004005773043890806, -0.029383481254561694, -4.3481175521976815e-05]","[-26.6557008194866, -2.189097750392252, 5.3747395776348785, 0.818520226281971, -7.6190424208553384, -0.1438834728118968]","[-0.36891301155235323, -0.05334272710741011, 0.13235117339737337, -0.17710343975070827, -3.1121440716249653, -0.05385574386700991]","[-0.005868877858327642, 2.8005600695352272e-05, 4.624571199875567e-06, -2.6065879764596475e-05, -9.680032329742451e-05, -2.0819525329454462e-05]",65536,"[35.82998275756836, 35.699981689453125, 34.549983978271484, 41.32998275756836, 43.019981384277344, 46.4699821472168]",0.41496,7,"[253, 253, 253, 253, 253, 253]",1,"[0.2517344057559967, 0.9470009207725525, -8.867644309997559]",1.0,1.0,0.05593525256307775,47.88711929321289,47.88711929321289,0.6803395748138428,"[47.560001373291016, 47.6510009765625, 47.68199920654297, 47.66600036621094, 47.529998779296875, 47.63600158691406]",132,2
18,"[[36222. 36222. 36110. 36110. 36126. 36126. 37376. 37376.]
 [36222. 36222. 36110. 36110. 36126. 36126. 37376. 37376.]
 [28443. 28443. 35816. 35816. 35681. 35681. 36511. 36511.]
 [28443. 28443. 35816. 35816. 35681. 35681. 36511. 36511.]
 [36903. 36903. 35754. 35754. 35946. 35946. 36719. 36719.]
 [36903. 36903. 35754. 35754. 35946. 35946. 36719. 36719.]
 [37143. 37143. 36246. 36246. 36457. 36457. 37027. 37027.]
 [37143. 37143. 36246. 36246. 36457. 36457. 37027. 37027.]]",,1677768595.377828,['-X'],"[-0.36854257220559644, -0.05335809445665571, 0.13237737303017208, -0.17706187701186268, -3.1120674582879344, -0.0538074682612375]",-1,"[-0.36888, -0.0535, 0.13282032864593127, -0.17775369861257473, -3.1111621920706236, -0.054454232722734204]",1677768595.033936,1677768715.033936,-1,starting,"('starting', (-0.36888, -0.0535), 0, 8, -0.02)",1,168830.72,"[-0.1347249242897508, -1.8203012208987035, 2.2097817562978683, 4.296765513198846, -1.600844287715514, -1.5923532963893567]","[0.002459387102082688, 0.01930658918824658, -0.013704973260957376, -0.005329236990093902, -2.2194212916744312e-05, 0.0025619450569371533]",0,"[0.0909280392450711, 0.7202543926623742, -0.5077801450109314, -0.19899839843352535, 0.00016635742820302697, 0.0957815656642011]","[0.12830008775972584, 0.0021837976535580873, -1.9796480507917127, -0.2912070475934761, -0.0015261041724749, 0.0512628701778138]","[-0.017114744855750763, -4.541450480510093, -17.125904545700234, -1.5399050017360965, -0.0091969694318053, 0.020290765992088483]","[-0.13482839265932256, -1.8203428427325647, 2.2099876403808594, 4.296957492828369, -1.6008527914630335, -1.5924137274371546]","[0.0009587380336597562, 0.018765699118375778, -0.00942119862884283, 0.021595574915409088, 0.0, 0.0014141385909169912]","[0.30488622188568115, -0.5649362802505493, -1.8876044750213623, -0.6298419833183289, 0.061001647263765335, 0.04727627709507942]","[0.2914353609085083, -0.5783871412277222, -1.8831208944320679, -0.6283169388771057, 0.061001647263765335, 0.05490148067474365]","[-0.37389034649877007, -0.053318264751972384, 0.13225112599789635, -0.1771841242073849, -3.1125013658140595, -0.053833623616621674]","[0.0005112452065842189, -0.0004272727709004692, -0.004529059329069433, -0.004204326299491537, -0.03060654196229148, -0.0004747759630145628]","[-19.215323756520103, 2.398431189463714, 3.991002545133381, -0.45527377541458813, -7.834077963906073, -0.307856432108139]","[-0.3690040016174727, -0.05334231305132119, 0.13235086698583606, -0.17710437827351874, -3.112146302694742, -0.05385485170769579]","[-0.006866931852010236, 3.0681119492620754e-05, -3.169729047804075e-05, -6.194414858599452e-05, -0.00018228332210037376, -4.638298699030218e-05]",65536,"[35.82998275756836, 35.699981689453125, 34.549983978271484, 41.32998275756836, 43.019981384277344, 46.4699821472168]",0.40695600000000004,7,"[253, 253, 253, 253, 253, 253]",1,"[-0.11387985944747925, 1.312615156173706, -8.241305351257324]",1.0,1.0,0.06576086851800095,47.88711929321289,47.82634735107422,0.7161448001861572,"[47.560001373291016, 47.6510009765625, 47.696998596191406, 47.66600036621094, 47.529998779296875, 47.66600036621094]",132,2
19,"[[36222. 36222. 36110. 36110. 36125. 36125. 37375. 37375.]
 [36222. 36222. 36110. 36110. 36125. 36125. 37375. 37375.]
 [28443. 28443. 35814. 35814. 35686. 35686. 36516. 36516.]
 [28443. 28443. 35814. 35814. 35686. 35686. 36516. 36516.]
 [36897. 36897. 35758. 35758. 35945. 35945. 36715. 36715.]
 [36897. 36897. 35758. 35758. 35945. 35945. 36715. 36715.]
 [37142. 37142. 36244. 36244. 36458. 36458. 37028. 37028.]
 [37142. 37142. 36244. 36244. 36458. 36458. 37028. 37028.]]",,1677768595.3926258,['-X'],"[-0.36854257220559644, -0.05335809445665571, 0.13237737303017208, -0.17706187701186268, -3.1120674582879344, -0.0538074682612375]",-1,"[-0.36888, -0.0535, 0.13282032864593127, -0.17775369861257473, -3.1111621920706236, -0.054454232722734204]",1677768595.033936,1677768715.033936,-1,starting,"('starting', (-0.36888, -0.0535), 0, 8, -0.02)",1,168830.736,"[-0.134685940644796, -1.8199950496876864, 2.209563924749844, 4.2966820752280235, -1.6008448803594355, -1.592312697283722]","[0.0029124150774320658, 0.022876677147496513, -0.016286526808640723, -0.006211543183201726, -4.939093653749484e-05, 0.0030328877055868075]",0,"[0.10277391725115173, 0.8079305339552828, -0.5774349120382571, -0.2144699476166426, -0.0028416794287728945, 0.10697873243990373]","[0.15218126797775733, 0.025012635226750735, -1.9953182431019443, -0.3093921330997477, -0.002115562047693702, 0.06052126088497228]","[-0.01775855381415198, -4.310113610723715, -17.284914350783826, -1.5445291125572398, -0.00969287000327726, 0.022662820460447285]","[-0.1348045508014124, -1.8200796286212366, 2.2097959518432617, 4.296873569488525, -1.600804630910055, -1.5923774878131312]","[0.0009587380336597562, 0.012450811453163624, -0.00942119862884283, -0.005177185405045748, 0.0, 0.0014141385909169912]","[0.24884097278118134, -0.48871469497680664, -1.8270756006240845, -0.652717649936676, 0.05490148067474365, 0.0930275097489357]","[0.25556638836860657, -0.5044073462486267, -1.8068993091583252, -0.6405172944068909, 0.05795156583189964, 0.09150247275829315]","[-0.37399016658310713, -0.053324373865437986, 0.13225371091714555, -0.177200664565859, -3.1124845061019184, -0.05375908447942706]","[-0.005054856067733822, 0.0003284599059066695, 0.00042348834461730374, 0.0002654079791971507, 0.002177646943743238, -0.00041385004601995467]","[-19.454776173778683, 0.5066216741824933, 6.790306495580596, -0.1416291413311465, -8.202308087376771, 0.010733008568018787]","[-0.3691128434939369, -0.053341778049077464, 0.13235046763429942, -0.1771056382476247, -3.112149806906274, -0.05385395628368541]","[-0.008131512538100402, 4.079599645772939e-05, -2.864767808781864e-05, -5.802889698944875e-05, -0.00027453997276329756, -5.472370929041504e-05]",65536,"[35.82998275756836, 35.699981689453125, 34.549983978271484, 41.32998275756836, 43.019981384277344, 46.4699821472168]",0.40662,7,"[253, 253, 253, 253, 253, 253]",1,"[-0.3566237688064575, 1.3036246299743652, -7.932631015777588]",1.0,1.0,0.0780641804124254,47.82634735107422,47.82634735107422,0.6087239384651184,"[47.560001373291016, 47.6510009765625, 47.696998596191406, 47.66600036621094, 47.529998779296875, 47.66600036621094]",132,2
20,"[[36221. 36221. 36107. 36107. 36127. 36127. 37374. 37374.]
 [36221. 36221. 36107. 36107. 36127. 36127. 37374. 37374.]
 [28443. 28443. 35816. 35816. 35686. 35686. 36514. 36514.]
 [28443. 28443. 35816. 35816. 35686. 35686. 36514. 36514.]
 [36897. 36897. 35758. 35758. 35948. 35948. 36714. 36714.]
 [36897. 36897. 35758. 35758. 35948. 35948. 36714. 36714.]
 [37144. 37144. 36246. 36246. 36460. 36460. 37027. 37027.]
 [37144. 37144. 36246. 36246. 36460. 36460. 37027. 37027.]]",,1677768595.411638,['-X'],"[-0.36854257220559644, -0.05335809445665571, 0.13237737303017208, -0.17706187701186268, -3.1120674582879344, -0.0538074682612375]",-1,"[-0.36888, -0.0535, 0.13282032864593127, -0.17775369861257473, -3.1111621920706236, -0.054454232722734204]",1677768595.033936,1677768715.033936,-1,starting,"('starting', (-0.36888, -0.0535), 0, 8, -0.02)",1,168830.75199999998,"[-0.13463951407276387, -1.8196281757704549, 2.2093035878343663, 4.296583776898554, -1.6008459224836074, -1.5922642237044027]","[0.0034197725157656626, 0.02707224752415371, -0.019192096088343734, -0.0072248056771686804, -8.236955452286598e-05, 0.0035733398470302264]",0,"[0.11119488831037665, 0.890788523870087, -0.627458389105376, -0.23147246873200583, -0.0038981198966939173, 0.11679412211671228]","[0.17843001192766272, 0.04732178078060075, -2.0068323615437635, -0.3300904145695844, -0.002772436966248059, 0.07106814567771602]","[-0.024136725088432676, -4.089615016145737, -17.394349798851678, -1.5482683555332195, -0.009807092021273372, 0.02474215351031119]","[-0.13476831117738897, -1.8197324911700647, 2.2095322608947754, 4.29679012298584, -1.6008647123919886, -1.5922935644732874]","[0.0016490294365212321, 0.016694825142621994, -0.01507136132568121, 0.012631373479962349, 0.0, 0.008197209797799587]","[0.3429970145225525, -0.4506039321422577, -1.8876044750213623, -0.6115415096282959, 0.06405173242092133, 0.0732019767165184]","[0.3407551944255829, -0.4528457224369049, -1.8786371946334839, -0.5825657248497009, 0.05795156583189964, 0.07015189528465271]","[-0.3741158891988304, -0.05330723078219676, 0.13226028282702923, -0.17727460905542156, -3.112481352504031, -0.05385050646662351]","[-0.0033851459844518508, -0.00015117796487652607, -0.00027198667026452085, -0.0020980306086118214, -0.013831150395819572, -0.006534476025059742]","[-17.898294710127544, 2.404613358020485, 4.005893780039995, -0.3432805826541678, -7.022184379568305, -0.22454550866865436]","[-0.36924266364381136, -0.053341051419836916, 0.1323494565120371, -0.17710741143479602, -3.112156381880565, -0.053853159620552184]","[-0.009567128034888699, 5.491814204548673e-05, -8.807567765856652e-05, -7.256570678996688e-05, -0.0005340775319627962, -7.681665318298898e-05]",65536,"[35.82998275756836, 35.699981689453125, 34.549983978271484, 41.32998275756836, 43.019981384277344, 46.4699821472168]",0.39864,7,"[253, 253, 253, 253, 253, 253]",1,"[-0.24274390935897827, 0.7641937732696533, -8.02853012084961]",1.0,1.0,0.09247392350707301,47.88711929321289,47.82634735107422,0.7877604365348816,"[47.560001373291016, 47.62099838256836, 47.696998596191406, 47.66600036621094, 47.529998779296875, 47.66600036621094]",132,2
21,"[[0. 0. 0. 0. 0. 0. 0. 0.]
 [0. 0. 0. 0. 0. 0. 0. 0.]
 [0. 0. 0. 0. 0. 0. 0. 0.]
 [0. 0. 0. 0. 0. 0. 0. 0.]
 [0. 0. 0. 0. 0. 0. 0. 0.]
 [0. 0. 0. 0. 0. 0. 0. 0.]
 [0. 0. 0. 0. 0. 0. 0. 0.]
 [0. 0. 0. 0. 0. 0. 0. 0.]]",,1677768595.439849,['-X'],"[-0.36854257220559644, -0.05335809445665571, 0.13237737303017208, -0.17706187701186268, -3.1120674582879344, -0.0538074682612375]",-1,"[-0.36888, -0.0535, 0.13282032864593127, -0.17775369861257473, -3.1111621920706236, -0.054454232722734204]",1677768595.033936,1677768715.033936,-1,starting,"('starting', (-0.36888, -0.0535), 0, 8, -0.02)",1,168830.78399999999,"[-0.1345202798581866, -1.8186765052014104, 2.208629570138335, 4.296331738369554, -1.6008481232007874, -1.592138263165781]","[0.004617830874823519, 0.03700642953487709, -0.026216029388175223, -0.009765035529227436, -0.00011481218101650553, 0.004927183033535096]",0,"[0.1255154068532718, 1.0171817215714773, -0.7215356791706053, -0.26573885704891975, -0.0064329327064870535, 0.13819852002157698]","[0.24115449299047167, 0.08217991735541648, -2.030079983687173, -0.38192877272035486, -0.00344811499115106, 0.09740584692959892]","[-0.03130731155785901, -3.7717239635713846, -17.606727745585992, -1.5571089577633996, -0.010167473844306685, 0.029276550354603796]","[-0.13468438783754522, -1.818798844014303, 2.2088489532470703, 4.296586513519287, -1.6008284727679651, -1.5922215620623987]","[0.002198705915361643, 0.024160197004675865, -0.02003123238682747, 0.016178704798221588, 0.0, 0.006471481639891863]","[0.5201000571250916, -0.46181297302246094, -2.0602238178253174, -0.6161166429519653, 0.053376439958810806, 0.03965106979012489]","[0.5156164169311523, -0.46405479311943054, -2.0669493675231934, -0.652717649936676, 0.05795156583189964, 0.03355090692639351]","[-0.37444674342421513, -0.05330165361116361, 0.13226218125689745, -0.17725262229976832, -3.112524815586758, -0.05378691663804117]","[-0.00471771181412251, -0.0001759434212757105, -0.0010159191994265307, -0.0028734370047331687, -0.019891223941218793, -0.00425437251049781]","[-15.77328144485033, 5.272510050486714, -1.7479302960709722, -0.9092246818923255, -5.532111660469536, -0.7136711636343358]","[-0.3695784295977887, -0.053339036829125934, 0.13234568233456653, -0.17711435164242978, -3.1121775396436773, -0.05384988696636021]","[-0.013052574613154474, 8.952879083842231e-05, -0.00015423044347957968, -0.00011527640161329714, -0.0008571878781470084, -0.0002047535481020605]",65536,"[35.82998275756836, 35.699981689453125, 34.549983978271484, 41.32998275756836, 43.019981384277344, 46.4699821472168]",0.399445,7,"[253, 253, 253, 253, 253, 253]",1,"[-0.0479494147002697, 1.4774413108825684, -8.502030372619629]",1.0,1.0,0.12674496809462651,47.88711929321289,47.82634735107422,0.7161448001861572,"[47.560001373291016, 47.62099838256836, 47.68199920654297, 47.66600036621094, 47.529998779296875, 47.66600036621094]",132,2
22,"[[36224. 36224. 36107. 36107. 36129. 36129. 37370. 37370.]
 [36224. 36224. 36107. 36107. 36129. 36129. 37370. 37370.]
 [28445. 28445. 35817. 35817. 35682. 35682. 36512. 36512.]
 [28445. 28445. 35817. 35817. 35682. 35682. 36512. 36512.]
 [36900. 36900. 35758. 35758. 35944. 35944. 36714. 36714.]
 [36900. 36900. 35758. 35758. 35944. 35944. 36714. 36714.]
 [37140. 37140. 36244. 36244. 36456. 36456. 37025. 37025.]
 [37140. 37140. 36244. 36244. 36456. 36456. 37025. 37025.]]",,1677768595.4566905,['-X'],"[-0.36854257220559644, -0.05335809445665571, 0.13237737303017208, -0.17706187701186268, -3.1120674582879344, -0.0538074682612375]",-1,"[-0.36888, -0.0535, 0.13282032864593127, -0.17775369861257473, -3.1111621920706236, -0.054454232722734204]",1677768595.033936,1677768715.033936,-1,starting,"('starting', (-0.36888, -0.0535), 0, 8, -0.02)",1,168830.8,"[-0.13443984164903622, -1.8180302523126244, 2.2081716161908567, 4.296161594626383, -1.6008506016686965, -1.5920518187327204]","[0.007036164001647361, 0.056554995932233974, -0.04007865958651177, -0.014883683453948141, -0.000224221022210748, 0.007571124822172774]",0,"[0.08468368231526505, 0.6853008363519805, -0.48603584766149316, -0.17926309145431507, -0.004053880837068212, 0.09287127878307552]","[0.3701566136331279, 0.012652967571357431, -1.9918459342933377, -0.38500743536322407, -0.005581982986085305, 0.1466027631198416]","[-0.020784624601794977, -4.71602010258974, -17.070545960988316, -1.5351654244195352, -0.010164853500079722, 0.01967423869202541]","[-0.1345766226397913, -1.8180797735797327, 2.208296775817871, 4.2963948249816895, -1.6008408705340784, -1.5921857992755335]","[0.00848802737891674, 0.0621134415268898, -0.04614725708961487, 0.008388957940042019, 0.0, 0.0011744541116058826]","[0.6478832364082336, -0.03138534724712372, -2.362868309020996, -0.49716341495513916, 0.061001647263765335, 0.22418105602264404]","[0.6344323754310608, -0.01569267362356186, -2.362868309020996, -0.5718904137611389, 0.0564265251159668, 0.23028121888637543]","[-0.37471518117360714, -0.05330215142163922, 0.13227920845637683, -0.17713671493520955, -3.1125047958419794, -0.053806588381163326]","[-0.017260891373974654, -0.0007883624950723804, -0.0017716953360832214, -0.003285422815033127, -0.02409388965314903, 0.007426607194837235]","[10.239501188904422, 13.159703491143363, -6.664468330903518, -2.291869331851395, 1.789950353410255, 0.8325344243979289]","[-0.36980634926807426, -0.05333731489874842, 0.13234293353220813, -0.17712135249573638, -3.1121925826364287, -0.05384911063904207]","[-0.019946615849595315, 0.00015193723061385214, -0.00024742041086231817, -0.00013208289652178658, -0.0013404674882801263, -0.0003764170604610706]",65536,"[35.82998275756836, 35.699981689453125, 34.549983978271484, 41.32998275756836, 43.019981384277344, 46.4699821472168]",0.364512,7,"[253, 253, 253, 253, 253, 253]",1,"[0.044952575117349625, 0.5783898234367371, -8.684837341308594]",0.8900000000000005,1.0,0.10797659085686258,47.82634735107422,47.82634735107422,0.8235656023025513,"[47.560001373291016, 47.62099838256836, 47.68199920654297, 47.66600036621094, 47.529998779296875, 47.63600158691406]",132,0
23,"[[36225. 36225. 36107. 36107. 36124. 36124. 37377. 37377.]
 [36225. 36225. 36107. 36107. 36124. 36124. 37377. 37377.]
 [28445. 28445. 35816. 35816. 35687. 35687. 36513. 36513.]
 [28445. 28445. 35816. 35816. 35687. 35687. 36513. 36513.]
 [36898. 36898. 35758. 35758. 35946. 35946. 36715. 36715.]
 [36898. 36898. 35758. 35758. 35946. 35946. 36715. 36715.]
 [37141. 37141. 36247. 36247. 36457. 36457. 37026. 37026.]
 [37141. 37141. 36247. 36247. 36457. 36457. 37026. 37026.]]",,1677768595.4696865,['-X'],"[-0.36854257220559644, -0.05335809445665571, 0.13237737303017208, -0.17706187701186268, -3.1120674582879344, -0.0538074682612375]",-1,"[-0.36888, -0.0535, 0.13282032864593127, -0.17775369861257473, -3.1111621920706236, -0.054454232722734204]",1677768595.033936,1677768715.033936,-1,starting,"('starting', (-0.36888, -0.0535), 0, 8, -0.02)",1,168830.816,"[-0.13443984164903622, -1.8180302523126244, 2.2081716161908567, 4.296161594626383, -1.6008506016686965, -1.5920518187327204]","[0.0, 0.0, 0.0, 0.0, 0.0, 0.0]",0,"[0.0, 0.0, 0.0, 0.0, 0.0, 0.0]","[2.999447774039252e-17, -0.5827991195714312, -1.406868195245965, -0.1788004835369979, -0.0012329825802879946, 0.0]","[3.358849014238444e-16, -6.623335331644589, -15.97114966904893, -1.4902125241049464, -0.010373215465455846, 0.0]","[-0.13444501558412725, -1.817397419606344, 2.2076377868652344, 4.296167850494385, -1.600804630910055, -1.5921857992755335]","[0.004397411830723286, -0.061167486011981964, 0.0021859225817024708, 0.026461169123649597, 0.0, -0.014980281703174114]","[0.09191422909498215, -2.0490148067474365, -0.035868968814611435, -0.12047825008630753, 0.0564265251159668, 0.04117611050605774]","[0.07173793762922287, -2.1229946613311768, -0.06277069449424744, -0.11590313166379929, 0.061001647263765335, 0.042701154947280884]","[-0.3750290744595994, -0.05331616227148999, 0.13236190476739484, -0.1769210839225108, -3.1123092575984255, -0.05376952577040832]","[0.009418185316555312, -0.0028381155117821197, 0.018314423179756373, 0.004661986710245231, 0.03169421707521959, 0.019216015528798994]","[-86.79522775966613, -10.432223566087997, 11.751349943311695, 2.72576321328945, -19.79431081855219, -0.3866745237422379]","[-0.36980634926807426, -0.05333731489874842, 0.13234293353220813, -0.17712135249573638, -3.1121925826364287, -0.05384911063904207]","[0.0, 0.0, 0.0, 0.0, 0.0, 0.0]",65536,"[35.82998275756836, 35.699981689453125, 34.549983978271484, 41.32998275756836, 43.019981384277344, 46.4699821472168]",0.393192,7,"[253, 253, 253, 253, 253, 253]",1,"[0.20678184926509857, 1.18075430393219, -7.740833282470703]",1.0,1.0,0.0,47.88711929321289,47.88711929321289,0.8951812386512756,"[47.560001373291016, 47.60599899291992, 47.68199920654297, 47.63600158691406, 47.499000549316406, 47.63600158691406]",132,2
24,"[[0. 0. 0. 0. 0. 0. 0. 0.]
 [0. 0. 0. 0. 0. 0. 0. 0.]
 [0. 0. 0. 0. 0. 0. 0. 0.]
 [0. 0. 0. 0. 0. 0. 0. 0.]
 [0. 0. 0. 0. 0. 0. 0. 0.]
 [0. 0. 0. 0. 0. 0. 0. 0.]
 [0. 0. 0. 0. 0. 0. 0. 0.]
 [0. 0. 0. 0. 0. 0. 0. 0.]]",,1677768595.4948874,['-X'],"[-0.36854257220559644, -0.05335809445665571, 0.13237737303017208, -0.17706187701186268, -3.1120674582879344, -0.0538074682612375]",-1,"[-0.36888, -0.0535, 0.13282032864593127, -0.17775369861257473, -3.1111621920706236, -0.054454232722734204]",1677768595.033936,1677768715.033936,-1,starting,"('starting', (-0.36888, -0.0535), 0, 8, -0.02)",1,168830.84,"[-0.13439804035070946, -1.8176956575430783, 2.207929502998603, 4.296074668217571, -1.6008508319104795, -1.5920110290387584]","[0.003088607966820854, 0.02460226094078557, -0.0178622093533954, -0.006404891324748253, -4.52633907889772e-06, 0.0029700330224792884]",0,"[0.20302012308110456, 1.6083836273204075, -1.1721467258200522, -0.41969901940024945, 0.0006132708523086726, 0.19202872414178396]","[0.15949478110843726, 0.21442673099081638, -2.11533809218584, -0.31969055959847126, -0.0009162378445097301, 0.061505767810960794]","[-0.0401413602422212, -2.171066924917825, -18.63587745638667, -1.5981587592335325, -0.007708407832075196, 0.04068016510588901]","[-0.13448077837099248, -1.8178651968585413, 2.207961082458496, 4.296287536621094, -1.600804630910055, -1.5921738783465784]","[0.005790777504444122, 0.004729774314910173, -0.01781974360346794, -0.0021092237439006567, 0.0, -0.02461559884250164]","[-0.08743061125278473, -0.22866468131542206, -2.5332460403442383, -0.3431342542171478, 0.06557676941156387, 0.09150247275829315]","[-0.09191422909498215, -0.23539011180400848, -2.5085859298706055, -0.35685962438583374, 0.061001647263765335, 0.09760263562202454]","[-0.3748665691613514, -0.053324804618448074, 0.13236818549575494, -0.17699653786996195, -3.1122805774658615, -0.053772263703704845]","[-0.006874199677759851, -0.001180233977477498, 0.006769675958519596, 0.0025819188731432824, 0.01418023458059752, 0.03041730875990146]","[-6.035092602230451, -8.67486935529938, -16.04488664191336, 2.862885608430668, -0.052896176897360286, 0.21356878587875766]","[-0.3699259696289849, -0.05333651444690657, 0.1323436411318866, -0.17711841821984511, -3.112196908804482, -0.05384754429204418]","[-0.008820274414142685, 5.3564316456714367e-05, 7.942185996312389e-05, -9.45030929683191e-05, -0.00022780997722460087, 0.0001900148051448623]",65536,"[35.82998275756836, 35.699981689453125, 34.549983978271484, 41.32998275756836, 43.019981384277344, 46.4699821472168]",0.400284,7,"[253, 253, 253, 253, 253, 253]",1,"[3.9887919425964355, -0.8181368708610535, -14.37283706665039]",1.0,1.0,0.08453738885469463,47.82634735107422,47.82634735107422,0.7161448001861572,"[47.560001373291016, 47.60599899291992, 47.68199920654297, 47.63600158691406, 47.499000549316406, 47.63600158691406]",132,2
25,"[[36224. 36224. 36110. 36110. 36123. 36123. 37373. 37373.]
 [36224. 36224. 36110. 36110. 36123. 36123. 37373. 37373.]
 [28447. 28447. 35818. 35818. 35682. 35682. 36513. 36513.]
 [28447. 28447. 35818. 35818. 35682. 35682. 36513. 36513.]
 [36899. 36899. 35756. 35756. 35947. 35947. 36717. 36717.]
 [36899. 36899. 35756. 35756. 35947. 35947. 36717. 36717.]
 [37144. 37144. 36246. 36246. 36456. 36456. 37027. 37027.]
 [37144. 37144. 36246. 36246. 36456. 36456. 37027. 37027.]]",,1677768595.5086231,['-X'],"[-0.36854257220559644, -0.05335809445665571, 0.13237737303017208, -0.17706187701186268, -3.1120674582879344, -0.0538074682612375]",-1,"[-0.36888, -0.0535, 0.13282032864593127, -0.17775369861257473, -3.1111621920706236, -0.054454232722734204]",1677768595.033936,1677768715.033936,-1,starting,"('starting', (-0.36888, -0.0535), 0, 8, -0.02)",1,168830.856,"[-0.13431575941749685, -1.8170426165952271, 2.207454593544634, 4.295904450273321, -1.6008508013702958, -1.591932217413138]","[0.005047039781352123, 0.03998903874274223, -0.029088020373282595, -0.010427141907986428, 2.6435892048703363e-06, 0.004846137572215944]",0,"[-0.05215111617794656, -0.4308920352345041, 0.3116350907493089, 0.11135709341938169, 0.00017325893974532434, -0.046975990303142104]","[0.2680894398486892, -0.27501965657364, -1.8252830452641353, -0.3752573440273585, -0.0013054315545401038, 0.09111169540644787]","[0.015967809896465887, -7.8546951216576275, -15.260703294290076, -1.4616147170194995, -0.010982736501829979, -0.009951589534769217]","[-0.13434917131532842, -1.8173139731036585, 2.2073616981506348, 4.296048164367676, -1.60081655183901, -1.5921619574176233]","[0.01293657161295414, 0.05729418247938156, -0.04012638330459595, -0.009251821786165237, 0.0, -0.021092236042022705]","[0.0, 0.1053650975227356, -1.8584609031677246, -0.3233087360858917, 0.05947660654783249, 0.462087482213974]","[-0.011209052987396717, 0.12554138898849487, -1.8719117641448975, -0.3400841951370239, 0.061001647263765335, 0.462087482213974]","[-0.37515429740085754, -0.053331504991031446, 0.13247196430329464, -0.17679825449664197, -3.1120023665760104, -0.053818544047774475]","[-0.018465603205471463, -0.0022444343000352328, -0.0010765000885222837, -0.0005737518145289798, -0.00860310455332952, 0.03415432093950474]","[14.032650198397175, 2.516900365764222, 3.098531826746414, 0.09315517981742305, 3.164862801575304, 3.549278953625978]","[-0.3701604298983634, -0.053335209185227196, 0.13234604304317724, -0.1771102554045707, -3.1122025383137144, -0.05384404881695397]","[-0.014361202111738016, 7.596413231270454e-05, 0.0001454112336405331, -0.00015439445603657105, -0.0002980312464742034, 0.0003174143892515349]",65536,"[35.82998275756836, 35.699981689453125, 34.549983978271484, 41.32998275756836, 43.019981384277344, 46.4699821472168]",0.669732,7,"[253, 253, 253, 253, 253, 253]",1,"[-0.21277552843093872, 2.7510976791381836, -5.439261436462402]",1.0,1.0,0.13755621610976176,47.82634735107422,47.82634735107422,0.6445291042327881,"[47.560001373291016, 47.60599899291992, 47.66600036621094, 47.63600158691406, 47.499000549316406, 47.63600158691406]",132,2
26,"[[36225. 36225. 36111. 36111. 36127. 36127. 37375. 37375.]
 [36225. 36225. 36111. 36111. 36127. 36127. 37375. 37375.]
 [28446. 28446. 35816. 35816. 35687. 35687. 36516. 36516.]
 [28446. 28446. 35816. 35816. 35687. 35687. 36516. 36516.]
 [36898. 36898. 35757. 35757. 35946. 35946. 36716. 36716.]
 [36898. 36898. 35757. 35757. 35946. 35946. 36716. 36716.]
 [37142. 37142. 36247. 36247. 36459. 36459. 37023. 37023.]
 [37142. 37142. 36247. 36247. 36459. 36459. 37023. 37023.]]",,1677768595.5285358,['-X'],"[-0.36854257220559644, -0.05335809445665571, 0.13237737303017208, -0.17706187701186268, -3.1120674582879344, -0.0538074682612375]",-1,"[-0.36888, -0.0535, 0.13282032864593127, -0.17775369861257473, -3.1111621920706236, -0.054454232722734204]",1677768595.033936,1677768715.033936,-1,starting,"('starting', (-0.36888, -0.0535), 0, 8, -0.02)",1,168830.872,"[-0.13422226512894486, -1.8163083304404708, 2.206918949876483, 4.29571229191199, -1.6008507757661299, -1.5918423812806255]","[0.005822839923856629, 0.04552577151992259, -0.03328772415589475, -0.011946974389520623, -2.41016546827647e-06, 0.005560861143072009]",0,"[-0.0359041090454605, -0.33341837310735517, 0.22376754505089302, 0.07896478608389063, -0.001011249302051897, -0.04303819325552987]","[0.3097014007011576, -0.2501377608395144, -1.8459811065695426, -0.3766915915970849, -0.001312267687907917, 0.10482666521628778]","[0.022021165857122466, -7.615567035442913, -15.464754568928353, -1.4709400091357303, -0.011040249629353936, -0.009117390199402744]","[-0.13431245485414678, -1.816404167805807, 2.2068939208984375, 4.2957844734191895, -1.6008284727679651, -1.5919702688800257]","[0.010405503213405609, 0.0584702342748642, -0.04494563862681389, -0.02334527112543583, 0.0, 0.0535694882273674]","[0.6164978742599487, 0.02914353646337986, -2.275437593460083, -0.3827853500843048, 0.061001647263765335, 0.39346063137054443]","[0.6344323754310608, 0.038110777735710144, -2.302339553833008, -0.31110841035842896, 0.061001647263765335, 0.388885498046875]","[-0.37541962958829633, -0.05330695072247582, 0.13238804456447573, -0.17704131484606034, -3.1121636729630437, -0.053814752928164976]","[-0.023489491870503584, -0.0006542819629559025, 0.002130791844202725, 0.0001735764720883421, 0.011646297440726483, -0.042928969685736985]","[23.31792135456647, 21.762177277466122, -6.564154353518536, -4.066648244568345, 5.637703821145021, 2.966121078173897]","[-0.37042481988665893, -0.0533340401081151, 0.13234938090472664, -0.17710137074416438, -3.112206399818289, -0.05384034217030075]","[-0.016427765734669596, 6.704977645494671e-05, 0.00023964212400444138, -0.0001380211817052235, -9.22977952422669e-05, 0.000394931024039793]",65536,"[35.82998275756836, 35.699981689453125, 34.549983978271484, 41.32998275756836, 43.019981384277344, 46.4699821472168]",0.6043930000000001,7,"[253, 253, 253, 253, 253, 253]",1,"[1.8730239868164062, 1.9988911151885986, -9.437044143676758]",1.0,1.0,0.15678514079877678,47.82634735107422,47.82634735107422,0.7161448001861572,"[47.560001373291016, 47.60599899291992, 47.66600036621094, 47.63600158691406, 47.499000549316406, 47.63600158691406]",132,2
27,"[[36225. 36225. 36107. 36107. 36126. 36126. 37373. 37373.]
 [36225. 36225. 36107. 36107. 36126. 36126. 37373. 37373.]
 [28445. 28445. 35817. 35817. 35685. 35685. 36513. 36513.]
 [28445. 28445. 35817. 35817. 35685. 35685. 36513. 36513.]
 [36896. 36896. 35759. 35759. 35946. 35946. 36720. 36720.]
 [36896. 36896. 35759. 35759. 35946. 35946. 36720. 36720.]
 [37144. 37144. 36245. 36245. 36458. 36458. 37027. 37027.]
 [37144. 37144. 36245. 36245. 36458. 36458. 37027. 37027.]]",,1677768595.5393968,['-X'],"[-0.36854257220559644, -0.05335809445665571, 0.13237737303017208, -0.17706187701186268, -3.1120674582879344, -0.0538074682612375]",-1,"[-0.36888, -0.0535, 0.13282032864593127, -0.17775369861257473, -3.1111621920706236, -0.054454232722734204]",1677768595.033936,1677768715.033936,-1,starting,"('starting', (-0.36888, -0.0535), 0, 8, -0.02)",1,168830.88,"[-0.1341674354149971, -1.8158848932346991, 2.2066073455000303, 4.295600323030385, -1.6008509006374183, -1.5917908896827262]","[0.00699358596266954, 0.054009847674919155, -0.039745456180192415, -0.014281745102539068, -1.592746034225155e-05, 0.00656780585453297]",0,"[0.1463432548516138, 1.0605095193745706, -0.8072165030372077, -0.29184633912730557, -0.001689661859246885, 0.12586808893262005]","[0.36988359032338963, 0.09447932400766051, -2.0569482936718075, -0.3887056313232496, -0.0013700035383200804, 0.1283393250587181]","[0.0014272239291337474, -3.7660089273802635, -17.812067272811614, -1.5670303421012892, -0.00891211935987982, 0.026664420451812814]","[-0.1343005339251917, -1.8160088698016565, 2.2065463066101074, 4.295712947845459, -1.6008284727679651, -1.5919702688800257]","[0.005023787263780832, 0.04453657567501068, -0.03124207630753517, -0.007190535310655832, 0.0, -0.02780340239405632]","[0.3721405565738678, -0.5088909864425659, -1.9705514907836914, -0.4193863272666931, 0.05947660654783249, 0.0564265251159668]","[0.36093148589134216, -0.4999237656593323, -1.9683096408843994, -0.3919355869293213, 0.061001647263765335, 0.06405173242092133]","[-0.375578764287019, -0.053290122637894, 0.1324140080360109, -0.1770202914416997, -3.1121408051314927, -0.053817240253162986]","[-0.014644359628527615, 0.00011802377830985762, -0.000836274659578066, -0.00019127914965070582, -0.007047013871091627, 0.03291481902352093]","[-23.65043429784118, -5.721315071926705, -5.52762017734712, 1.9074986061990598, -5.017333647777321, -0.8882008574825021]","[-0.37057849906502, -0.05333352759800596, 0.13235258369652791, -0.17709420664294756, -3.112204862871136, -0.053838813851120035]","[-0.019602896544279973, 6.438998212567953e-05, 0.00040392154744517433, -0.00010153171342328714, 0.0002470894706707935, 0.000583731044603561]",65536,"[35.82998275756836, 35.699981689453125, 34.549983978271484, 41.32998275756836, 43.019981384277344, 46.4699821472168]",0.46143599999999996,7,"[253, 253, 253, 253, 253, 253]",1,"[0.0719241201877594, 1.6272832155227661, -8.091463088989258]",1.0,1.0,0.1861721557819351,47.82634735107422,47.82634735107422,1.0026021003723145,"[47.560001373291016, 47.60599899291992, 47.66600036621094, 47.6510009765625, 47.499000549316406, 47.63600158691406]",132,2
28,"[[0. 0. 0. 0. 0. 0. 0. 0.]
 [0. 0. 0. 0. 0. 0. 0. 0.]
 [0. 0. 0. 0. 0. 0. 0. 0.]
 [0. 0. 0. 0. 0. 0. 0. 0.]
 [0. 0. 0. 0. 0. 0. 0. 0.]
 [0. 0. 0. 0. 0. 0. 0. 0.]
 [0. 0. 0. 0. 0. 0. 0. 0.]
 [0. 0. 0. 0. 0. 0. 0. 0.]]",,1677768595.5645432,['-X'],"[-0.36854257220559644, -0.05335809445665571, 0.13237737303017208, -0.17706187701186268, -3.1120674582879344, -0.0538074682612375]",-1,"[-0.36888, -0.0535, 0.13282032864593127, -0.17775369861257473, -3.1111621920706236, -0.054454232722734204]",1677768595.033936,1677768715.033936,-1,starting,"('starting', (-0.36888, -0.0535), 0, 8, -0.02)",1,168830.91199999998,"[-0.1339088522142866, -1.8138827389805705, 2.205129727097514, 4.295067279433784, -1.6008524115277094, -1.5915467007944537]","[0.007842109926247226, 0.061801634164757493, -0.045525163249057095, -0.016448794548143686, -6.65443947024441e-05, 0.007569935104640024]",0,"[0.06110556161937068, 0.5870541968785673, -0.426197869937495, -0.1549113598896311, -0.00240747929678431, 0.07371829560687271]","[0.4106746902985753, -0.020457122091240783, -1.9830777944641567, -0.3846625780402162, -0.0024993069982912775, 0.146088760237069]","[-0.04550525933971093, -5.133708509233913, -16.93072332729934, -1.5295800180679198, -0.010106294357761409, 0.015616790925497708]","[-0.13392955461610967, -1.8139618078814905, 2.2051310539245605, 4.295234203338623, -1.60081655183901, -1.5918028990374964]","[0.009306150488555431, 0.05553010478615761, -0.04194159060716629, -0.016178704798221588, 0.0, -0.012104067951440811]","[0.5044073462486267, -0.3519642651081085, -2.082642078399658, -0.3583846688270569, 0.05490148067474365, 0.4148111939430237]","[0.48647287487983704, -0.35420605540275574, -2.08488392829895, -0.3522845208644867, 0.05795156583189964, 0.44988715648651123]","[-0.37626962744455306, -0.053336138728848584, 0.13237995150478016, -0.17669885764232196, -3.1123024100120036, -0.053773869830835284]","[-0.020772048855695738, -0.0006352724261829351, 0.0010214697199635216, 0.0006359462015926634, 0.0021303707861037293, 0.021561624691270195]","[-8.043220346375476, 8.70883245512498, -7.926401951640724, -1.136500925495913, -0.8267436327949822, 2.4854509432292664]","[-0.3713077021760822, -0.053330547347662786, 0.1323690890676155, -0.177062245203601, -3.1121896649029184, -0.053833823291023354]","[-0.02248842748262332, 0.00013862690462683434, 0.00044470820089894075, -4.94993672233699e-05, 0.00042936199477949463, 0.00045207439146022037]",65536,"[35.82998275756836, 35.699981689453125, 34.549983978271484, 41.32998275756836, 43.019981384277344, 46.4699821472168]",0.394237,7,"[253, 253, 253, 253, 253, 253]",1,"[0.41356369853019714, 2.6072492599487305, -8.702818870544434]",1.0,1.0,0.21762718090891384,47.88711929321289,47.82634735107422,0.7161448001861572,"[47.560001373291016, 47.63600158691406, 47.66600036621094, 47.6510009765625, 47.54499816894531, 47.63600158691406]",132,2
29,"[[36226. 36226. 36110. 36110. 36126. 36126. 37375. 37375.]
 [36226. 36226. 36110. 36110. 36126. 36126. 37375. 37375.]
 [28448. 28448. 35819. 35819. 35683. 35683. 36514. 36514.]
 [28448. 28448. 35819. 35819. 35683. 35683. 36514. 36514.]
 [36897. 36897. 35757. 35757. 35947. 35947. 36716. 36716.]
 [36897. 36897. 35757. 35757. 35947. 35947. 36716. 36716.]
 [37145. 37145. 36247. 36247. 36457. 36457. 37026. 37026.]
 [37145. 37145. 36247. 36247. 36457. 36457. 37026. 37026.]]",,1677768595.5858111,['-X'],"[-0.36854257220559644, -0.05335809445665571, 0.13237737303017208, -0.17706187701186268, -3.1120674582879344, -0.0538074682612375]",-1,"[-0.36888, -0.0535, 0.13282032864593127, -0.17775369861257473, -3.1111621920706236, -0.054454232722734204]",1677768595.033936,1677768715.033936,-1,starting,"('starting', (-0.36888, -0.0535), 0, 8, -0.02)",1,168830.92799999999,"[-0.13376786333137858, -1.8127607879933398, 2.2043045798221677, 4.294769465297708, -1.6008537983562636, -1.5914095550058267]","[0.008363141686469094, 0.06631049031404092, -0.04873807556904011, -0.017561131133657103, -7.769135673585891e-05, 0.008070918347283672]",0,"[-0.11216587380927234, -0.9528615969648154, 0.7084072850162219, 0.2630630927944466, 0.002246356989221709, -0.12517336046740105]","[0.4462930825557934, -0.3974017650483357, -1.7574355291416075, -0.3719783820000808, -0.002856143970690252, 0.15052832392106597]","[0.04390641382296967, -9.45316113083711, -14.345366190101206, -1.4219357837800766, -0.011279069127765029, -0.026517246278807305]","[-0.13388139406313115, -1.8128483931170862, 2.2044477462768555, 4.294970512390137, -1.6008527914630335, -1.5915988127337855]","[0.005049353465437889, 0.08560891449451447, -0.05891764536499977, -0.021595574915409088, 0.0, 0.003379551460966468]","[0.9819130301475525, -0.25332459807395935, -2.7910542488098145, -0.3400841951370239, 0.035075947642326355, 0.5551149845123291]","[0.957253098487854, -0.25108277797698975, -2.7910542488098145, -0.4392118453979492, 0.0366009883582592, 0.5657902956008911]","[-0.37662146387320394, -0.05329899377232796, 0.1323213305241857, -0.17694276615313356, -3.112452578540405, -0.053808924120045315]","[-0.029692165136554337, 0.0020910606509497586, -0.0014590459284035818, -0.0007178084007220785, -0.004933973134558331, 0.0019071634059418287]","[35.10738458536118, 34.61361863754812, -24.594611059244375, -6.707788727150158, 10.39369749333616, 4.266953432963554]","[-0.37171542139866726, -0.053327620213348484, 0.13237621889617077, -0.17705104825288914, -3.11218461343299, -0.05383153480744621]","[-0.024078952504861223, 0.0001550240578690211, 0.00038820565940708517, -7.228001136517854e-05, 0.00026363049656845486, 0.00048470952275067765]",65536,"[35.82998275756836, 35.699981689453125, 34.549983978271484, 41.32998275756836, 43.019981384277344, 46.4699821472168]",0.679332,7,"[253, 253, 253, 253, 253, 253]",1,"[0.9050451517105103, 0.9979471564292908, -10.399028778076172]",1.0,1.0,0.2335011394631795,47.88711929321289,47.82634735107422,0.6803395748138428,"[47.513999938964844, 47.63600158691406, 47.68199920654297, 47.6510009765625, 47.54499816894531, 47.63600158691406]",132,2
30,"[[36225. 36225. 36110. 36110. 36128. 36128. 37371. 37371.]
 [36225. 36225. 36110. 36110. 36128. 36128. 37371. 37371.]
 [28446. 28446. 35816. 35816. 35686. 35686. 36515. 36515.]
 [28446. 28446. 35816. 35816. 35686. 35686. 36515. 36515.]
 [36898. 36898. 35760. 35760. 35944. 35944. 36720. 36720.]
 [36898. 36898. 35760. 35760. 35944. 35944. 36720. 36720.]
 [37142. 37142. 36244. 36244. 36459. 36459. 37024. 37024.]
 [37142. 37142. 36244. 36244. 36459. 36459. 37024. 37024.]]",,1677768595.5999653,['-X'],"[-0.36854257220559644, -0.05335809445665571, 0.13237737303017208, -0.17706187701186268, -3.1120674582879344, -0.0538074682612375]",-1,"[-0.36888, -0.0535, 0.13282032864593127, -0.17775369861257473, -3.1111621920706236, -0.054454232722734204]",1677768595.033936,1677768715.033936,-1,starting,"('starting', (-0.36888, -0.0535), 0, 8, -0.02)",1,168830.944,"[-0.13361415349917483, -1.811562060998532, 2.2034260576768236, 4.2944553822430365, -1.6008548465851753, -1.5912665524911551]","[0.010367942680206839, 0.08047582479473814, -0.05893005809912409, -0.021020600154146894, -6.34987066433551e-05, 0.009544445278855306]",0,"[0.1902695418608603, 1.3888469048063852, -1.0056060037794803, -0.34760230931922803, 0.000503900082859943, 0.1516970279718643]","[0.529672802280307, 0.18098018272598343, -2.106820535670125, -0.3915066362609127, -0.002171386396601883, 0.18569531459492158]","[0.0015130749966971724, -2.9919053391888366, -18.23596449569499, -1.5786933287799454, -0.007847292366992708, 0.03213613052707529]","[-0.13371402422060186, -1.811758820210592, 2.2034287452697754, 4.294551849365234, -1.6008408705340784, -1.5913832823382776]","[0.006404370069503784, 0.0734393298625946, -0.057613763958215714, -0.02689260244369507, 0.0, 0.04520449787378311]","[0.8048099875450134, 0.13675044476985931, -1.8270756006240845, -0.30348318815231323, 0.02897578291594982, 0.26078203320503235]","[0.7734246253967285, 0.14123407006263733, -1.8494937419891357, -0.3050082325935364, 0.030500823631882668, 0.29738304018974304]","[-0.37712427960473505, -0.053296026982565206, 0.13244153565811, -0.17700042785235978, -3.1120939303678403, -0.053819954029567844]","[-0.02978454564943984, 0.001606987736465877, 0.002832205306797098, 0.0005199306043679559, 0.012582302743396308, -0.03852908804242345]","[-7.799881812188399, 10.020830401835084, 3.8137845514151816, -1.8849599734015274, -1.314939496953641, 0.6901886161346426]","[-0.37214897606461994, -0.053326118871522214, 0.1323814290244831, -0.1770290510080715, -3.1121869771584043, -0.0538276712818784]","[-0.02907580969218325, 7.275204233796066e-05, 0.00030107717918750014, -0.0001814016732595824, -0.00019177071151723328, 0.001056703083821775]",65536,"[35.82998275756836, 35.699981689453125, 34.549983978271484, 41.32998275756836, 43.019981384277344, 46.4699821472168]",0.38044799999999995,7,"[253, 253, 253, 253, 253, 253]",1,"[0.17681346833705902, -0.2757091224193573, -7.734839916229248]",1.0,1.0,0.2829935763256956,47.82634735107422,47.82634735107422,0.859376072883606,"[47.513999938964844, 47.63600158691406, 47.68199920654297, 47.6510009765625, 47.54499816894531, 47.62099838256836]",132,2
31,"[[0. 0. 0. 0. 0. 0. 0. 0.]
 [0. 0. 0. 0. 0. 0. 0. 0.]
 [0. 0. 0. 0. 0. 0. 0. 0.]
 [0. 0. 0. 0. 0. 0. 0. 0.]
 [0. 0. 0. 0. 0. 0. 0. 0.]
 [0. 0. 0. 0. 0. 0. 0. 0.]
 [0. 0. 0. 0. 0. 0. 0. 0.]
 [0. 0. 0. 0. 0. 0. 0. 0.]]",,1677768595.6227684,['-X'],"[-0.36854257220559644, -0.05335809445665571, 0.13237737303017208, -0.17706187701186268, -3.1120674582879344, -0.0538074682612375]",-1,"[-0.36888, -0.0535, 0.13282032864593127, -0.17775369861257473, -3.1111621920706236, -0.054454232722734204]",1677768595.033936,1677768715.033936,-1,starting,"('starting', (-0.36888, -0.0535), 0, 8, -0.02)",1,168830.968,"[-0.1334038208008561, -1.8099089295285733, 2.2022201185091816, 4.294026368280159, -1.6008573643613708, -1.591068465456642]","[0.00812060691639875, 0.06410822683147525, -0.04678644861051623, -0.01663785137593446, -0.00011367745137336681, 0.007752262755001125]",0,"[-0.12250667573741598, -0.952861182394172, 0.679334140075127, 0.24022180982195004, 0.000977742765018163, -0.10392145155486694]","[0.4310846254589707, -0.40844259774323494, -1.7627087458715993, -0.37268712314150354, -0.0036085108564010942, 0.1450043361371802]","[0.017658547642770084, -9.56125186572197, -14.419692665757298, -1.4294429939500792, -0.01170312233363629, -0.022015153338071643]","[-0.1334016958819788, -1.8099272886859339, 2.202085494995117, 4.294264793395996, -1.6008284727679651, -1.591311279927389]","[0.007721036672592163, 0.074883833527565, -0.05588803440332413, -0.01085770782083273, 0.0, -0.019845876842737198]","[0.6725431680679321, 0.15468493103981018, -1.9840023517608643, -0.5185139775276184, 0.019825534895062447, 0.3827853500843048]","[0.6703013777732849, 0.17934484779834747, -1.9862442016601562, -0.5871408581733704, 0.015250411815941334, 0.3827853500843048]","[-0.3777415361705267, -0.05333144169957715, 0.13242946140370535, -0.17662483224927417, -3.112309390902914, -0.05377363521070111]","[-0.02566002033649939, 0.0005598579097939567, -0.00015752611212417568, -0.0006242033879879244, -0.008779252159542932, 0.027739027829167644]","[28.530056558873934, 18.781660582267044, 6.684277379520236, -4.230817120803533, 4.234126336393392, 2.447502649040689]","[-0.37274417063507015, -0.05332379321507822, 0.1323846622842563, -0.1770029936631539, -3.1121998006253273, -0.053823014766633634]","[-0.023094874123236173, 0.00010373320836847473, 0.00011366267701943189, -0.00012080795890690155, -0.0004190110921531566, 0.0005521745057228767]",65536,"[35.82998275756836, 35.699981689453125, 34.549983978271484, 41.32998275756836, 43.019981384277344, 46.4699821472168]",0.5938680000000001,7,"[253, 253, 253, 253, 253, 253]",1,"[1.0099345445632935, 1.8280713558197021, -8.55897045135498]",1.0,1.0,0.22550851643913297,47.82634735107422,47.82634735107422,0.8235656023025513,"[47.513999938964844, 47.62099838256836, 47.68199920654297, 47.63600158691406, 47.48400115966797, 47.62099838256836]",132,2
32,"[[36225. 36225. 36110. 36110. 36126. 36126. 37369. 37369.]
 [36225. 36225. 36110. 36110. 36126. 36126. 37369. 37369.]
 [28445. 28445. 35816. 35816. 35683. 35683. 36514. 36514.]
 [28445. 28445. 35816. 35816. 35683. 35683. 36514. 36514.]
 [36898. 36898. 35758. 35758. 35947. 35947. 36713. 36713.]
 [36898. 36898. 35758. 35758. 35947. 35947. 36713. 36713.]
 [37144. 37144. 36243. 36243. 36459. 36459. 37026. 37026.]
 [37144. 37144. 36243. 36243. 36459. 36459. 37026. 37026.]]",,1677768595.6417394,['-X'],"[-0.36854257220559644, -0.05335809445665571, 0.13237737303017208, -0.17706187701186268, -3.1120674582879344, -0.0538074682612375]",-1,"[-0.36888, -0.0535, 0.13282032864593127, -0.17775369861257473, -3.1111621920706236, -0.054454232722734204]",1677768595.033936,1677768715.033936,-1,starting,"('starting', (-0.36888, -0.0535), 0, 8, -0.02)",1,168830.984,"[-0.13327452047026078, -1.8088886689754293, 2.2014717927827157, 4.293761360147926, -1.6008592306305296, -1.5909435656889075]","[0.0077385855778266685, 0.06085603780506367, -0.04468452248809903, -0.015735624776837327, -0.00010639556430190265, 0.007412193446436275]",0,"[-0.08567127109335994, -0.727561691611256, 0.5214588540372487, 0.20684587193358067, 0.002561564539282912, -0.09851050924511992]","[0.4121503604682127, -0.35881410568731636, -1.7924223542318374, -0.37356171148368716, -0.0033709598312298733, 0.13866605194221032]","[0.03249172440475165, -8.971570180128465, -14.772574407210454, -1.438295446669727, -0.010899612431313684, -0.02086887677177823]","[-0.13336593309511358, -1.8086345831500452, 2.201474189758301, 4.294037342071533, -1.6008647123919886, -1.5911195913897913]","[0.003962783608585596, 0.074883833527565, -0.04590437561273575, -0.010785803198814392, 0.0, -0.01768871583044529]","[0.7442811131477356, -0.4057677090167999, -2.3471755981445312, -0.5490148067474365, 0.007625205907970667, 0.5764655470848083]","[0.7353138327598572, -0.41473495960235596, -2.3471755981445312, -0.5718904137611389, 0.010675288736820221, 0.5703654289245605]","[-0.3780677009818444, -0.05329351942436082, 0.1322670652115293, -0.17687767841637805, -3.112747120179757, -0.053779754180173625]","[-0.02218539125120669, 0.0014698286970865463, -0.004822864174966274, -0.0020190511782963282, -0.0186675335959502, 0.021813685818640665]","[16.799342682954187, 25.046945191911043, -9.40129869270365, -5.395248559791931, 2.9744217993879944, 4.2788141787142395]","[-0.3731131731968265, -0.05332200847204443, 0.13238801411440984, -0.17699168591177564, -3.112203128168272, -0.05382102613769032]","[-0.022013656625945108, 9.33042245312171e-05, 0.00020277088476810422, -8.902170320745402e-05, -0.00018418646295271954, 0.0005011756067789504]",65536,"[35.82998275756836, 35.699981689453125, 34.549983978271484, 41.32998275756836, 43.019981384277344, 46.4699821472168]",0.617388,7,"[253, 253, 253, 253, 253, 253]",1,"[-0.33864274621009827, 0.28170281648635864, -8.879631996154785]",1.0,1.0,0.21423940245410386,47.82634735107422,47.82634735107422,0.7877604365348816,"[47.513999938964844, 47.62099838256836, 47.68199920654297, 47.63600158691406, 47.48400115966797, 47.62099838256836]",132,2
33,"[[36222. 36222. 36109. 36109. 36126. 36126. 37376. 37376.]
 [36222. 36222. 36109. 36109. 36126. 36126. 37376. 37376.]
 [28447. 28447. 35814. 35814. 35683. 35683. 36515. 36515.]
 [28447. 28447. 35814. 35814. 35683. 35683. 36515. 36515.]
 [36900. 36900. 35755. 35755. 35946. 35946. 36715. 36715.]
 [36900. 36900. 35755. 35755. 35946. 35946. 36715. 36715.]
 [37145. 37145. 36246. 36246. 36456. 36456. 37029. 37029.]
